; generated by Slic3r 1.2.9 on 2016-05-20 at 13:00:11

; external perimeters extrusion width = 0.90mm
; perimeters extrusion width = 0.94mm
; infill extrusion width = 0.94mm
; solid infill extrusion width = 0.94mm
; top infill extrusion width = 0.94mm

M107
M104 S205 ; set temperature
G28 ; home all axes
G1 Z5 F5000 ; lift nozzle

M109 S205 ; wait for temperature to be reached
G21 ; set units to millimeters
G90 ; use absolute coordinates
M82 ; use absolute distances for extrusion
G92 E0
G1 Z0.900 F7800.000
G1 X33.452 Y23.120 F7800.000
G1 X33.700 Y22.820 E0.23377 F1800.000
G1 X34.889 Y21.668 E1.22904
G1 X39.837 Y17.825 E4.99582
G1 X41.996 Y16.650 E6.47414
G1 X44.476 Y16.225 E7.98638
G1 X84.825 Y16.078 E32.24689
G1 X87.253 Y16.467 E33.72522
G1 X89.476 Y17.644 E35.23739 F1800.000
G1 X94.451 Y21.451 E39.00419
G1 X95.648 Y22.593 E39.99871
G1 X95.898 Y22.890 E40.23246
G1 X97.157 Y25.003 E41.71079
G1 X97.676 Y27.406 E43.18911
G1 X97.118 Y30.672 E45.18155
G1 X73.823 Y87.553 E82.13807
G1 X72.536 Y89.648 E83.61640
G1 X70.648 Y91.223 E85.09472
G1 X68.356 Y92.113 E86.57305
G1 X66.965 Y92.275 E87.41519
G1 X65.016 Y92.319 E88.58728
G1 X62.892 Y92.290 E89.86429
G1 X60.472 Y91.853 E91.34261
G1 X58.319 Y90.667 E92.82093
G1 X56.656 Y88.856 E94.29926
G1 X55.999 Y87.619 E95.14139
G1 X32.289 Y30.909 E132.09785
G1 X31.720 Y28.517 E133.57617
G1 X31.944 Y26.069 E135.05450
G1 X33.390 Y23.240 E136.96497
G92 E0
G1 X61.804 Y52.781 F7800.000
G1 X51.055 Y46.734 E7.41523 F1800.000
G1 X50.904 Y45.957 E7.89137
G1 X42.899 Y32.420 E17.34715
G1 X42.514 Y31.655 E17.86190
G1 X40.681 Y28.536 E20.03683
G1 X42.360 Y28.477 E21.04650
G1 X42.669 Y26.610 E22.18428
G1 X44.773 Y26.639 E23.44922
G1 X44.980 Y25.391 E24.20977
G1 X47.502 Y27.470 E26.17476
G1 X47.999 Y27.770 E26.52430
G1 X55.041 Y33.747 E32.07749
G1 X56.369 Y33.516 E32.88839
G1 X64.718 Y34.731 E37.96097
G1 X73.057 Y33.459 E43.03285
G1 X74.388 Y33.681 E43.84392
G1 X81.387 Y27.648 E49.39921
G1 X81.882 Y27.344 E49.74866
G1 X84.388 Y25.247 E51.71364
G1 X84.604 Y26.493 E52.47418
G1 X86.708 Y26.449 E53.73914
G1 X87.031 Y28.314 E54.87691
G1 X88.709 Y28.361 E55.88660
G1 X86.900 Y31.493 E58.06158
G1 X86.520 Y32.260 E58.57621
G1 X78.614 Y45.856 E68.03208
G1 X78.469 Y46.634 E68.50822
G1 X67.764 Y52.759 E75.92346
G1 X68.697 Y53.661 E76.70380
G1 X65.960 Y83.789 E94.89300
G1 X64.897 Y83.813 E95.53229
G1 X63.834 Y83.797 E96.17158
G1 X60.878 Y53.689 E114.36078
G1 X61.708 Y52.875 E115.05995
G1 X62.695 Y53.117 F7800.000
G1 X67.345 Y57.766 E119.04861 F1800.000
G1 X67.154 Y59.868 E120.32872
G1 X62.026 Y54.740 E124.72794
G1 X62.275 Y57.282 E126.27746
G1 X66.963 Y61.970 E130.29873
G1 X66.772 Y64.072 E131.57883
G1 X62.525 Y59.824 E135.22215
G1 X62.775 Y62.367 E136.77168
G1 X66.581 Y66.173 E140.03705
G1 X66.390 Y68.275 E141.31715
G1 X63.024 Y64.909 E144.20457
G1 X63.274 Y67.451 E145.75410
G1 X66.199 Y70.377 E148.26357
G1 X66.008 Y72.478 E149.54367
G1 X63.524 Y69.994 E151.67519
G1 X63.773 Y72.536 E153.22472
G1 X65.817 Y74.580 E154.97829
G1 X64.023 Y75.078 E156.10797
G1 X65.627 Y76.682 E157.48359
G1 X64.273 Y77.620 E158.48293
G1 X65.436 Y78.783 E159.48061
G1 X64.522 Y80.163 E160.48406
G1 X65.226 Y80.867 E161.08798
G92 E0
G1 X59.884 Y50.305 F7800.000
G1 X47.688 Y38.109 E10.46228 F1800.000
G1 X44.370 Y32.499 F7800.000
G1 X67.536 Y55.665 E30.33490 F1800.000
G1 X66.583 Y52.420 E32.38631
G1 X43.229 Y29.065 E52.42074
G1 X44.095 Y27.639 E53.43293
G1 X68.042 Y51.585 E73.97488
G1 X69.500 Y50.751 E74.99399
G1 X49.545 Y30.796 E92.11184
G1 X55.648 Y34.607 F7800.000
G1 X70.958 Y49.917 E105.24515 F1800.000
G1 X72.416 Y49.082 E106.26427
G1 X58.182 Y34.848 E118.47500
G1 X60.865 Y35.239 E120.11968
G1 X73.875 Y48.248 E131.27970
G1 X75.333 Y47.414 E132.29881
G1 X63.548 Y35.629 E142.40810
G1 X65.753 Y35.541 E143.74655
G1 X76.791 Y46.579 E153.21544
G1 X77.877 Y45.373 E154.20014
G1 X67.742 Y35.238 E162.89425
G1 X69.732 Y34.935 E164.11483
G1 X78.720 Y43.923 E171.82566
G1 X79.563 Y42.474 E172.84284
G1 X71.721 Y34.631 E179.57040
G1 X74.095 Y34.712 E181.01110
G1 X80.406 Y41.024 E186.42554
G1 X81.249 Y39.574 E187.44273
G1 X75.521 Y33.846 E192.35662
G1 X76.752 Y32.785 E193.34267
G1 X82.092 Y38.125 E197.92346
G1 X82.935 Y36.675 E198.94065
G1 X77.984 Y31.724 E203.18834
G1 X79.215 Y30.662 E204.17438
G1 X83.778 Y35.226 E208.08897
G1 X84.621 Y33.776 E209.10615
G1 X80.446 Y29.601 E212.68763
G1 X81.678 Y28.540 E213.67368
G1 X85.464 Y32.326 E216.92205
G1 X86.264 Y30.834 E217.94934
G1 X82.982 Y27.552 E220.76453
G1 X85.202 Y27.479 E222.11166
G1 X85.928 Y28.205 E222.73435
G1 X54.643 Y47.358 F7800.000
G1 X51.005 Y43.719 E225.85534 F1800.000
M104 S200 ; set temperature
G1 Z1.800 F7800.000
G92 E0
G1 X61.689 Y53.906 F7800.000
G1 X58.702 Y52.270 E0.90066 F1800.000
G1 X50.260 Y47.510 E3.46399
G1 X49.682 Y44.537 E4.26489
G1 X42.831 Y32.952 E7.82478
G1 X41.676 Y30.655 E8.50491
G1 X40.586 Y28.801 E9.07375
G1 X41.000 Y28.301 E9.24539
G1 X42.348 Y28.253 E9.60206
G1 X42.544 Y27.071 E9.91897
G1 X43.039 Y26.520 E10.11491
G1 X44.422 Y26.539 E10.48081
G1 X44.637 Y25.244 E10.82818
G1 X44.900 Y24.966 E10.92935
G1 X46.942 Y26.649 E11.62915
G1 X48.448 Y27.560 E12.09477
G1 X54.395 Y32.607 E14.15793
G1 X56.720 Y32.202 E14.78207
G1 X57.697 Y32.032 E15.04441 F3600.000
G1 X64.712 Y33.053 E16.91943
G1 X71.719 Y31.984 E18.79418
G1 X72.699 Y32.148 E19.05687
G1 X75.025 Y32.536 E19.68061 F1800.000
G1 X80.936 Y27.441 E21.74460
G1 X82.436 Y26.519 E22.21020
G1 X84.465 Y24.821 E22.90997
G1 X84.730 Y25.097 E23.01115
G1 X84.954 Y26.391 E23.35851
G1 X86.337 Y26.362 E23.72443
G1 X86.836 Y26.909 E23.92035
G1 X87.041 Y28.090 E24.23727
G1 X88.389 Y28.128 E24.59398
G1 X88.807 Y28.625 E24.76560
G1 X87.731 Y30.487 E25.33455
G1 X86.592 Y32.792 E26.01453
G1 X79.825 Y44.427 E29.57452
G1 X79.270 Y47.404 E30.37543
G1 X70.862 Y52.225 E32.93876
G1 X67.888 Y53.883 E33.83942
G1 X69.312 Y55.260 E34.36336
G1 X66.627 Y84.792 E42.20666
G1 X64.901 Y84.829 E42.66336
G1 X63.175 Y84.805 E43.12006
G1 X60.274 Y55.293 E50.96335
G1 X61.592 Y54.000 E51.45159
G1 X62.568 Y53.892 F7800.000
G1 X86.826 Y29.634 E60.64152 F3600.000
G1 X86.626 Y28.482 E60.95474
G1 X61.695 Y53.413 E70.39987
G1 X60.822 Y52.935 E70.66661
G1 X86.427 Y27.330 E80.36696
G1 X85.514 Y26.891 E80.63823
G1 X59.949 Y52.457 E90.32373
G1 X59.075 Y51.978 E90.59046
G1 X84.133 Y26.920 E100.08363
G1 X82.418 Y27.284 E100.55348
G1 X58.209 Y51.493 E109.72500
G1 X57.344 Y51.006 E109.99081
G1 X75.287 Y33.063 E116.78849
G1 X74.059 Y32.940 E117.11922
G1 X56.480 Y50.519 E123.77898
G1 X55.616 Y50.031 E124.04479
G1 X72.901 Y32.746 E130.59316
G1 X71.742 Y32.553 E130.90776
G1 X54.751 Y49.544 E137.34472
G1 X53.887 Y49.057 E137.61053
G1 X70.178 Y32.765 E143.78244
G1 X68.583 Y33.009 E144.21463
G1 X53.023 Y48.569 E150.10977
G1 X52.158 Y48.082 E150.37558
G1 X66.988 Y33.252 E155.99395
G92 E0
G1 X64.823 Y34.065 F7800.000
G1 X51.294 Y47.595 E5.12556 F3600.000
G1 X50.625 Y46.912 E5.38160
G1 X63.643 Y33.894 E10.31362
G1 X62.892 Y33.293 E10.57125
G1 X50.405 Y45.780 E15.30198
G1 X50.185 Y44.649 E15.61082
G1 X61.730 Y33.104 E19.98445
G1 X60.550 Y32.932 E20.30386
G1 X49.724 Y43.758 E24.40517
G1 X49.222 Y42.909 E24.66951
G1 X59.370 Y32.761 E28.51409
G1 X58.190 Y32.589 E28.83351
G1 X48.719 Y42.059 E32.42136
G1 X48.217 Y41.210 E32.68571
G1 X56.662 Y32.765 E35.88500
G1 X55.025 Y33.050 E36.33010
G1 X47.715 Y40.361 E39.09956
G1 X47.213 Y39.511 E39.36391
G1 X53.943 Y32.781 E41.91379
G1 X53.212 Y32.160 E42.17069
G1 X46.710 Y38.662 E44.63388
G1 X46.208 Y37.812 E44.89822
G1 X52.481 Y31.540 E47.27472
G1 X51.750 Y30.919 E47.53161
G1 X45.706 Y36.963 E49.82141
G1 X45.203 Y36.114 E50.08575
G1 X51.019 Y30.298 E52.28886
G1 X50.288 Y29.678 E52.54575
G1 X44.701 Y35.264 E54.66216
G1 X44.199 Y34.415 E54.92650
G1 X49.556 Y29.057 E56.95622
G1 X48.825 Y28.437 E57.21311
G1 X43.697 Y33.566 E59.15613
G1 X43.200 Y32.711 E59.42102
G1 X48.073 Y27.838 E61.26713
G1 X47.231 Y27.328 E61.53081
G1 X42.748 Y31.811 E63.22925
G1 X42.489 Y30.718 E63.53023
G1 X46.140 Y27.067 E64.91317
G1 X44.807 Y27.049 E65.27034
G1 X42.758 Y29.098 E66.04648
G1 X43.027 Y27.477 E66.48643
G1 X43.474 Y27.030 E66.65577
G92 E0
G1 X44.887 Y27.096 F7800.000
G1 X46.348 Y31.031 F7800.000
G1 X57.822 Y41.008 F7800.000
G1 X56.301 Y43.155 F7800.000
G1 X50.751 Y47.156 F7800.000
G1 X60.922 Y56.890 F7800.000
G1 X86.767 Y31.045 E9.79126 F3600.000
G92 E0
G1 X85.141 Y34.022 F7800.000
G1 X61.043 Y58.121 E9.12963 F3600.000
G1 X61.164 Y59.351 E9.46091
G1 X66.949 Y53.566 E11.65281
G1 X67.637 Y54.230 E11.90888
G1 X61.285 Y60.582 E14.31539
G1 X61.406 Y61.813 E14.64667
G1 X68.279 Y54.939 E17.25062
G1 X68.730 Y55.840 E17.52050
G1 X61.527 Y63.043 E20.24932
G1 X61.648 Y64.274 E20.58060
G1 X68.596 Y57.325 E23.21308
G1 X68.461 Y58.812 E23.61303
G1 X61.769 Y65.505 E26.14848
G1 X61.889 Y66.736 E26.47976
G1 X68.326 Y60.299 E28.91819
G1 X68.191 Y61.786 E29.31813
G1 X62.010 Y67.966 E31.65953
G1 X62.131 Y69.197 E31.99081
G1 X68.056 Y63.273 E34.23519
G1 X67.920 Y64.760 E34.63513
G1 X62.252 Y70.428 E36.78247
G1 X62.373 Y71.658 E37.11375
G1 X67.785 Y66.246 E39.16406
G1 X67.650 Y67.733 E39.56401
G1 X62.494 Y72.889 E41.51729
G1 X62.625 Y74.110 E41.84624
G1 X67.515 Y69.220 E43.69880
G1 X67.380 Y70.707 E44.09874
G1 X63.951 Y74.136 E45.39773
G1 X65.308 Y74.131 E45.76115
G1 X67.245 Y72.194 E46.49497
G1 X67.109 Y73.680 E46.89492
G1 X66.664 Y74.126 E47.06359
G92 E0
G1 X66.682 Y53.834 F7800.000
G1 X83.263 Y37.252 E6.28176 F3600.000
G92 E0
G1 X81.384 Y40.482 F7800.000
G1 X69.735 Y52.131 E4.41317 F3600.000
G92 E0
G1 X72.883 Y50.336 F7800.000
G1 X79.506 Y43.713 E2.50925 F3600.000
G1 X79.068 Y45.502 E3.00284
G1 X76.051 Y48.519 E4.14562
G92 E0
G1 X64.759 Y45.958 F7800.000
G1 X64.799 Y56.935 F7800.000
G1 X64.805 Y58.398 F7800.000
G1 X64.805 Y58.398 F7800.000
G1 X61.170 Y58.758 F7800.000
G1 X62.643 Y74.948 F7800.000
G1 X63.000 Y74.590 E0.15359 F1200.000
G1 X64.153 Y74.586 E0.50399
G1 X62.746 Y75.994 E1.10894
G1 X62.849 Y77.039 E1.42834
G1 X65.306 Y74.582 E2.48464
G1 X66.459 Y74.578 E2.83504
G1 X62.951 Y78.085 E4.34269
G1 X63.054 Y79.131 E4.66210
G1 X67.037 Y75.148 E6.37401
G1 X66.922 Y76.412 E6.75962
G1 X63.157 Y80.177 E8.37798
G1 X63.260 Y81.223 E8.69739
G1 X66.807 Y77.675 E10.22220
G1 X66.693 Y78.939 E10.60781
G1 X63.363 Y82.269 E12.03906
G1 X63.465 Y83.315 E12.35847
G1 X66.578 Y80.203 E13.69617
G1 X66.463 Y81.466 E14.08178
G1 X63.586 Y84.343 E15.31812
G1 X64.700 Y84.378 E15.65666
G1 X66.348 Y82.730 E16.36511
G1 X66.233 Y83.993 E16.75072
G1 X65.872 Y84.355 E16.90610
G92 E0
G1 X66.124 Y84.255 F7800.000
G1 X64.759 Y45.958 F7800.000
G1 X72.735 Y40.414 F7800.000
G1 X83.268 Y30.630 F7800.000
G1 X86.215 Y29.718 F7800.000
G1 X87.246 Y30.227 F7800.000
G1 X87.288 Y29.879 F7800.000
G1 X87.662 Y29.505 E0.16286 F1200.000
G1 X87.099 Y28.903 E0.41678
G1 X87.454 Y28.548 E0.57182
G92 E0
G1 X84.473 Y26.106 F7800.000
G1 X84.117 Y26.463 E0.14193 F1200.000
G92 E0
G1 X83.062 Y30.896 F7800.000
G1 X71.657 Y40.962 F7800.000
G1 X66.170 Y43.153 F7800.000
G1 X64.714 Y33.609 F7800.000
G1 X45.852 Y26.275 F7800.000
G1 X45.513 Y26.614 E0.13476 F1200.000
G92 E0
G1 X41.565 Y28.737 F7800.000
G1 X41.211 Y29.092 E0.20371 F1200.000
G1 X42.137 Y29.701 E0.65464
G1 X41.794 Y30.045 E0.85199
G1 Z2.700 F7800.000
G92 E0
G1 X62.311 Y54.938 F7800.000
G1 X57.687 Y52.404 E1.39465 F1800.000
G1 X49.867 Y47.995 E3.76900
G1 X48.888 Y42.956 E5.12678
G1 X43.159 Y33.268 E8.10359
G1 X41.303 Y29.598 E9.19127
G1 X42.227 Y28.484 E9.57407
G1 X42.720 Y28.467 E9.70454
G1 X42.802 Y27.971 E9.83750
G1 X43.777 Y26.886 E10.22325
G1 X44.452 Y26.895 E10.40194
G1 X44.564 Y26.218 E10.58345
G1 X45.258 Y25.485 E10.85042
G1 X46.121 Y26.196 E11.14602
G1 X48.633 Y27.715 E11.92262
G1 X53.619 Y31.947 E13.65233
G1 X58.054 Y31.174 E14.84296
G1 X59.031 Y31.004 E15.10530 F3600.000
G1 X64.708 Y31.830 E16.62262
G1 X70.378 Y30.966 E18.13972
G1 X71.358 Y31.129 E18.40241
G1 X75.796 Y31.870 E19.59259 F1800.000
G1 X80.752 Y27.598 E21.32303
G1 X83.253 Y26.060 E22.09962
G1 X84.110 Y25.343 E22.39517
G1 X84.810 Y26.071 E22.66215
G1 X84.927 Y26.747 E22.84365
G1 X85.602 Y26.733 E23.02235
G1 X86.585 Y27.811 E23.40809
G1 X86.671 Y28.306 E23.54107
G1 X87.164 Y28.320 E23.67158
G1 X88.096 Y29.427 E24.05435
G1 X86.267 Y33.110 E25.14198
G1 X80.609 Y42.840 E28.11895
G1 X79.666 Y47.887 E29.47674
G1 X71.879 Y52.352 E31.85110
G1 X67.273 Y54.920 E33.24575
G1 X69.460 Y57.033 E34.05004
G1 X66.883 Y85.355 E41.57200
G1 X64.903 Y85.394 E42.09565
G1 X62.924 Y85.370 E42.61930
G1 X60.140 Y57.067 E50.14126
G1 X62.215 Y55.032 E50.90985
M106 S249.9
G1 Z3.600 F7800.000
G1 X62.934 Y55.969 F7800.000
G1 X56.671 Y52.538 E52.79849 F1800.000
G1 X49.474 Y48.481 E54.98387
G1 X48.093 Y41.374 E56.89852
G1 X43.486 Y33.585 E59.29201
G1 X42.020 Y30.670 E60.15504
G1 X45.697 Y25.983 E61.73070
G1 X48.818 Y27.871 E62.69548
G1 X52.843 Y31.287 E64.09173
G1 X59.388 Y30.147 E65.84885
M106 S255
G1 X60.365 Y29.976 E66.11120 F3600.000
G1 X64.703 Y30.608 E67.27081
G1 X69.037 Y29.947 E68.43026
G1 X70.017 Y30.110 E68.69296
M106 S249.9
G1 X76.568 Y31.203 E70.44957 F1800.000
G1 X80.568 Y27.755 E71.84647
G1 X83.675 Y25.845 E72.81114
G1 X87.387 Y30.504 E74.38672
G1 X85.942 Y33.429 E75.24977
G1 X81.392 Y41.253 E77.64348
G1 X80.063 Y48.369 E79.55816
G1 X72.895 Y52.479 E81.74354
G1 X66.658 Y55.956 E83.63218
G1 X69.607 Y58.806 E84.71682
G1 X67.138 Y85.918 E91.91747
G1 X64.905 Y85.959 E92.50808
G1 X62.672 Y85.934 E93.09868
G1 X60.005 Y58.841 E100.29933
G1 X62.837 Y56.064 E101.34827
G1 Z4.500 F7800.000
G1 X63.556 Y57.001 F7800.000
G1 X55.656 Y52.673 E103.73090 F1800.000
G1 X49.081 Y48.966 E105.72730
G1 X47.298 Y39.793 E108.19882
G1 X43.814 Y33.902 E110.00912
G1 X42.740 Y31.768 E110.64089
G1 X46.745 Y26.661 E112.35739
G1 X49.003 Y28.027 E113.05545
G1 X52.067 Y30.627 E114.11825
G1 X60.722 Y29.119 E116.44186
M106 S255
G1 X61.699 Y28.949 E116.70421 F3600.000
G1 X64.699 Y29.385 E117.50612
G1 X67.696 Y28.928 E118.30793
G1 X68.676 Y29.092 E118.57063
M106 S249.9
G1 X77.339 Y30.537 E120.89367 F1800.000
G1 X80.384 Y27.912 E121.95703
G1 X82.632 Y26.530 E122.65501
G1 X86.675 Y31.606 E124.37136
G1 X85.616 Y33.748 E125.00317
G1 X82.175 Y39.666 E126.81374
G1 X80.460 Y48.851 E129.28531
G1 X73.912 Y52.606 E131.28171
G1 X66.043 Y56.992 E133.66434
G1 X69.754 Y60.578 E135.02934
G1 X67.393 Y86.481 E141.90869
G1 X64.907 Y86.525 E142.56625
G1 X62.421 Y86.499 E143.22381
G1 X59.871 Y60.614 E150.10317
G1 X63.460 Y57.096 E151.43245
G1 Z5.400 F7800.000
G1 X64.179 Y58.033 F7800.000
G1 X54.640 Y52.807 E154.30908 F1800.000
G1 X48.687 Y49.451 E156.11650
G1 X46.503 Y38.211 E159.14490
G1 X44.142 Y34.218 E160.37200
G1 X43.461 Y32.865 E160.77251
G1 X47.793 Y27.338 E162.62985
G1 X49.188 Y28.182 E163.06120
G1 X51.291 Y29.967 E163.79054
G1 X62.056 Y28.091 E166.68065
M106 S255
G1 X63.033 Y27.921 E166.94300 F3600.000
G1 X64.695 Y28.163 E167.38721
G1 X66.355 Y27.910 E167.83137
G1 X67.335 Y28.073 E168.09406
M106 S249.9
G1 X78.110 Y29.871 E170.98354 F1800.000
G1 X80.200 Y28.069 E171.71336
G1 X81.590 Y27.215 E172.14473
G1 X85.962 Y32.709 E174.00185
G1 X85.291 Y34.067 E174.40241
G1 X82.958 Y38.078 E175.62985
G1 X80.856 Y49.334 E178.65831
G1 X74.928 Y52.733 E180.46572
G1 X65.428 Y58.029 E183.34235
G1 X69.902 Y62.351 E184.98769
G1 X67.648 Y87.044 E191.54577
G1 X64.909 Y87.090 E192.27029
G1 X62.170 Y87.064 E192.99480
G1 X59.737 Y62.388 E199.55288
G1 X64.082 Y58.128 E201.16252
M106 S242.25
G1 Z6.300 F7800.000
G1 X64.801 Y59.065 F7800.000
G1 X53.625 Y52.942 E204.53313 F1800.000
G1 X48.294 Y49.937 E206.15157
G1 X45.708 Y36.630 E209.73685
G1 X44.469 Y34.534 E210.38075
G1 X44.182 Y33.963 E210.55000
G1 X48.841 Y28.016 E212.54818
G1 X49.373 Y28.338 E212.71282
G1 X50.514 Y29.306 E213.10871
G1 X63.390 Y27.063 E216.56531
M106 S255
G1 X64.367 Y26.893 E216.82766 F3600.000
G1 X64.690 Y26.940 E216.91417
G1 X65.014 Y26.891 E217.00069
G1 X65.993 Y27.054 E217.26338
M106 S242.25
G1 X78.882 Y29.204 E220.71929 F1800.000
G1 X80.016 Y28.226 E221.11557
G1 X80.547 Y27.900 E221.28035
G1 X85.250 Y33.811 E223.27821
G1 X84.966 Y34.385 E223.44758
G1 X83.742 Y36.491 E224.09189
G1 X81.253 Y49.816 E227.67723
G1 X75.945 Y52.860 E229.29566
G1 X64.813 Y59.065 E232.66628
G1 X70.049 Y64.124 E234.59198
