; generated by Slic3r 1.2.9 on 2016-05-19 at 20:28:00

; external perimeters extrusion width = 0.90mm
; perimeters extrusion width = 0.94mm
; infill extrusion width = 0.94mm
; solid infill extrusion width = 0.94mm
; top infill extrusion width = 0.94mm

M107
M104 S205 ; set temperature
G28 ; home all axes
G1 Z5 F5000 ; lift nozzle

M109 S205 ; wait for temperature to be reached
G21 ; set units to millimeters
G90 ; use absolute coordinates
M82 ; use absolute distances for extrusion
G92 E0
G1 Z0.900 F7800.000
G1 X29.967 Y14.191 F7800.000
G1 X30.244 Y13.672 E0.35359 F1800.000
G1 X31.072 Y12.432 E1.25021
G1 X31.446 Y11.977 E1.60387
G1 X32.500 Y10.923 E2.50039
G1 X32.955 Y10.550 E2.85399
G1 X34.195 Y9.721 E3.75064
G1 X34.713 Y9.444 E4.10423
G1 X36.091 Y8.874 E5.00075
G1 X36.633 Y8.709 E5.34121
G1 X38.116 Y8.412 E6.25089
G1 X38.702 Y8.354 E6.60464
G1 X39.447 Y8.318 E7.05332
G1 X80.553 Y8.318 E31.76818
G1 X81.299 Y8.354 E32.21700
G1 X81.884 Y8.412 E32.57060 F1800.000
G1 X83.346 Y8.703 E33.46726
G1 X83.909 Y8.874 E33.82085
G1 X85.287 Y9.444 E34.71732
G1 X85.806 Y9.721 E35.07106
G1 X87.045 Y10.550 E35.96753
G1 X87.500 Y10.923 E36.32113
G1 X88.554 Y11.977 E37.21778
G1 X88.928 Y12.432 E37.57137
G1 X89.756 Y13.672 E38.46798
G1 X90.033 Y14.191 E38.82157
G1 X90.604 Y15.568 E39.71804
G1 X90.775 Y16.131 E40.07163
G1 X91.066 Y17.594 E40.96828
G1 X91.123 Y18.179 E41.32188
G1 X91.160 Y18.924 E41.77071
G1 X91.160 Y101.076 E91.16395
G1 X91.123 Y101.821 E91.61278
G1 X91.066 Y102.406 E91.96637
G1 X90.775 Y103.869 E92.86300
G1 X90.604 Y104.432 E93.21660
G1 X90.033 Y105.809 E94.11313
G1 X89.756 Y106.328 E94.46671
G1 X88.928 Y107.568 E95.36328
G1 X88.554 Y108.023 E95.71688
G1 X87.500 Y109.077 E96.61354
G1 X87.045 Y109.450 E96.96714
G1 X85.805 Y110.279 E97.86372
G1 X85.287 Y110.556 E98.21731
G1 X83.909 Y111.126 E99.11377
G1 X83.347 Y111.297 E99.46737
G1 X81.884 Y111.588 E100.36407
G1 X81.299 Y111.646 E100.71767
G1 X80.553 Y111.682 E101.16647
G1 X39.447 Y111.682 E125.88134
G1 X38.701 Y111.646 E126.33015
G1 X38.116 Y111.588 E126.68374
G1 X36.654 Y111.297 E127.58041
G1 X36.091 Y111.126 E127.93401
G1 X34.713 Y110.556 E128.83050
G1 X34.195 Y110.279 E129.18409
G1 X32.955 Y109.450 E130.08074
G1 X32.500 Y109.077 E130.43433
G1 X31.446 Y108.023 E131.33084
G1 X31.072 Y107.568 E131.68446
G1 X30.244 Y106.328 E132.58109
G1 X29.967 Y105.809 E132.93468
G1 X29.396 Y104.432 E133.83117
G1 X29.225 Y103.869 E134.18483
G1 X28.934 Y102.407 E135.08136
G1 X28.877 Y101.821 E135.43513
G1 X28.840 Y101.076 E135.88387
G1 X28.840 Y18.924 E185.27710
G1 X28.877 Y18.179 E185.72571
G1 X28.934 Y17.594 E186.07945
G1 X29.225 Y16.132 E186.97580
G1 X29.396 Y15.568 E187.32977
G1 X29.915 Y14.315 E188.14508
G92 E0
G1 X75.452 Y64.126 F7800.000
G1 X75.452 Y94.334 E18.16286 F1800.000
G1 X71.928 Y97.913 E21.18249
G1 X48.072 Y97.913 E35.52631
G1 X44.548 Y94.334 E38.54593
G1 X44.548 Y64.126 E56.70879
G1 X75.317 Y64.126 E75.20839
G1 X75.452 Y55.874 F7800.000
G1 X44.548 Y55.874 E93.78917 F1800.000
G1 X44.548 Y25.666 E111.95202
G1 X48.072 Y22.087 E114.97164
G1 X71.928 Y22.087 E129.31546
G1 X75.452 Y25.666 E132.33509
G1 X75.452 Y55.739 E150.41678
G1 X82.653 Y55.874 F7800.000
G1 X82.653 Y101.031 E177.56729 F1800.000
G1 X82.608 Y101.484 E177.84101
G1 X82.489 Y101.878 E178.08802
G1 X82.295 Y102.240 E178.33502
G1 X82.035 Y102.557 E178.58202
G1 X81.717 Y102.818 E178.82902
G1 X81.355 Y103.012 E179.07603
G1 X80.962 Y103.131 E179.32303
G1 X80.509 Y103.176 E179.59675
G1 X39.491 Y103.176 E204.25845
G1 X39.038 Y103.131 E204.53215
G1 X38.645 Y103.012 E204.77916
G1 X38.283 Y102.818 E205.02617
G1 X37.965 Y102.557 E205.27317
G1 X37.705 Y102.240 E205.52018
G1 X37.511 Y101.878 E205.76718
G1 X37.392 Y101.484 E206.01418
G1 X37.347 Y101.031 E206.28789
G1 X37.347 Y18.969 E255.62797
G1 X37.392 Y18.516 E255.90169
G1 X37.511 Y18.122 E256.14869
G1 X37.705 Y17.760 E256.39569
G1 X37.965 Y17.443 E256.64270
G1 X38.283 Y17.182 E256.88970
G1 X38.645 Y16.988 E257.13670
G1 X39.020 Y16.874 E257.37248
G1 X39.494 Y16.824 E257.65910
G1 X80.509 Y16.824 E282.31890
G1 X80.943 Y16.867 E282.58141
G1 X81.358 Y16.990 E282.84128 F1800.000
G1 X81.717 Y17.182 E283.08638
G1 X82.035 Y17.443 E283.33338
G1 X82.295 Y17.760 E283.58038
G1 X82.489 Y18.122 E283.82739
G1 X82.608 Y18.516 E284.07439
G1 X82.653 Y18.969 E284.34811
G1 X82.653 Y55.739 E306.45649
G1 X73.966 Y56.879 F7800.000
G1 X81.648 Y64.561 E313.00500 F1800.000
G1 X81.648 Y62.283 E314.37827
G1 X76.244 Y56.879 E318.98468
G1 X76.457 Y54.814 E320.23647
G1 X81.648 Y60.005 E324.66179
G1 X81.648 Y57.727 E326.03506
G1 X76.457 Y52.535 E330.46037
G1 X76.457 Y50.257 E331.83365
G1 X81.648 Y55.448 E336.25896
G1 X81.648 Y53.170 E337.63223
G1 X76.457 Y47.979 E342.05755
G1 X76.457 Y45.701 E343.43082
G1 X81.648 Y50.892 E347.85614
G1 X81.648 Y48.614 E349.22941
G1 X76.457 Y43.422 E353.65473
G1 X76.457 Y41.144 E355.02800
G1 X81.648 Y46.335 E359.45332
G1 X81.648 Y44.057 E360.82659
G1 X76.457 Y38.866 E365.25190
G1 X76.457 Y36.588 E366.62518
G1 X81.648 Y41.779 E371.05049
G1 X81.648 Y39.501 E372.42377
G1 X76.457 Y34.310 E376.84908
G1 X76.457 Y32.031 E378.22235
G1 X81.648 Y37.223 E382.64767
G1 X81.648 Y34.944 E384.02094
G1 X76.457 Y29.753 E388.44626
G1 X76.457 Y27.475 E389.81953
G1 X81.648 Y32.666 E394.24485
G1 X81.648 Y30.388 E395.61812
G1 X76.457 Y25.197 E400.04344
G1 X81.521 Y18.870 F7800.000
G1 X80.607 Y17.956 E400.82249 F1800.000
G1 X78.202 Y17.829 E402.27415
G1 X81.648 Y21.275 E405.21133
G1 X81.648 Y23.553 E406.58460
G1 X75.924 Y17.829 E411.46389
G1 X73.646 Y17.829 E412.83716
G1 X81.648 Y25.831 E419.65854
G1 X81.648 Y28.110 E421.03181
G1 X71.368 Y17.829 E429.79529
G1 X69.090 Y17.829 E431.16856
G1 X72.342 Y21.082 E433.94134
G1 X70.064 Y21.082 E435.31461
G1 X66.811 Y17.829 E438.08739
G1 X64.533 Y17.829 E439.46067
G1 X67.786 Y21.082 E442.23345
G1 X65.508 Y21.082 E443.60672
G1 X62.255 Y17.829 E446.37950
G1 X59.977 Y17.829 E447.75277
G1 X63.229 Y21.082 E450.52555
G1 X60.951 Y21.082 E451.89882
G1 X57.698 Y17.829 E454.67160
G1 X55.420 Y17.829 E456.04488
G1 X58.673 Y21.082 E458.81766
G1 X56.395 Y21.082 E460.19093
G1 X53.142 Y17.829 E462.96371
G1 X50.864 Y17.829 E464.33698
G1 X54.116 Y21.082 E467.10976
G1 X51.838 Y21.082 E468.48304
G1 X48.585 Y17.829 E471.25582
G1 X46.307 Y17.829 E472.62909
G1 X49.560 Y21.082 E475.40187
G1 X47.568 Y21.368 E476.61516
G1 X44.029 Y17.829 E479.63158
G1 X41.751 Y17.829 E481.00485
G1 X46.437 Y22.516 E484.99989
G1 X45.307 Y23.664 E485.97097
G1 X39.473 Y17.829 E490.94464
G1 X38.352 Y18.987 E491.91582
G1 X44.177 Y24.812 E496.88125
G1 X43.543 Y26.457 E497.94362
G1 X38.352 Y21.265 E502.36894
G1 X38.352 Y23.544 E503.74222
G1 X43.543 Y28.735 E508.16754
G1 X43.543 Y31.013 E509.54081
G1 X38.352 Y25.822 E513.96613
G1 X38.352 Y28.100 E515.33940
G1 X43.543 Y33.291 E519.76472
G1 X43.543 Y35.569 E521.13799
G1 X38.352 Y30.378 E525.56331
G1 X38.352 Y32.656 E526.93658
G1 X43.543 Y37.848 E531.36190
G1 X43.543 Y40.126 E532.73517
G1 X38.352 Y34.935 E537.16049
G1 X38.352 Y37.213 E538.53376
G1 X43.543 Y42.404 E542.95908
G1 X43.543 Y44.682 E544.33235
G1 X38.352 Y39.491 E548.75767
G1 X38.352 Y41.769 E550.13095
G1 X43.543 Y46.961 E554.55627
G1 X43.543 Y49.239 E555.92954
G1 X38.352 Y44.048 E560.35486
G1 X38.352 Y46.326 E561.72813
G1 X43.543 Y51.517 E566.15345
G1 X43.543 Y53.795 E567.52672
G1 X38.352 Y48.604 E571.95204
G1 X38.352 Y50.882 E573.32531
G1 X50.590 Y63.121 E583.75801
G1 X52.869 Y63.121 E585.13128
G1 X46.627 Y56.879 E590.45169
G1 X48.906 Y56.879 E591.82496
G1 X55.147 Y63.121 E597.14536
G1 X57.425 Y63.121 E598.51863
G1 X51.184 Y56.879 E603.83903
G1 X53.462 Y56.879 E605.21230
G1 X59.703 Y63.121 E610.53271
G1 X61.982 Y63.121 E611.90598
G1 X55.740 Y56.879 E617.22638
G1 X58.018 Y56.879 E618.59965
G1 X64.260 Y63.121 E623.92005
G1 X66.538 Y63.121 E625.29332
G1 X60.297 Y56.879 E630.61372
G1 X62.575 Y56.879 E631.98699
G1 X68.816 Y63.121 E637.30739
G1 X71.094 Y63.121 E638.68066
G1 X64.853 Y56.879 E644.00107
G1 X67.131 Y56.879 E645.37434
G1 X73.373 Y63.121 E650.69474
G1 X75.651 Y63.121 E652.06801
G1 X69.410 Y56.879 E657.38841
G1 X71.688 Y56.879 E658.76168
G1 X81.648 Y66.840 E667.25229
G1 X81.648 Y69.118 E668.62556
G1 X76.457 Y63.927 E673.05088
G1 X76.457 Y66.205 E674.42415
G1 X81.648 Y71.396 E678.84947
G1 X81.648 Y73.674 E680.22274
G1 X76.457 Y68.483 E684.64806
G1 X76.457 Y70.761 E686.02133
G1 X81.648 Y75.952 E690.44665
G1 X81.648 Y78.231 E691.81992
G1 X76.457 Y73.039 E696.24524
G1 X76.457 Y75.318 E697.61851
G1 X81.648 Y80.509 E702.04383
G1 X81.648 Y82.787 E703.41710
G1 X76.457 Y77.596 E707.84242
G1 X76.457 Y79.874 E709.21569
G1 X81.648 Y85.065 E713.64101
G1 X81.648 Y87.344 E715.01428
G1 X76.457 Y82.152 E719.43960
G1 X76.457 Y84.431 E720.81287
G1 X81.648 Y89.622 E725.23819
G1 X81.648 Y91.900 E726.61146
G1 X76.457 Y86.709 E731.03678
G1 X76.457 Y88.987 E732.41005
G1 X81.648 Y94.178 E736.83537
G1 X81.648 Y96.456 E738.20864
G1 X76.457 Y91.265 E742.63396
G1 X76.457 Y93.543 E744.00723
G1 X81.648 Y98.735 E748.43255
G1 X81.648 Y101.013 E749.80582
G1 X75.823 Y95.188 E754.77125
G1 X74.693 Y96.336 E755.74233
G1 X80.527 Y102.171 E760.71598
G1 X78.249 Y102.171 E762.08925
G1 X73.563 Y97.484 E766.08428
G1 X72.432 Y98.632 E767.05536
G1 X75.971 Y102.171 E770.07176
G1 X73.693 Y102.171 E771.44503
G1 X70.440 Y98.918 E774.21779
G1 X68.162 Y98.918 E775.59106
G1 X71.415 Y102.171 E778.36382
G1 X69.136 Y102.171 E779.73709
G1 X65.884 Y98.918 E782.50985
G1 X63.605 Y98.918 E783.88312
G1 X66.858 Y102.171 E786.65588
G1 X64.580 Y102.171 E788.02915
G1 X61.327 Y98.918 E790.80190
G1 X59.049 Y98.918 E792.17518
G1 X62.302 Y102.171 E794.94793
G1 X60.023 Y102.171 E796.32121
G1 X56.771 Y98.918 E799.09396
G1 X54.492 Y98.918 E800.46723
G1 X57.745 Y102.171 E803.23999
G1 X55.467 Y102.171 E804.61326
G1 X52.214 Y98.918 E807.38602
G1 X49.936 Y98.918 E808.75929
G1 X53.189 Y102.171 E811.53205
G1 X50.910 Y102.171 E812.90532
G1 X47.658 Y98.918 E815.67808
G1 X48.632 Y102.171 E817.72481
G1 X38.352 Y91.890 E826.48827
G1 X38.352 Y89.612 E827.86154
G1 X43.543 Y94.803 E832.28686
G1 X43.543 Y92.525 E833.66013
G1 X38.352 Y87.334 E838.08545
G1 X38.352 Y85.056 E839.45872
G1 X43.543 Y90.247 E843.88404
G1 X43.543 Y87.969 E845.25731
G1 X38.352 Y82.777 E849.68263
G1 X38.352 Y80.499 E851.05590
G1 X43.543 Y85.690 E855.48122
G1 X43.543 Y83.412 E856.85450
G1 X38.352 Y78.221 E861.27981
G1 X38.352 Y75.943 E862.65309
G1 X43.543 Y81.134 E867.07841
G1 X43.543 Y78.856 E868.45168
G1 X38.352 Y73.665 E872.87700
G1 X38.352 Y71.386 E874.25027
G1 X43.543 Y76.578 E878.67559
G1 X43.543 Y74.299 E880.04886
G1 X38.352 Y69.108 E884.47418
G1 X38.352 Y66.830 E885.84745
G1 X43.543 Y72.021 E890.27277
G1 X43.543 Y69.743 E891.64604
G1 X38.352 Y64.552 E896.07136
G1 X38.352 Y62.273 E897.44463
G1 X43.543 Y67.465 E901.86995
G1 X43.543 Y65.186 E903.24322
G1 X38.352 Y59.995 E907.66854
G1 X38.352 Y57.717 E909.04181
G1 X43.756 Y63.121 E913.64822
G1 X46.034 Y63.121 E915.02149
G1 X38.352 Y55.439 E921.57000
G1 X38.352 Y53.161 E922.94327
G1 X48.312 Y63.121 E931.43387
G1 X44.448 Y64.026 F7800.000
G1 X40.948 Y64.026 F7800.000
G1 X40.948 Y94.375 F7800.000
G1 X38.352 Y94.169 F7800.000
G1 X46.354 Y102.171 E938.25524 F1800.000
G1 X44.076 Y102.171 E939.62851
G1 X38.352 Y96.447 E944.50777
G1 X38.352 Y98.725 E945.88104
G1 X41.798 Y102.171 E948.81821
G1 X39.393 Y102.044 E950.26988
G1 X38.479 Y101.130 E951.04890
M104 S200 ; set temperature
G1 Z1.800 F7800.000
G92 E0
G1 X75.002 Y64.576 F7800.000
G1 X75.002 Y93.990 E7.77970 F1800.000
G1 X71.740 Y97.303 E9.00944
G1 X48.260 Y97.303 E15.21960
G1 X44.998 Y93.990 E16.44934
G1 X44.998 Y64.576 E24.22904
G1 X74.867 Y64.576 E32.12899
G92 E0
G1 X75.002 Y55.424 F7800.000
G1 X44.998 Y55.424 E7.93566 F1800.000
G1 X44.998 Y26.010 E15.71535
G1 X48.260 Y22.697 E16.94509
G1 X71.740 Y22.697 E23.15526
G1 X75.002 Y26.010 E24.38499
G1 X75.002 Y55.289 E32.12898
G92 E0
G1 X83.103 Y55.424 F7800.000
G1 X83.103 Y101.053 E12.06840 F1800.000
G1 X83.052 Y101.573 E12.20638
G1 X82.907 Y102.051 E12.33848
G1 X82.671 Y102.491 E12.47058
G1 X82.355 Y102.877 E12.60269
G1 X81.968 Y103.194 E12.73479
G1 X81.528 Y103.429 E12.86689
G1 X81.050 Y103.574 E12.99899
G1 X80.531 Y103.626 E13.13697
G1 X39.469 Y103.626 E23.99737
G1 X38.950 Y103.574 E24.13534
G1 X38.472 Y103.429 E24.26745
G1 X38.032 Y103.194 E24.39955
G1 X37.645 Y102.877 E24.53165
G1 X37.329 Y102.491 E24.66375
G1 X37.093 Y102.051 E24.79585
G1 X36.948 Y101.573 E24.92796
G1 X36.897 Y101.053 E25.06593
G1 X36.897 Y18.947 E46.78237
G1 X36.948 Y18.427 E46.92034
G1 X37.092 Y17.954 E47.05126
G1 X37.368 Y17.462 E47.20048
G1 X37.645 Y17.123 E47.31634
G1 X38.032 Y16.806 E47.44845
G1 X38.472 Y16.571 E47.58055
G1 X38.892 Y16.443 E47.69649
G1 X39.474 Y16.374 E47.85151
G1 X80.531 Y16.374 E58.71074
G1 X80.989 Y16.420 E58.83258
G1 X81.532 Y16.573 E58.98169 F1800.000
G1 X81.968 Y16.806 E59.11261
G1 X82.355 Y17.123 E59.24472
G1 X82.671 Y17.509 E59.37682
G1 X82.907 Y17.949 E59.50892
G1 X83.052 Y18.427 E59.64102
G1 X83.103 Y18.947 E59.77900
G1 X83.103 Y55.289 E69.39132
G92 E0
G1 X75.509 Y54.585 F7800.000
G1 X82.596 Y47.498 E2.66046 F3600.000
G1 X82.596 Y46.152 E3.01770
G1 X75.509 Y53.239 E5.67816
G1 X75.509 Y51.893 E6.03539
G1 X82.596 Y44.806 E8.69585
G1 X82.596 Y43.460 E9.05309
G1 X75.509 Y50.547 E11.71355
G1 X75.509 Y49.201 E12.07079
G1 X82.596 Y42.114 E14.73125
G1 X82.596 Y40.769 E15.08849
G1 X75.509 Y47.856 E17.74894
G1 X75.509 Y46.510 E18.10618
G1 X82.596 Y39.423 E20.76664
G1 X82.596 Y38.077 E21.12388
G1 X75.509 Y45.164 E23.78434
G1 X75.509 Y43.818 E24.14158
G1 X82.596 Y36.731 E26.80204
G1 X82.596 Y35.385 E27.15927
G1 X75.509 Y42.472 E29.81973
G1 X75.509 Y41.127 E30.17697
G1 X82.596 Y34.040 E32.83743
G1 X82.596 Y32.694 E33.19467
G1 X75.509 Y39.781 E35.85513
G1 X75.509 Y38.435 E36.21236
G1 X82.596 Y31.348 E38.87282
G1 X82.596 Y30.002 E39.23006
G1 X75.509 Y37.089 E41.89052
G1 X75.509 Y35.743 E42.24776
G1 X82.596 Y28.656 E44.90822
G1 X82.596 Y27.311 E45.26546
G1 X75.509 Y34.398 E47.92591
G1 X75.509 Y33.052 E48.28315
G1 X82.596 Y25.965 E50.94361
G1 X82.596 Y24.619 E51.30085
G1 X75.509 Y31.706 E53.96131
G1 X75.509 Y30.360 E54.31855
G1 X82.596 Y23.273 E56.97901
G1 X82.596 Y21.927 E57.33625
G1 X75.509 Y29.014 E59.99670
G1 X75.509 Y27.669 E60.35394
G1 X82.596 Y20.581 E63.01440
G1 X82.596 Y19.236 E63.37164
G1 X75.509 Y26.323 E66.03210
G1 X75.040 Y25.446 E66.29608
G1 X82.596 Y17.890 E69.13249
G1 X82.258 Y16.881 E69.41475
G1 X74.373 Y24.767 E72.37514
G1 X73.705 Y24.089 E72.62775
G1 X80.913 Y16.881 E75.33356
G1 X79.567 Y16.881 E75.69080
G1 X73.037 Y23.411 E78.14204
G1 X72.370 Y22.733 E78.39465
G1 X78.221 Y16.881 E80.59131
G1 X76.875 Y16.881 E80.94855
G1 X71.567 Y22.190 E82.94143
G1 X70.221 Y22.190 E83.29867
G1 X75.529 Y16.881 E85.29155
G1 X74.184 Y16.881 E85.64879
G1 X68.875 Y22.190 E87.64167
G1 X67.529 Y22.190 E87.99891
G1 X72.838 Y16.881 E89.99179
G1 X71.492 Y16.881 E90.34903
G1 X66.183 Y22.190 E92.34191
G1 X64.838 Y22.190 E92.69915
G1 X70.146 Y16.881 E94.69204
G1 X68.800 Y16.881 E95.04927
G1 X63.492 Y22.190 E97.04216
G1 X62.146 Y22.190 E97.39939
G1 X67.455 Y16.881 E99.39228
G1 X66.109 Y16.881 E99.74952
G1 X60.800 Y22.190 E101.74240
G1 X59.454 Y22.190 E102.09964
G1 X64.763 Y16.881 E104.09252
G1 X63.417 Y16.881 E104.44976
G1 X58.109 Y22.190 E106.44264
G1 X56.763 Y22.190 E106.79988
G1 X62.071 Y16.881 E108.79276
G1 X60.726 Y16.881 E109.15000
G1 X55.417 Y22.190 E111.14288
G1 X54.071 Y22.190 E111.50012
G1 X59.380 Y16.881 E113.49300
G1 X58.034 Y16.881 E113.85024
G1 X52.725 Y22.190 E115.84312
G1 X51.380 Y22.190 E116.20036
G1 X56.688 Y16.881 E118.19324
G1 X55.342 Y16.881 E118.55048
G1 X50.034 Y22.190 E120.54337
G1 X48.688 Y22.190 E120.90060
G1 X53.997 Y16.881 E122.89349
G1 X52.651 Y16.881 E123.25072
G1 X37.404 Y32.128 E128.97432
G1 X37.404 Y33.474 E129.33156
G1 X44.491 Y26.387 E131.99202
G1 X44.491 Y27.733 E132.34926
G1 X37.404 Y34.820 E135.00971
G1 X37.404 Y36.166 E135.36695
G1 X44.491 Y29.079 E138.02741
G1 X44.491 Y30.424 E138.38465
G1 X37.404 Y37.511 E141.04511
G1 X37.404 Y38.857 E141.40235
G1 X44.491 Y31.770 E144.06281
G1 X44.491 Y33.116 E144.42005
G1 X37.404 Y40.203 E147.08050
G1 X37.404 Y41.549 E147.43774
G1 X44.491 Y34.462 E150.09820
G1 X44.491 Y35.808 E150.45544
G1 X37.404 Y42.895 E153.11590
G1 X37.404 Y44.240 E153.47314
G1 X44.491 Y37.153 E156.13360
G1 X44.491 Y38.499 E156.49083
G1 X37.404 Y45.586 E159.15129
G1 X37.404 Y46.932 E159.50853
G1 X44.491 Y39.845 E162.16899
G1 X44.491 Y41.191 E162.52623
G1 X37.404 Y48.278 E165.18669
G1 X37.404 Y49.624 E165.54393
G1 X44.491 Y42.537 E168.20439
G1 X44.491 Y43.882 E168.56162
G1 X37.404 Y50.969 E171.22208
G1 X37.404 Y52.315 E171.57932
G1 X44.491 Y45.228 E174.23978
G1 X44.491 Y46.574 E174.59702
G1 X37.404 Y53.661 E177.25748
G1 X37.404 Y55.007 E177.61472
G1 X44.491 Y47.920 E180.27518
G1 X44.491 Y49.266 E180.63242
G1 X37.404 Y56.353 E183.29288
G1 X37.404 Y57.698 E183.65011
G1 X44.491 Y50.611 E186.31057
G1 X44.491 Y51.957 E186.66781
G1 X37.404 Y59.044 E189.32827
G1 X37.404 Y60.390 E189.68551
G1 X44.491 Y53.303 E192.34597
G1 X44.491 Y54.649 E192.70321
G1 X37.404 Y61.736 E195.36367
G1 X37.404 Y63.082 E195.72091
G1 X44.554 Y55.931 E198.40508
G1 X45.900 Y55.931 E198.76232
G1 X37.404 Y64.427 E201.95170
G1 X37.404 Y65.773 E202.30894
G1 X47.246 Y55.931 E206.00353
G1 X48.592 Y55.931 E206.36077
G1 X37.404 Y67.119 E210.56058
G1 X37.404 Y68.465 E210.91782
G1 X49.938 Y55.931 E215.62284
G92 E0
G1 X44.448 Y55.974 F7800.000
G1 X41.535 Y22.917 F7800.000
G1 X39.602 Y19.079 F7800.000
G1 X39.602 Y19.079 F7800.000
G1 X37.447 Y18.974 F7800.000
G1 X37.404 Y30.782 F7800.000
G1 X51.305 Y16.881 E5.21838 F3600.000
G1 X49.959 Y16.881 E5.57562
G1 X37.404 Y29.437 E10.28879
G1 X37.404 Y28.091 E10.64603
G1 X48.613 Y16.881 E14.85399
G1 X47.268 Y16.881 E15.21123
G1 X37.404 Y26.745 E18.91398
G1 X37.404 Y25.399 E19.27122
G1 X45.922 Y16.881 E22.46876
G1 X44.576 Y16.881 E22.82600
G1 X37.404 Y24.053 E25.51832
G1 X37.404 Y22.708 E25.87556
G1 X43.230 Y16.881 E28.06268
G1 X41.884 Y16.881 E28.41991
G1 X37.404 Y21.362 E30.10182
G1 X37.404 Y20.016 E30.45906
G1 X40.539 Y16.881 E31.63575
G1 X39.193 Y16.881 E31.99299
G1 X37.404 Y18.670 E32.66447
G1 X37.404 Y17.324 E33.02171
G1 X37.847 Y16.881 E33.18797
G92 E0
G1 X37.490 Y18.535 F7800.000
G1 X39.602 Y19.079 F7800.000
G1 X71.970 Y19.536 F7800.000
G1 X77.911 Y21.566 F7800.000
G1 X80.398 Y19.079 F7800.000
G1 X82.553 Y18.974 F7800.000
G1 X82.596 Y86.526 F7800.000
G1 X75.509 Y93.613 E2.66046 F3600.000
G1 X75.509 Y92.267 E3.01770
G1 X82.596 Y85.180 E5.67816
G1 X82.596 Y83.834 E6.03539
G1 X75.509 Y90.921 E8.69585
G1 X75.509 Y89.575 E9.05309
G1 X82.596 Y82.488 E11.71355
G1 X82.596 Y81.143 E12.07079
G1 X75.509 Y88.230 E14.73125
G1 X75.509 Y86.884 E15.08848
G1 X82.596 Y79.797 E17.74894
G1 X82.596 Y78.451 E18.10618
G1 X75.509 Y85.538 E20.76664
G1 X75.509 Y84.192 E21.12388
G1 X82.596 Y77.105 E23.78434
G1 X82.596 Y75.759 E24.14157
G1 X75.509 Y82.846 E26.80203
G1 X75.509 Y81.501 E27.15927
G1 X82.596 Y74.414 E29.81973
G1 X82.596 Y73.068 E30.17697
G1 X75.509 Y80.155 E32.83743
G1 X75.509 Y78.809 E33.19466
G1 X82.596 Y71.722 E35.85512
G1 X82.596 Y70.376 E36.21236
G1 X75.509 Y77.463 E38.87282
G1 X75.509 Y76.117 E39.23006
G1 X82.596 Y69.030 E41.89052
G1 X82.596 Y67.685 E42.24776
G1 X75.509 Y74.772 E44.90821
G1 X75.509 Y73.426 E45.26545
G1 X82.596 Y66.339 E47.92591
G1 X82.596 Y64.993 E48.28315
G1 X75.509 Y72.080 E50.94361
G1 X75.509 Y70.734 E51.30085
G1 X82.596 Y63.647 E53.96131
G1 X82.596 Y62.301 E54.31854
G1 X75.509 Y69.388 E56.97900
G1 X75.509 Y68.043 E57.33624
G1 X82.596 Y60.956 E59.99670
G1 X82.596 Y59.610 E60.35394
G1 X75.509 Y66.697 E63.01440
G1 X75.509 Y65.351 E63.37164
G1 X82.596 Y58.264 E66.03210
G1 X82.596 Y56.918 E66.38933
G1 X75.446 Y64.069 E69.07356
G1 X74.100 Y64.069 E69.43080
G1 X82.596 Y55.572 E72.62024
G1 X82.596 Y54.227 E72.97748
G1 X72.754 Y64.069 E76.67213
G1 X71.408 Y64.069 E77.02937
G1 X82.596 Y52.881 E81.22924
G1 X82.596 Y51.535 E81.58647
G1 X70.062 Y64.069 E86.29155
G1 X68.717 Y64.069 E86.64879
G1 X82.596 Y50.189 E91.85907
G1 X82.596 Y48.843 E92.21631
G1 X67.371 Y64.069 E97.93181
G1 X66.025 Y64.069 E98.28905
G1 X74.162 Y55.931 E101.34368
G1 X72.816 Y55.931 E101.70092
G1 X64.679 Y64.069 E104.75554
G1 X63.333 Y64.069 E105.11278
G1 X71.470 Y55.931 E108.16741
G1 X70.125 Y55.931 E108.52465
G1 X61.988 Y64.069 E111.57927
G1 X60.642 Y64.069 E111.93651
G1 X68.779 Y55.931 E114.99114
G1 X67.433 Y55.931 E115.34838
G1 X59.296 Y64.069 E118.40300
G1 X57.950 Y64.069 E118.76024
G1 X66.087 Y55.931 E121.81487
G1 X64.741 Y55.931 E122.17211
G1 X56.604 Y64.069 E125.22673
G1 X55.259 Y64.069 E125.58397
G1 X63.396 Y55.931 E128.63860
G1 X62.050 Y55.931 E128.99584
G1 X53.913 Y64.069 E132.05046
G1 X52.567 Y64.069 E132.40770
G1 X60.704 Y55.931 E135.46233
G1 X59.358 Y55.931 E135.81957
G1 X51.221 Y64.069 E138.87419
G1 X49.875 Y64.069 E139.23143
G1 X58.012 Y55.931 E142.28606
G1 X56.667 Y55.931 E142.64330
G1 X48.529 Y64.069 E145.69792
G1 X47.184 Y64.069 E146.05516
G1 X55.321 Y55.931 E149.10979
G1 X53.975 Y55.931 E149.46703
G1 X45.838 Y64.069 E152.52165
G1 X44.492 Y64.069 E152.87889
G1 X52.629 Y55.931 E155.93352
G1 X51.283 Y55.931 E156.29076
G1 X37.404 Y69.811 E161.50099
G1 X37.404 Y71.157 E161.85823
G1 X44.491 Y64.069 E164.51869
G1 X44.491 Y65.415 E164.87593
G1 X37.404 Y72.502 E167.53638
G1 X37.404 Y73.848 E167.89362
G1 X44.491 Y66.761 E170.55408
G1 X44.491 Y68.107 E170.91132
G1 X37.404 Y75.194 E173.57178
G1 X37.404 Y76.540 E173.92902
G1 X44.491 Y69.453 E176.58948
G1 X44.491 Y70.798 E176.94672
G1 X37.404 Y77.886 E179.60718
G1 X37.404 Y79.231 E179.96442
G1 X44.491 Y72.144 E182.62488
G1 X44.491 Y73.490 E182.98211
G1 X37.404 Y80.577 E185.64257
G1 X37.404 Y81.923 E185.99981
G1 X44.491 Y74.836 E188.66027
G1 X44.491 Y76.182 E189.01751
G1 X37.404 Y83.269 E191.67797
G1 X37.404 Y84.615 E192.03521
G1 X44.491 Y77.527 E194.69567
G1 X44.491 Y78.873 E195.05291
G1 X37.404 Y85.960 E197.71337
G1 X37.404 Y87.306 E198.07061
G1 X44.491 Y80.219 E200.73106
G1 X44.491 Y81.565 E201.08830
G1 X37.404 Y88.652 E203.74876
G1 X37.404 Y89.998 E204.10600
G1 X44.491 Y82.911 E206.76646
G1 X44.491 Y84.257 E207.12370
G1 X37.404 Y91.344 E209.78416
G1 X37.404 Y92.689 E210.14140
G1 X44.491 Y85.602 E212.80186
G1 X44.491 Y86.948 E213.15910
G1 X37.404 Y94.035 E215.81956
G1 X37.404 Y95.381 E216.17679
G1 X44.491 Y88.294 E218.83725
G1 X44.491 Y89.640 E219.19449
G1 X37.404 Y96.727 E221.85495
G1 X37.404 Y98.073 E222.21219
G1 X44.491 Y90.986 E224.87265
G1 X44.491 Y92.331 E225.22989
G1 X37.404 Y99.418 E227.89035
G1 X37.404 Y100.764 E228.24759
G1 X44.491 Y93.677 E230.90805
G1 X44.960 Y94.554 E231.17203
G1 X37.404 Y102.110 E234.00842
G1 X37.741 Y103.119 E234.29070
G1 X45.627 Y95.232 E237.25111
G1 X46.295 Y95.911 E237.50372
G1 X39.087 Y103.119 E240.20956
G1 X40.433 Y103.119 E240.56680
G1 X46.963 Y96.589 E243.01805
G1 X47.630 Y97.267 E243.27066
G1 X41.779 Y103.119 E245.46734
G1 X43.125 Y103.119 E245.82458
G1 X48.433 Y97.810 E247.81745
G1 X49.779 Y97.810 E248.17469
G1 X44.470 Y103.119 E250.16756
G1 X45.816 Y103.119 E250.52480
G1 X51.125 Y97.810 E252.51767
G1 X52.471 Y97.810 E252.87491
G1 X47.162 Y103.119 E254.86778
G1 X48.508 Y103.119 E255.22502
G1 X53.816 Y97.810 E257.21789
G1 X55.162 Y97.810 E257.57513
G1 X49.854 Y103.119 E259.56801
G1 X51.199 Y103.119 E259.92524
G1 X56.508 Y97.810 E261.91812
G1 X57.854 Y97.810 E262.27536
G1 X52.545 Y103.119 E264.26823
G1 X53.891 Y103.119 E264.62547
G1 X59.200 Y97.810 E266.61834
G1 X60.545 Y97.810 E266.97558
G1 X55.237 Y103.119 E268.96845
G1 X56.583 Y103.119 E269.32569
G1 X61.891 Y97.810 E271.31856
G1 X63.237 Y97.810 E271.67580
G1 X57.928 Y103.119 E273.66867
G1 X59.274 Y103.119 E274.02591
G1 X64.583 Y97.810 E276.01878
G1 X65.929 Y97.810 E276.37602
G1 X60.620 Y103.119 E278.36889
G1 X61.966 Y103.119 E278.72613
G1 X67.275 Y97.810 E280.71900
G1 X68.620 Y97.810 E281.07624
G1 X63.312 Y103.119 E283.06911
G1 X64.657 Y103.119 E283.42635
G1 X69.966 Y97.810 E285.41922
G1 X71.312 Y97.810 E285.77646
G1 X66.003 Y103.119 E287.76933
G1 X67.349 Y103.119 E288.12657
G1 X82.596 Y87.872 E293.85022
G1 X82.596 Y89.217 E294.20746
G1 X68.695 Y103.119 E299.42589
G1 X70.041 Y103.119 E299.78313
G1 X82.596 Y90.563 E304.49635
G1 X82.596 Y91.909 E304.85359
G1 X71.386 Y103.119 E309.06160
G1 X72.732 Y103.119 E309.41884
G1 X82.596 Y93.255 E313.12164
G1 X82.596 Y94.601 E313.47888
G1 X74.078 Y103.119 E316.67647
G1 X75.424 Y103.119 E317.03371
G1 X82.596 Y95.946 E319.72609
G1 X82.596 Y97.292 E320.08333
G1 X76.770 Y103.119 E322.27049
G1 X78.115 Y103.119 E322.62773
G1 X82.596 Y98.638 E324.30969
G1 X82.596 Y99.984 E324.66692
G1 X79.461 Y103.119 E325.84367
G1 X80.807 Y103.119 E326.20091
G1 X82.596 Y101.330 E326.87244
G1 X82.596 Y102.675 E327.22968
G1 X82.153 Y103.119 E327.39600
G1 Z2.700 F7800.000
G92 E0
G1 X75.002 Y64.576 F7800.000
G1 X75.002 Y93.829 E7.73732 F1800.000
G1 X71.740 Y97.143 E8.96705
G1 X48.260 Y97.143 E15.17722
G1 X44.998 Y93.829 E16.40696
G1 X44.998 Y64.576 E24.14428
G1 X74.867 Y64.576 E32.04423
G92 E0
G1 X75.002 Y55.424 F7800.000
G1 X44.998 Y55.424 E7.93566 F1800.000
G1 X44.998 Y26.171 E15.67297
G1 X48.260 Y22.857 E16.90271
G1 X71.740 Y22.857 E23.11288
G1 X75.002 Y26.171 E24.34261
G1 X75.002 Y55.289 E32.04422
G92 E0
G1 X83.103 Y55.424 F7800.000
G1 X83.103 Y101.053 E12.06840 F1800.000
G1 X83.052 Y101.573 E12.20638
G1 X82.907 Y102.051 E12.33848
G1 X82.671 Y102.491 E12.47058
G1 X82.355 Y102.877 E12.60269
G1 X81.968 Y103.194 E12.73479
G1 X81.528 Y103.429 E12.86689
G1 X81.050 Y103.574 E12.99899
G1 X80.531 Y103.626 E13.13697
G1 X39.469 Y103.626 E23.99737
G1 X38.950 Y103.574 E24.13534
G1 X38.472 Y103.429 E24.26745
G1 X38.032 Y103.194 E24.39955
G1 X37.645 Y102.877 E24.53165
G1 X37.329 Y102.491 E24.66375
G1 X37.093 Y102.051 E24.79585
G1 X36.948 Y101.573 E24.92796
G1 X36.897 Y101.053 E25.06593
G1 X36.897 Y18.947 E46.78237
G1 X36.948 Y18.427 E46.92034
G1 X37.093 Y17.949 E47.05244
G1 X37.370 Y17.458 E47.20156
G1 X37.645 Y17.123 E47.31636
G1 X38.032 Y16.806 E47.44846
G1 X38.472 Y16.571 E47.58056
G1 X38.950 Y16.426 E47.71266
G1 X39.469 Y16.374 E47.85064
G1 X80.531 Y16.374 E58.71103
G1 X80.986 Y16.419 E58.83189
G1 X81.528 Y16.571 E58.98082 F1800.000
G1 X81.968 Y16.806 E59.11292
G1 X82.355 Y17.123 E59.24503
G1 X82.671 Y17.509 E59.37713
G1 X82.907 Y17.949 E59.50923
G1 X83.052 Y18.427 E59.64133
G1 X83.103 Y18.947 E59.77931
G1 X83.103 Y55.289 E69.39163
M106 S219.3
G1 Z3.600 F7800.000
G92 E0
G1 X75.002 Y64.576 F7800.000
G1 X75.002 Y93.669 E7.69494 F1800.000
G1 X71.740 Y96.982 E8.92467
G1 X48.260 Y96.982 E15.13484
G1 X44.998 Y93.669 E16.36458
G1 X44.998 Y64.576 E24.05951
G1 X74.867 Y64.576 E31.95946
G92 E0
G1 X75.002 Y55.424 F7800.000
G1 X44.998 Y55.424 E7.93566 F1800.000
G1 X44.998 Y26.331 E15.63059
G1 X48.260 Y23.018 E16.86033
G1 X71.740 Y23.018 E23.07050
G1 X75.002 Y26.331 E24.30023
G1 X75.002 Y55.289 E31.95946
G92 E0
G1 X83.103 Y55.424 F7800.000
G1 X83.103 Y101.053 E12.06840 F1800.000
G1 X83.052 Y101.573 E12.20638
G1 X82.907 Y102.051 E12.33848
G1 X82.671 Y102.491 E12.47058
G1 X82.355 Y102.877 E12.60269
G1 X81.968 Y103.194 E12.73479
G1 X81.528 Y103.429 E12.86689
G1 X81.050 Y103.574 E12.99899
G1 X80.531 Y103.626 E13.13697
G1 X39.469 Y103.626 E23.99737
G1 X38.950 Y103.574 E24.13534
G1 X38.472 Y103.429 E24.26745
G1 X38.032 Y103.194 E24.39955
G1 X37.645 Y102.877 E24.53165
G1 X37.329 Y102.491 E24.66375
G1 X37.093 Y102.051 E24.79585
G1 X36.948 Y101.573 E24.92796
G1 X36.897 Y101.053 E25.06593
G1 X36.897 Y18.947 E46.78237
G1 X36.948 Y18.427 E46.92034
G1 X37.093 Y17.949 E47.05244
G1 X37.329 Y17.509 E47.18455
G1 X37.398 Y17.424 E47.21347
G1 X37.645 Y17.123 E47.31665
G1 X38.032 Y16.806 E47.44875
G1 X38.472 Y16.571 E47.58085
G1 X38.950 Y16.426 E47.71296
G1 X39.469 Y16.374 E47.85093
G1 X80.531 Y16.374 E58.71133
G1 X80.942 Y16.415 E58.82065
G1 X81.050 Y16.426 E58.84931 F1800.000
G1 X81.528 Y16.571 E58.98141
G1 X81.968 Y16.806 E59.11351
G1 X82.355 Y17.123 E59.24561
G1 X82.671 Y17.509 E59.37771
G1 X82.907 Y17.949 E59.50982
G1 X83.052 Y18.427 E59.64192
G1 X83.103 Y18.947 E59.77990
G1 X83.103 Y55.289 E69.39222
G1 Z4.500 F7800.000
G92 E0
G1 X75.002 Y64.576 F7800.000
G1 X75.002 Y93.509 E7.65256 F1800.000
G1 X71.740 Y96.822 E8.88229
G1 X48.260 Y96.822 E15.09246
G1 X44.998 Y93.509 E16.32220
G1 X44.998 Y64.576 E23.97475
G1 X74.867 Y64.576 E31.87470
G92 E0
G1 X75.002 Y55.424 F7800.000
G1 X44.998 Y55.424 E7.93566 F1800.000
G1 X44.998 Y26.491 E15.58821
G1 X48.260 Y23.178 E16.81795
G1 X71.740 Y23.178 E23.02811
G1 X75.002 Y26.491 E24.25785
G1 X75.002 Y55.289 E31.87470
G92 E0
G1 X83.103 Y55.424 F7800.000
G1 X83.103 Y101.053 E12.06840 F1800.000
G1 X83.052 Y101.573 E12.20638
G1 X82.907 Y102.051 E12.33848
G1 X82.671 Y102.491 E12.47058
G1 X82.355 Y102.877 E12.60269
G1 X81.968 Y103.194 E12.73479
G1 X81.528 Y103.429 E12.86689
G1 X81.050 Y103.574 E12.99899
G1 X80.531 Y103.626 E13.13697
G1 X39.469 Y103.626 E23.99737
G1 X38.950 Y103.574 E24.13534
G1 X38.472 Y103.429 E24.26745
G1 X38.032 Y103.194 E24.39955
G1 X37.645 Y102.877 E24.53165
G1 X37.329 Y102.491 E24.66375
G1 X37.093 Y102.051 E24.79585
G1 X36.948 Y101.573 E24.92796
G1 X36.897 Y101.053 E25.06593
G1 X36.897 Y18.947 E46.78237
G1 X36.948 Y18.427 E46.92034
G1 X37.093 Y17.949 E47.05244
G1 X37.329 Y17.509 E47.18455
G1 X37.426 Y17.390 E47.22508
G1 X37.645 Y17.123 E47.31665
G1 X38.032 Y16.806 E47.44875
G1 X38.472 Y16.571 E47.58085
G1 X38.950 Y16.426 E47.71296
G1 X39.469 Y16.374 E47.85093
G1 X80.531 Y16.374 E58.71133
G1 X80.954 Y16.416 E58.82367
G1 X81.050 Y16.426 E58.84931 F1800.000
G1 X81.528 Y16.571 E58.98141
G1 X81.968 Y16.806 E59.11351
G1 X82.355 Y17.123 E59.24561
G1 X82.671 Y17.509 E59.37771
G1 X82.907 Y17.949 E59.50982
G1 X83.052 Y18.427 E59.64192
G1 X83.103 Y18.947 E59.77990
G1 X83.103 Y55.289 E69.39222
G1 Z5.400 F7800.000
G92 E0
G1 X75.002 Y64.576 F7800.000
G1 X75.002 Y93.349 E7.61018 F1800.000
G1 X71.740 Y96.662 E8.83991
G1 X48.260 Y96.662 E15.05008
G1 X44.998 Y93.349 E16.27982
G1 X44.998 Y64.576 E23.88999
G1 X74.867 Y64.576 E31.78994
G92 E0
G1 X75.002 Y55.424 F7800.000
G1 X44.998 Y55.424 E7.93566 F1800.000
G1 X44.998 Y26.651 E15.54583
G1 X48.260 Y23.338 E16.77556
G1 X71.740 Y23.338 E22.98573
G1 X75.002 Y26.651 E24.21547
G1 X75.002 Y55.289 E31.78994
G92 E0
G1 X83.103 Y55.424 F7800.000
G1 X83.103 Y101.053 E12.06840 F1800.000
G1 X83.052 Y101.573 E12.20638
G1 X82.907 Y102.051 E12.33848
G1 X82.671 Y102.491 E12.47058
G1 X82.355 Y102.877 E12.60269
G1 X81.968 Y103.194 E12.73479
G1 X81.528 Y103.429 E12.86689
G1 X81.050 Y103.574 E12.99899
G1 X80.531 Y103.626 E13.13697
G1 X39.469 Y103.626 E23.99737
G1 X38.950 Y103.574 E24.13534
G1 X38.472 Y103.429 E24.26745
G1 X38.032 Y103.194 E24.39955
G1 X37.645 Y102.877 E24.53165
G1 X37.329 Y102.491 E24.66375
G1 X37.093 Y102.051 E24.79585
G1 X36.948 Y101.573 E24.92796
G1 X36.897 Y101.053 E25.06593
G1 X36.897 Y18.947 E46.78237
G1 X36.948 Y18.427 E46.92034
G1 X37.093 Y17.949 E47.05244
G1 X37.329 Y17.509 E47.18455
G1 X37.454 Y17.357 E47.23669
G1 X37.645 Y17.123 E47.31665
G1 X38.032 Y16.806 E47.44875
G1 X38.472 Y16.571 E47.58085
G1 X38.950 Y16.426 E47.71296
G1 X39.469 Y16.374 E47.85093
G1 X80.531 Y16.374 E58.71133
G1 X80.810 Y16.402 E58.78561
G1 X81.050 Y16.426 E58.84931 F1800.000
G1 X81.528 Y16.571 E58.98141
G1 X81.968 Y16.806 E59.11351
G1 X82.355 Y17.123 E59.24561
G1 X82.671 Y17.509 E59.37771
G1 X82.907 Y17.949 E59.50981
G1 X83.052 Y18.427 E59.64192
G1 X83.103 Y18.947 E59.77990
G1 X83.103 Y55.289 E69.39222
G1 Z6.300 F7800.000
G92 E0
G1 X75.002 Y64.576 F7800.000
G1 X75.002 Y93.188 E7.56779 F1800.000
G1 X71.740 Y96.502 E8.79753
G1 X48.260 Y96.502 E15.00770
G1 X44.998 Y93.188 E16.23744
G1 X44.998 Y64.576 E23.80523
G1 X74.867 Y64.576 E31.70518
G92 E0
G1 X75.002 Y55.424 F7800.000
G1 X44.998 Y55.424 E7.93566 F1800.000
G1 X44.998 Y26.812 E15.50345
G1 X48.260 Y23.498 E16.73318
G1 X71.740 Y23.498 E22.94335
G1 X75.002 Y26.812 E24.17309
G1 X75.002 Y55.289 E31.70518
G92 E0
G1 X83.103 Y55.424 F7800.000
G1 X83.103 Y101.053 E12.06840 F1800.000
G1 X83.052 Y101.573 E12.20638
G1 X82.907 Y102.051 E12.33848
G1 X82.671 Y102.491 E12.47058
G1 X82.355 Y102.877 E12.60269
G1 X81.968 Y103.194 E12.73479
G1 X81.528 Y103.429 E12.86689
G1 X81.050 Y103.574 E12.99899
G1 X80.531 Y103.626 E13.13697
G1 X39.469 Y103.626 E23.99737
G1 X38.950 Y103.574 E24.13534
G1 X38.472 Y103.429 E24.26745
G1 X38.032 Y103.194 E24.39955
G1 X37.645 Y102.877 E24.53165
G1 X37.329 Y102.491 E24.66375
G1 X37.093 Y102.051 E24.79585
G1 X36.948 Y101.573 E24.92796
G1 X36.897 Y101.053 E25.06593
G1 X36.897 Y18.947 E46.78237
G1 X36.948 Y18.427 E46.92034
G1 X37.093 Y17.949 E47.05244
G1 X37.329 Y17.509 E47.18455
G1 X37.482 Y17.323 E47.24830
G1 X37.645 Y17.123 E47.31665
G1 X38.032 Y16.806 E47.44875
G1 X38.472 Y16.571 E47.58085
G1 X38.950 Y16.426 E47.71296
G1 X39.469 Y16.374 E47.85093
G1 X80.531 Y16.374 E58.71133
G1 X80.812 Y16.402 E58.78603
G1 X81.050 Y16.426 E58.84930 F1800.000
G1 X81.528 Y16.571 E58.98141
G1 X81.968 Y16.806 E59.11351
G1 X82.355 Y17.123 E59.24561
G1 X82.671 Y17.509 E59.37771
G1 X82.907 Y17.949 E59.50981
G1 X83.052 Y18.427 E59.64192
G1 X83.103 Y18.947 E59.77989
G1 X83.103 Y55.289 E69.39222
G1 Z7.200 F7800.000
G92 E0
G1 X75.002 Y64.576 F7800.000
G1 X75.002 Y93.028 E7.52541 F1800.000
G1 X71.740 Y96.341 E8.75515
G1 X48.260 Y96.341 E14.96532
G1 X44.998 Y93.028 E16.19505
G1 X44.998 Y64.576 E23.72047
G1 X74.867 Y64.576 E31.62042
G92 E0
G1 X75.002 Y55.424 F7800.000
G1 X44.998 Y55.424 E7.93566 F1800.000
G1 X44.998 Y26.972 E15.46107
G1 X48.260 Y23.659 E16.69080
G1 X71.740 Y23.659 E22.90097
G1 X75.002 Y26.972 E24.13071
G1 X75.002 Y55.289 E31.62042
G92 E0
G1 X83.103 Y55.424 F7800.000
G1 X83.103 Y101.053 E12.06840 F1800.000
G1 X83.052 Y101.573 E12.20638
G1 X82.907 Y102.051 E12.33848
G1 X82.671 Y102.491 E12.47058
G1 X82.355 Y102.877 E12.60269
G1 X81.968 Y103.194 E12.73479
G1 X81.528 Y103.429 E12.86689
G1 X81.050 Y103.574 E12.99899
G1 X80.531 Y103.626 E13.13697
G1 X39.469 Y103.626 E23.99737
G1 X38.950 Y103.574 E24.13534
G1 X38.472 Y103.429 E24.26745
G1 X38.032 Y103.194 E24.39955
G1 X37.645 Y102.877 E24.53165
G1 X37.329 Y102.491 E24.66375
G1 X37.093 Y102.051 E24.79585
G1 X36.948 Y101.573 E24.92795
G1 X36.897 Y101.053 E25.06593
G1 X36.897 Y18.947 E46.78236
G1 X36.948 Y18.427 E46.92034
G1 X37.093 Y17.949 E47.05244
G1 X37.329 Y17.509 E47.18455
G1 X37.509 Y17.289 E47.25991
G1 X37.645 Y17.123 E47.31665
G1 X38.032 Y16.806 E47.44875
G1 X38.472 Y16.571 E47.58085
G1 X38.950 Y16.426 E47.71296
G1 X39.469 Y16.374 E47.85093
G1 X80.531 Y16.374 E58.71133
G1 X80.769 Y16.398 E58.77449
G1 X81.050 Y16.426 E58.84930 F1800.000
G1 X81.528 Y16.571 E58.98141
G1 X81.968 Y16.806 E59.11351
G1 X82.355 Y17.123 E59.24561
G1 X82.671 Y17.509 E59.37771
G1 X82.907 Y17.949 E59.50981
G1 X83.052 Y18.427 E59.64192
G1 X83.103 Y18.947 E59.77989
G1 X83.103 Y55.289 E69.39222
G1 Z8.100 F7800.000
G92 E0
G1 X75.002 Y64.576 F7800.000
G1 X75.002 Y92.868 E7.48303 F1800.000
G1 X71.740 Y96.181 E8.71277
G1 X48.260 Y96.181 E14.92294
G1 X44.998 Y92.868 E16.15267
G1 X44.998 Y64.576 E23.63571
G1 X74.867 Y64.576 E31.53566
G92 E0
G1 X75.002 Y55.424 F7800.000
G1 X44.998 Y55.424 E7.93566 F1800.000
G1 X44.998 Y27.132 E15.41869
G1 X48.260 Y23.819 E16.64842
G1 X71.740 Y23.819 E22.85859
G1 X75.002 Y27.132 E24.08833
G1 X75.002 Y55.289 E31.53566
G92 E0
G1 X83.103 Y55.424 F7800.000
G1 X83.103 Y101.053 E12.06840 F1800.000
G1 X83.052 Y101.573 E12.20638
G1 X82.907 Y102.051 E12.33848
G1 X82.671 Y102.491 E12.47058
G1 X82.355 Y102.877 E12.60269
G1 X81.968 Y103.194 E12.73479
G1 X81.528 Y103.429 E12.86689
G1 X81.050 Y103.574 E12.99899
G1 X80.531 Y103.626 E13.13697
G1 X39.469 Y103.626 E23.99737
G1 X38.950 Y103.574 E24.13534
G1 X38.472 Y103.429 E24.26745
G1 X38.032 Y103.194 E24.39955
G1 X37.645 Y102.877 E24.53165
G1 X37.329 Y102.491 E24.66375
G1 X37.093 Y102.051 E24.79585
G1 X36.948 Y101.573 E24.92796
G1 X36.897 Y101.053 E25.06593
G1 X36.897 Y18.947 E46.78236
G1 X36.948 Y18.427 E46.92034
G1 X37.093 Y17.949 E47.05244
G1 X37.329 Y17.509 E47.18455
G1 X37.537 Y17.255 E47.27153
G1 X37.645 Y17.123 E47.31665
G1 X38.032 Y16.806 E47.44875
G1 X38.472 Y16.571 E47.58085
G1 X38.950 Y16.426 E47.71296
G1 X39.469 Y16.374 E47.85093
G1 X80.531 Y16.374 E58.71133
G1 X80.725 Y16.394 E58.76296
G1 X81.050 Y16.426 E58.84930 F1800.000
G1 X81.528 Y16.571 E58.98140
G1 X81.968 Y16.806 E59.11351
G1 X82.355 Y17.123 E59.24561
G1 X82.671 Y17.509 E59.37771
G1 X82.907 Y17.949 E59.50981
G1 X83.052 Y18.427 E59.64192
G1 X83.103 Y18.947 E59.77989
G1 X83.103 Y55.289 E69.39222
G1 Z9.000 F7800.000
G92 E0
G1 X75.002 Y64.576 F7800.000
G1 X75.002 Y92.708 E7.44065 F1800.000
G1 X71.740 Y96.021 E8.67039
G1 X48.260 Y96.021 E14.88056
G1 X44.998 Y92.708 E16.11029
G1 X44.998 Y64.576 E23.55095
G1 X74.867 Y64.576 E31.45090
G92 E0
G1 X75.002 Y55.424 F7800.000
G1 X44.998 Y55.424 E7.93566 F1800.000
G1 X44.998 Y27.292 E15.37631
G1 X48.260 Y23.979 E16.60604
G1 X71.740 Y23.979 E22.81621
G1 X75.002 Y27.292 E24.04595
G1 X75.002 Y55.289 E31.45090
G92 E0
G1 X83.103 Y55.424 F7800.000
G1 X83.103 Y101.053 E12.06840 F1800.000
G1 X83.052 Y101.573 E12.20638
G1 X82.907 Y102.051 E12.33848
G1 X82.671 Y102.491 E12.47058
G1 X82.355 Y102.877 E12.60269
G1 X81.968 Y103.194 E12.73479
G1 X81.528 Y103.429 E12.86689
G1 X81.050 Y103.574 E12.99899
G1 X80.531 Y103.626 E13.13697
G1 X39.469 Y103.626 E23.99737
G1 X38.950 Y103.574 E24.13534
G1 X38.472 Y103.429 E24.26745
G1 X38.032 Y103.194 E24.39955
G1 X37.645 Y102.877 E24.53165
G1 X37.329 Y102.491 E24.66375
G1 X37.093 Y102.051 E24.79585
G1 X36.948 Y101.573 E24.92796
G1 X36.897 Y101.053 E25.06593
G1 X36.897 Y18.947 E46.78236
G1 X36.948 Y18.427 E46.92034
G1 X37.093 Y17.949 E47.05244
G1 X37.329 Y17.509 E47.18455
G1 X37.565 Y17.221 E47.28314
G1 X37.645 Y17.123 E47.31665
G1 X38.032 Y16.806 E47.44875
G1 X38.472 Y16.571 E47.58085
G1 X38.950 Y16.426 E47.71296
G1 X39.469 Y16.374 E47.85093
G1 X80.531 Y16.374 E58.71133
G1 X80.682 Y16.389 E58.75142
G1 X81.050 Y16.426 E58.84930 F1800.000
G1 X81.528 Y16.571 E58.98141
G1 X81.968 Y16.806 E59.11351
G1 X82.355 Y17.123 E59.24561
G1 X82.671 Y17.509 E59.37771
G1 X82.907 Y17.949 E59.50981
G1 X83.052 Y18.427 E59.64192
G1 X83.103 Y18.947 E59.77989
G1 X83.103 Y55.289 E69.39222
G1 Z9.900 F7800.000
G92 E0
G1 X75.002 Y64.576 F7800.000
G1 X75.002 Y92.547 E7.39827 F1800.000
G1 X71.740 Y95.861 E8.62801
G1 X48.260 Y95.861 E14.83818
G1 X44.998 Y92.547 E16.06791
G1 X44.998 Y64.576 E23.46619
G1 X74.867 Y64.576 E31.36614
G92 E0
G1 X75.002 Y55.424 F7800.000
G1 X44.998 Y55.424 E7.93566 F1800.000
G1 X44.998 Y27.453 E15.33393
G1 X48.260 Y24.139 E16.56366
G1 X71.740 Y24.139 E22.77383
G1 X75.002 Y27.453 E24.00357
G1 X75.002 Y55.289 E31.36613
G92 E0
G1 X83.103 Y55.424 F7800.000
G1 X83.103 Y101.053 E12.06840 F1800.000
G1 X83.052 Y101.573 E12.20638
G1 X82.907 Y102.051 E12.33848
G1 X82.671 Y102.491 E12.47058
G1 X82.355 Y102.877 E12.60269
G1 X81.968 Y103.194 E12.73479
G1 X81.528 Y103.429 E12.86689
G1 X81.050 Y103.574 E12.99899
G1 X80.531 Y103.626 E13.13697
G1 X39.469 Y103.626 E23.99737
G1 X38.950 Y103.574 E24.13534
G1 X38.472 Y103.429 E24.26745
G1 X38.032 Y103.194 E24.39955
G1 X37.645 Y102.877 E24.53165
G1 X37.329 Y102.491 E24.66375
G1 X37.093 Y102.051 E24.79585
G1 X36.948 Y101.573 E24.92796
G1 X36.897 Y101.053 E25.06593
G1 X36.897 Y18.947 E46.78236
G1 X36.948 Y18.427 E46.92034
G1 X37.093 Y17.949 E47.05244
G1 X37.329 Y17.509 E47.18455
G1 X37.593 Y17.187 E47.29475
G1 X37.645 Y17.123 E47.31665
G1 X38.032 Y16.806 E47.44875
G1 X38.472 Y16.571 E47.58085
G1 X38.950 Y16.426 E47.71296
G1 X39.469 Y16.374 E47.85093
G1 X80.638 Y16.385 E58.73974
G1 X81.050 Y16.426 E58.84917 F1800.000
G1 X81.528 Y16.571 E58.98127
G1 X81.968 Y16.806 E59.11337
G1 X82.355 Y17.123 E59.24548
G1 X82.671 Y17.509 E59.37758
G1 X82.907 Y17.949 E59.50968
G1 X83.052 Y18.427 E59.64178
G1 X83.103 Y18.947 E59.77976
G1 X83.103 Y55.289 E69.39208
M106 S165.75
G1 Z10.800 F7800.000
G92 E0
G1 X75.002 Y64.576 F7800.000
G1 X75.002 Y92.387 E7.35589 F1800.000
G1 X71.740 Y95.700 E8.58563
G1 X48.260 Y95.700 E14.79580
G1 X44.998 Y92.387 E16.02553
G1 X44.998 Y64.576 E23.38142
G1 X74.867 Y64.576 E31.28137
G92 E0
G1 X75.002 Y55.424 F7800.000
G1 X44.998 Y55.424 E7.93566 F1800.000
G1 X44.998 Y27.613 E15.29155
G1 X48.260 Y24.300 E16.52128
G1 X71.740 Y24.300 E22.73145
G1 X75.002 Y27.613 E23.96119
G1 X75.002 Y55.289 E31.28137
G92 E0
G1 X83.103 Y55.424 F7800.000
G1 X83.103 Y101.053 E12.06840 F1800.000
G1 X83.052 Y101.573 E12.20638
G1 X82.907 Y102.051 E12.33848
G1 X82.671 Y102.491 E12.47058
G1 X82.355 Y102.877 E12.60269
G1 X81.968 Y103.194 E12.73479
G1 X81.528 Y103.429 E12.86689
G1 X81.050 Y103.574 E12.99899
G1 X80.531 Y103.626 E13.13697
G1 X39.469 Y103.626 E23.99737
G1 X38.950 Y103.574 E24.13534
G1 X38.472 Y103.429 E24.26745
G1 X38.032 Y103.194 E24.39955
G1 X37.645 Y102.877 E24.53165
G1 X37.329 Y102.491 E24.66375
G1 X37.093 Y102.051 E24.79585
G1 X36.948 Y101.573 E24.92796
G1 X36.897 Y101.053 E25.06593
G1 X36.897 Y18.947 E46.78236
G1 X36.948 Y18.427 E46.92034
G1 X37.093 Y17.949 E47.05244
G1 X37.329 Y17.509 E47.18455
G1 X37.621 Y17.153 E47.30636
G1 X38.032 Y16.806 E47.44857
G1 X38.472 Y16.571 E47.58067
G1 X38.950 Y16.426 E47.71277
G1 X39.469 Y16.374 E47.85074
G1 X80.617 Y16.383 E58.73388
G1 X81.050 Y16.426 E58.84901 F1800.000
G1 X81.528 Y16.571 E58.98111
G1 X81.968 Y16.806 E59.11321
G1 X82.355 Y17.123 E59.24532
G1 X82.671 Y17.509 E59.37742
G1 X82.907 Y17.949 E59.50952
G1 X83.052 Y18.427 E59.64163
G1 X83.103 Y18.947 E59.77960
G1 X83.103 Y55.289 E69.39192
G92 E0
G1 X81.190 Y57.556 F7800.000
M106 S255
G1 X81.633 Y57.113 E0.17630 F3600.000
G1 X81.633 Y55.729 E0.56556
G1 X79.807 Y57.556 E1.29237
G1 X78.423 Y57.556 E1.68163
G1 X81.633 Y54.346 E2.95894
G1 X81.633 Y52.962 E3.34821
G1 X77.040 Y57.556 E5.17603
G1 X75.656 Y57.556 E5.56530
G1 X81.633 Y51.579 E7.94362
G1 X81.633 Y50.195 E8.33289
G1 X75.509 Y56.320 E10.76989
G1 X75.509 Y54.936 E11.15916
G1 X81.633 Y48.812 E13.59616
G1 X81.633 Y47.429 E13.98543
G1 X75.509 Y53.553 E16.42244
G1 X75.509 Y52.170 E16.81171
G1 X81.633 Y46.045 E19.24872
G1 X81.633 Y44.662 E19.63798
G1 X75.509 Y50.786 E22.07499
G1 X75.509 Y49.403 E22.46426
G1 X81.633 Y43.278 E24.90127
G1 X81.633 Y41.895 E25.29054
G1 X75.509 Y48.019 E27.72755
G1 X75.509 Y46.636 E28.11681
G1 X81.633 Y40.511 E30.55382
G1 X81.633 Y39.128 E30.94309
G1 X75.509 Y45.252 E33.38010
G1 X75.509 Y43.869 E33.76937
G1 X81.633 Y37.744 E36.20638
G1 X81.633 Y36.361 E36.59564
G1 X75.509 Y42.485 E39.03265
G1 X75.509 Y41.102 E39.42192
G1 X81.633 Y34.977 E41.85893
G1 X81.633 Y33.594 E42.24820
G1 X75.509 Y39.718 E44.68521
G1 X75.509 Y38.335 E45.07447
G1 X81.633 Y32.210 E47.51148
G1 X81.633 Y30.827 E47.90075
G1 X75.509 Y36.951 E50.33776
G1 X75.509 Y35.568 E50.72703
G1 X81.633 Y29.443 E53.16404
G1 X81.633 Y28.060 E53.55330
G1 X75.509 Y34.184 E55.99031
G1 X75.509 Y32.801 E56.37958
G1 X81.498 Y26.811 E58.76286
G1 X80.807 Y26.120 E59.03811
G1 X75.509 Y31.417 E61.14614
G1 X75.509 Y30.034 E61.53540
G1 X80.102 Y25.440 E63.36321
G1 X78.719 Y25.440 E63.75247
G1 X75.509 Y28.650 E65.02977
G1 X75.509 Y27.267 E65.41904
G1 X77.335 Y25.440 E66.14582
G1 X75.952 Y25.440 E66.53509
G1 X75.509 Y25.883 E66.71137
M106 S165.75
G1 X74.720 Y26.751 F7800.000
G1 X75.059 Y26.412 E66.97027 F1200.000
G1 X74.046 Y25.383 E67.74972
G1 X73.699 Y25.730 E68.01470
G92 E0
G1 X71.970 Y23.750 F7800.000
G1 X71.970 Y20.337 F7800.000
G1 X48.030 Y20.337 F7800.000
G1 X48.030 Y23.750 F7800.000
G1 X46.301 Y25.411 F7800.000
G1 X44.961 Y26.751 E0.53294 F1200.000
G92 E0
G1 X40.276 Y25.440 F7800.000
M106 S255
G1 X38.367 Y27.349 E0.75595 F3600.000
G1 X38.367 Y28.730 E1.14245
G1 X41.656 Y25.440 E2.44499
G1 X43.036 Y25.440 E2.83149
G1 X38.367 Y30.110 E4.68062
G1 X38.367 Y31.490 E5.06712
G1 X44.417 Y25.440 E7.46285
G1 X44.491 Y26.746 E7.82908
G1 X38.367 Y32.871 E10.25431
G1 X38.367 Y34.251 E10.64081
G1 X44.491 Y28.126 E13.06605
G1 X44.491 Y29.507 E13.45254
G1 X38.367 Y35.631 E15.87779
G1 X38.367 Y37.011 E16.26429
G1 X44.491 Y30.887 E18.68953
G1 X44.491 Y32.267 E19.07603
G1 X38.367 Y38.392 E21.50127
G1 X38.367 Y39.772 E21.88777
G1 X44.491 Y33.648 E24.31301
G1 X44.491 Y35.028 E24.69951
G1 X38.367 Y41.152 E27.12475
G1 X38.367 Y42.533 E27.51125
G1 X44.491 Y36.408 E29.93649
G1 X44.491 Y37.789 E30.32299
G1 X38.367 Y43.913 E32.74823
G1 X38.367 Y45.293 E33.13473
G1 X44.491 Y39.169 E35.55997
G1 X44.491 Y40.549 E35.94647
G1 X38.367 Y46.674 E38.37171
G1 X38.367 Y48.054 E38.75821
G1 X44.491 Y41.929 E41.18345
G1 X44.491 Y43.310 E41.56995
G1 X38.367 Y49.434 E43.99520
G1 X38.367 Y50.815 E44.38169
G1 X44.491 Y44.690 E46.80694
G1 X44.491 Y46.070 E47.19344
G1 X38.367 Y52.195 E49.61868
G1 X38.367 Y53.575 E50.00518
G1 X44.491 Y47.451 E52.43042
G1 X44.491 Y48.831 E52.81692
G1 X38.367 Y54.956 E55.24216
G1 X38.367 Y56.336 E55.62866
G1 X44.491 Y50.211 E58.05390
G1 X44.491 Y51.592 E58.44040
G1 X38.527 Y57.556 E60.80222
G1 X39.907 Y57.556 E61.18872
G1 X44.491 Y52.972 E63.00394
G1 X44.491 Y54.352 E63.39044
G1 X41.287 Y57.556 E64.65907
G1 X42.668 Y57.556 E65.04557
G1 X44.491 Y55.733 E65.76761
G1 X44.491 Y57.113 E66.15411
G1 X44.048 Y57.556 E66.32955
M106 S165.75
G1 X44.941 Y56.233 F7800.000
G1 X45.300 Y55.874 E66.48459 F1200.000
G1 X46.454 Y55.874 E66.83708
G1 X44.941 Y57.388 E67.49061
G1 X45.870 Y57.613 E67.78251
G1 X47.383 Y56.100 E68.43604
G1 X47.383 Y57.254 E68.78852
G1 X47.024 Y57.613 E68.94356
G92 E0
G1 X44.941 Y62.746 F7800.000
G1 X45.300 Y62.387 E0.15504 F1200.000
G1 X46.454 Y62.387 E0.50753
G1 X44.941 Y63.900 E1.16106
G1 X45.870 Y64.126 E1.45296
G1 X47.383 Y62.612 E2.10649
G1 X47.383 Y63.767 E2.45897
G1 X47.024 Y64.126 E2.61402
G92 E0
G1 X38.367 Y62.887 F7800.000
M106 S255
G1 X38.810 Y62.444 E0.17628 F3600.000
G1 X40.193 Y62.444 E0.56555
G1 X38.367 Y64.271 E1.29234
G1 X38.367 Y65.654 E1.68160
G1 X41.577 Y62.444 E2.95890
G1 X42.960 Y62.444 E3.34817
G1 X38.367 Y67.038 E5.17597
G1 X38.367 Y68.421 E5.56524
G1 X44.344 Y62.444 E7.94355
G1 X44.491 Y63.680 E8.29378
G1 X38.367 Y69.804 E10.73079
G1 X38.367 Y71.188 E11.12005
G1 X44.491 Y65.064 E13.55706
G1 X44.491 Y66.447 E13.94632
G1 X38.367 Y72.571 E16.38333
G1 X38.367 Y73.955 E16.77260
G1 X44.491 Y67.830 E19.20961
G1 X44.491 Y69.214 E19.59888
G1 X38.367 Y75.338 E22.03589
G1 X38.367 Y76.722 E22.42515
G1 X44.491 Y70.597 E24.86216
G1 X44.491 Y71.981 E25.25143
G1 X38.367 Y78.105 E27.68844
G1 X38.367 Y79.489 E28.07771
G1 X44.491 Y73.364 E30.51472
G1 X44.491 Y74.748 E30.90398
G1 X38.367 Y80.872 E33.34099
G1 X38.367 Y82.256 E33.73026
G1 X44.491 Y76.131 E36.16727
G1 X44.491 Y77.515 E36.55654
G1 X38.367 Y83.639 E38.99354
G1 X38.367 Y85.023 E39.38281
G1 X44.491 Y78.898 E41.81982
G1 X44.491 Y80.282 E42.20909
G1 X38.367 Y86.406 E44.64610
G1 X38.367 Y87.790 E45.03536
G1 X44.491 Y81.665 E47.47237
G1 X44.491 Y83.049 E47.86164
G1 X38.367 Y89.173 E50.29865
G1 X38.367 Y90.557 E50.68792
G1 X44.491 Y84.432 E53.12493
G1 X44.491 Y85.816 E53.51419
G1 X38.367 Y91.940 E55.95120
G1 X38.502 Y93.189 E56.30454
G1 X44.491 Y87.199 E58.68784
G1 X44.491 Y88.583 E59.07710
G1 X39.193 Y93.880 E61.18515
G1 X39.898 Y94.560 E61.46045
G1 X44.491 Y89.966 E63.28827
G1 X44.491 Y91.350 E63.67754
G1 X41.281 Y94.560 E64.95485
G1 X42.665 Y94.560 E65.34412
G1 X44.491 Y92.733 E66.07092
G1 X44.491 Y94.117 E66.46019
G1 X44.048 Y94.560 E66.63648
M106 S165.75
G1 X44.941 Y93.588 F7800.000
G1 X45.280 Y93.249 E66.89538 F1200.000
G1 X46.301 Y94.270 E67.67480
G1 X45.954 Y94.617 E67.93978
G92 E0
G1 X48.030 Y99.663 F7800.000
G1 X77.446 Y97.968 F7800.000
G1 X78.465 Y95.481 F7800.000
G1 X75.552 Y92.612 F7800.000
G1 X74.700 Y94.617 F7800.000
G1 X75.059 Y94.258 E0.14283 F1200.000
G92 E0
G1 X79.724 Y94.560 F7800.000
M106 S255
G1 X81.633 Y92.651 E0.75597 F3600.000
G1 X81.633 Y91.270 E1.14247
G1 X78.344 Y94.560 E2.44503
G1 X76.964 Y94.560 E2.83153
G1 X81.633 Y89.890 E4.68068
G1 X81.633 Y88.510 E5.06718
G1 X75.583 Y94.560 E7.46292
G1 X75.509 Y93.254 E7.82916
G1 X81.633 Y87.129 E10.25439
G1 X81.633 Y85.749 E10.64089
G1 X75.509 Y91.874 E13.06612
G1 X75.509 Y90.493 E13.45262
G1 X81.633 Y84.369 E15.87786
G1 X81.633 Y82.989 E16.26435
G1 X75.509 Y89.113 E18.68959
G1 X75.509 Y87.733 E19.07609
G1 X81.633 Y81.608 E21.50132
G1 X81.633 Y80.228 E21.88782
G1 X75.509 Y86.352 E24.31306
G1 X75.509 Y84.972 E24.69956
G1 X81.633 Y78.848 E27.12479
G1 X81.633 Y77.467 E27.51129
G1 X75.509 Y83.592 E29.93653
G1 X75.509 Y82.211 E30.32302
G1 X81.633 Y76.087 E32.74826
G1 X81.633 Y74.707 E33.13476
G1 X75.509 Y80.831 E35.55999
G1 X75.509 Y79.451 E35.94649
G1 X81.633 Y73.326 E38.37173
G1 X81.633 Y71.946 E38.75822
G1 X75.509 Y78.070 E41.18346
G1 X75.509 Y76.690 E41.56996
G1 X81.633 Y70.566 E43.99519
G1 X81.633 Y69.185 E44.38169
G1 X75.509 Y75.310 E46.80692
G1 X75.509 Y73.930 E47.19342
G1 X81.633 Y67.805 E49.61866
G1 X81.633 Y66.425 E50.00515
G1 X75.509 Y72.549 E52.43039
G1 X75.509 Y71.169 E52.81689
G1 X81.633 Y65.044 E55.24212
G1 X81.633 Y63.664 E55.62862
G1 X75.509 Y69.789 E58.05385
G1 X75.509 Y68.408 E58.44035
G1 X81.473 Y62.444 E60.80215
G1 X80.093 Y62.444 E61.18865
G1 X75.509 Y67.028 E63.00385
G1 X75.509 Y65.648 E63.39035
G1 X78.713 Y62.444 E64.65897
G1 X77.332 Y62.444 E65.04547
G1 X75.509 Y64.267 E65.76749
G1 X75.509 Y62.887 E66.15398
G1 X75.952 Y62.444 E66.32941
M106 S165.75
G92 E0
G1 X74.700 Y64.126 F7800.000
G1 X75.059 Y63.767 E0.15504 F1200.000
G1 X75.059 Y62.612 E0.50753
G1 X73.546 Y64.126 E1.16106
G1 X72.617 Y63.900 E1.45296
G1 X74.130 Y62.387 E2.10648
G1 X72.976 Y62.387 E2.45897
G1 X72.617 Y62.746 E2.61401
G92 E0
G1 X74.700 Y57.613 F7800.000
G1 X75.059 Y57.254 E0.15504 F1200.000
G1 X75.059 Y56.100 E0.50753
G1 X73.546 Y57.613 E1.16106
G1 X72.617 Y57.388 E1.45296
G1 X74.130 Y55.874 E2.10649
G1 X72.976 Y55.874 E2.45897
G1 X72.617 Y56.233 E2.61401
M107
G1 Z11.700 F7800.000
G92 E0
G1 X75.002 Y64.576 F7800.000
G1 X75.002 Y92.227 E7.31351 F1800.000
G1 X71.740 Y95.540 E8.54325
G1 X48.260 Y95.540 E14.75342
G1 X44.998 Y92.227 E15.98315
G1 X44.998 Y64.576 E23.29666
G1 X74.867 Y64.576 E31.19661
G92 E0
G1 X75.002 Y55.424 F7800.000
G1 X44.998 Y55.424 E7.93566 F1800.000
G1 X44.998 Y27.773 E15.24917
G1 X48.260 Y24.460 E16.47890
G1 X71.740 Y24.460 E22.68907
G1 X75.002 Y27.773 E23.91881
G1 X75.002 Y55.289 E31.19661
G92 E0
G1 X83.103 Y55.424 F7800.000
G1 X83.103 Y101.053 E12.06840 F1800.000
G1 X83.052 Y101.573 E12.20638
G1 X82.907 Y102.051 E12.33848
G1 X82.671 Y102.491 E12.47058
G1 X82.355 Y102.877 E12.60269
G1 X81.968 Y103.194 E12.73479
G1 X81.528 Y103.429 E12.86689
G1 X81.050 Y103.574 E12.99899
G1 X80.531 Y103.626 E13.13697
G1 X39.469 Y103.626 E23.99737
G1 X38.950 Y103.574 E24.13534
G1 X38.472 Y103.429 E24.26745
G1 X38.032 Y103.194 E24.39955
G1 X37.645 Y102.877 E24.53165
G1 X37.329 Y102.491 E24.66375
G1 X37.093 Y102.051 E24.79585
G1 X36.948 Y101.573 E24.92796
G1 X36.897 Y101.053 E25.06593
G1 X36.897 Y18.947 E46.78236
G1 X36.948 Y18.427 E46.92034
G1 X37.093 Y17.949 E47.05244
G1 X37.329 Y17.509 E47.18455
G1 X37.622 Y17.151 E47.30699
G1 X38.034 Y16.805 E47.44930
G1 X38.472 Y16.571 E47.58066
G1 X38.950 Y16.426 E47.71277
G1 X39.469 Y16.374 E47.85074
G1 X80.573 Y16.379 E58.72240
G1 X81.050 Y16.426 E58.84906 F1800.000
G1 X81.528 Y16.571 E58.98116
G1 X81.968 Y16.806 E59.11326
G1 X82.355 Y17.123 E59.24537
G1 X82.671 Y17.509 E59.37747
G1 X82.907 Y17.949 E59.50957
G1 X83.052 Y18.427 E59.64167
G1 X83.103 Y18.947 E59.77965
G1 X83.103 Y55.289 E69.39197
G92 E0
G1 X78.855 Y65.581 F7800.000
G1 X78.496 Y65.222 E0.14781 F900.000
G1 X77.396 Y65.222 E0.46821
G1 X78.855 Y66.681 E1.06913
G1 X78.855 Y67.782 E1.38953
G1 X76.296 Y65.222 E2.44356
G1 X75.452 Y65.479 E2.70032
G1 X78.855 Y68.882 E4.10175
G1 X78.855 Y69.983 E4.42214
G1 X75.452 Y66.579 E5.82356
G1 X75.452 Y67.680 E6.14396
G1 X78.855 Y71.083 E7.54538
G1 X78.855 Y72.184 E7.86578
G1 X75.452 Y68.780 E9.26720
G1 X75.452 Y69.880 E9.58759
G1 X78.855 Y73.284 E10.98901
G1 X78.855 Y74.384 E11.30941
G1 X75.452 Y70.981 E12.71083
G1 X75.452 Y72.081 E13.03123
G1 X78.855 Y75.485 E14.43265
G1 X78.855 Y76.585 E14.75305
G1 X75.452 Y73.182 E16.15447
G1 X75.452 Y74.282 E16.47486
G1 X78.855 Y77.686 E17.87629
G1 X78.855 Y78.786 E18.19668
G1 X75.452 Y75.383 E19.59811
G1 X75.452 Y76.483 E19.91850
G1 X78.855 Y79.887 E21.31992
G1 X78.855 Y80.987 E21.64032
G1 X75.452 Y77.584 E23.04174
G1 X75.452 Y78.684 E23.36214
G1 X78.855 Y82.087 E24.76356
G1 X78.855 Y83.188 E25.08396
G1 X75.452 Y79.784 E26.48538
G1 X75.452 Y80.885 E26.80578
G1 X78.855 Y84.288 E28.20720
G1 X78.855 Y85.389 E28.52760
G1 X75.452 Y81.985 E29.92903
G1 X75.452 Y83.086 E30.24942
G1 X78.855 Y86.489 E31.65085
G1 X78.855 Y87.590 E31.97124
G1 X75.452 Y84.186 E33.37267
G1 X75.452 Y85.287 E33.69306
G1 X78.855 Y88.690 E35.09449
G1 X78.012 Y88.947 E35.35126
G1 X75.452 Y86.387 E36.40528
G1 X75.452 Y87.487 E36.72568
G1 X76.911 Y88.947 E37.32660
G1 X75.811 Y88.947 E37.64699
G1 X75.452 Y88.588 E37.79480
G92 E0
G1 X75.059 Y93.428 F7800.000
G1 X74.706 Y93.075 E0.14610 F900.000
G1 X74.157 Y93.632 E0.37482
G1 X75.059 Y94.534 E0.74786
G1 X75.059 Y95.639 E1.07132
G1 X73.609 Y94.189 E1.67128
G1 X73.060 Y94.746 E1.90001
G1 X75.059 Y96.745 E2.72692
G1 X75.059 Y97.851 E3.05038
G1 X72.512 Y95.303 E4.10422
G1 X71.963 Y95.861 E4.33294
G1 X75.059 Y98.956 E5.61372
G1 X74.669 Y99.672 E5.85213
G1 X70.987 Y95.990 E7.37530
G1 X69.881 Y95.990 E7.69876
G1 X73.563 Y99.672 E9.22193
G1 X72.457 Y99.672 E9.54539
G1 X68.776 Y95.990 E11.06856
G1 X67.778 Y96.098 E11.36219
G1 X71.352 Y99.672 E12.84076
G1 X70.246 Y99.672 E13.16422
G1 X68.028 Y97.454 E14.08172
G1 X68.765 Y99.297 F7800.000
G1 X69.140 Y99.672 E14.23681 F900.000
G92 E0
G1 X75.509 Y98.238 F7800.000
M106 S255
G1 X75.932 Y98.661 E0.15978 F3600.000
G1 X76.607 Y97.986 E0.41466
G1 X75.509 Y96.888 E0.82933
G1 X75.509 Y95.539 E1.18979
G1 X77.282 Y97.311 E1.85934
G1 X77.955 Y96.635 E2.11422
G1 X75.509 Y94.189 E3.03803
G1 X75.509 Y92.839 E3.39849
G1 X78.624 Y95.955 E4.57519
G1 X79.294 Y95.275 E4.83009
G1 X75.509 Y91.490 E6.25969
G1 X75.509 Y90.140 E6.62015
G1 X79.964 Y94.595 E8.30266
G1 X80.633 Y93.915 E8.55755
G1 X76.115 Y89.397 E10.26390
G1 X77.465 Y89.397 E10.62436
G1 X81.303 Y93.234 E12.07384
G1 X81.972 Y92.554 E12.32873
G1 X78.815 Y89.397 E13.52133
G1 X80.164 Y89.397 E13.88179
G1 X82.642 Y91.874 E14.81752
G1 X83.311 Y91.194 E15.07241
G1 X81.514 Y89.397 E15.75128
G1 X82.864 Y89.397 E16.11174
G1 X83.981 Y90.514 E16.53373
G1 X84.213 Y89.397 E16.83851
G1 X84.651 Y89.834 E17.00364
M107
G92 E0
G1 X83.929 Y104.227 F7800.000
G1 X82.259 Y104.891 F7800.000
G1 X81.239 Y105.044 F7800.000
G1 X80.651 Y105.073 F7800.000
G1 X80.553 Y104.076 F7800.000
G1 X52.013 Y96.349 F7800.000
G1 X51.654 Y95.990 E0.14938 F900.000
G1 X50.542 Y95.990 E0.47659
G1 X52.013 Y97.461 E1.08873
G1 X52.013 Y98.573 E1.41594
G1 X49.430 Y95.990 E2.49083
G1 X48.318 Y95.990 E2.81804
G1 X51.986 Y99.659 E4.34453
G1 X50.887 Y99.672 E4.66788
G1 X44.941 Y93.726 E7.14215
G1 X44.941 Y94.838 E7.46936
G1 X49.775 Y99.672 E9.48088
G1 X48.663 Y99.672 E9.80809
G1 X44.941 Y95.950 E11.35685
G1 X44.941 Y97.062 E11.68407
G1 X47.551 Y99.672 E12.77008
G1 X46.439 Y99.672 E13.09729
G1 X44.941 Y98.174 E13.72055
G1 X44.941 Y99.286 E14.04777
G1 X45.327 Y99.672 E14.20827
G92 E0
G1 X42.256 Y96.446 F7800.000
M106 S255
G1 X44.471 Y98.661 E1.00658 F3600.000
G1 X44.491 Y97.208 E1.47367
G1 X36.680 Y89.397 E5.02296
G1 X38.154 Y89.397 E5.49644
G1 X44.491 Y95.734 E8.37613
G1 X44.491 Y94.260 E8.84960
G1 X39.627 Y89.397 E11.05970
G1 X41.101 Y89.397 E11.53318
G1 X44.491 Y92.787 E13.07368
G1 X44.491 Y91.313 E13.54715
G1 X42.575 Y89.397 E14.41807
G1 X44.048 Y89.397 E14.89155
G1 X44.491 Y89.840 E15.09287
M107
G92 E0
G1 X41.145 Y88.588 F7800.000
G1 X41.504 Y88.947 E0.14781 F900.000
G1 X42.604 Y88.947 E0.46821
G1 X41.145 Y87.487 E1.06912
G1 X41.145 Y86.387 E1.38952
G1 X43.704 Y88.947 E2.44355
G1 X44.548 Y88.690 E2.70032
G1 X41.145 Y85.287 E4.10174
G1 X41.145 Y84.186 E4.42214
G1 X44.548 Y87.590 E5.82357
G1 X44.548 Y86.489 E6.14396
G1 X41.145 Y83.086 E7.54539
G1 X41.145 Y81.985 E7.86579
G1 X44.548 Y85.389 E9.26721
G1 X44.548 Y84.288 E9.58761
G1 X41.145 Y80.885 E10.98904
G1 X41.145 Y79.784 E11.30943
G1 X44.548 Y83.188 E12.71086
G1 X44.548 Y82.087 E13.03126
G1 X41.145 Y78.684 E14.43268
G1 X41.145 Y77.584 E14.75308
G1 X44.548 Y80.987 E16.15451
G1 X44.548 Y79.887 E16.47490
G1 X41.145 Y76.483 E17.87633
G1 X41.145 Y75.383 E18.19673
G1 X44.548 Y78.786 E19.59815
G1 X44.548 Y77.686 E19.91855
G1 X41.145 Y74.282 E21.31998
G1 X41.145 Y73.182 E21.64037
G1 X44.548 Y76.585 E23.04180
G1 X44.548 Y75.485 E23.36219
G1 X41.145 Y72.081 E24.76362
G1 X41.145 Y70.981 E25.08402
G1 X44.548 Y74.384 E26.48544
G1 X44.548 Y73.284 E26.80584
G1 X41.145 Y69.880 E28.20727
G1 X41.145 Y68.780 E28.52766
G1 X44.548 Y72.184 E29.92909
G1 X44.548 Y71.083 E30.24949
G1 X41.145 Y67.680 E31.65091
G1 X41.145 Y66.579 E31.97131
G1 X44.548 Y69.983 E33.37273
G1 X44.548 Y68.882 E33.69313
G1 X41.145 Y65.479 E35.09456
G1 X41.988 Y65.222 E35.35133
G1 X44.548 Y67.782 E36.40536
G1 X44.548 Y66.681 E36.72575
G1 X43.089 Y65.222 E37.32668
G1 X44.189 Y65.222 E37.64707
G1 X44.548 Y65.581 E37.79489
G92 E0
G1 X41.145 Y54.419 F7800.000
G1 X41.504 Y54.778 E0.14781 F900.000
G1 X42.604 Y54.778 E0.46821
G1 X41.145 Y53.319 E1.06912
G1 X41.145 Y52.218 E1.38952
G1 X43.704 Y54.778 E2.44355
G1 X44.548 Y54.521 E2.70032
G1 X41.145 Y51.118 E4.10174
G1 X41.145 Y50.017 E4.42214
G1 X44.548 Y53.421 E5.82357
G1 X44.548 Y52.320 E6.14396
G1 X41.145 Y48.917 E7.54539
G1 X41.145 Y47.816 E7.86578
G1 X44.548 Y51.220 E9.26721
G1 X44.548 Y50.120 E9.58761
G1 X41.145 Y46.716 E10.98903
G1 X41.145 Y45.616 E11.30943
G1 X44.548 Y49.019 E12.71086
G1 X44.548 Y47.919 E13.03125
G1 X41.145 Y44.515 E14.43268
G1 X41.145 Y43.415 E14.75308
G1 X44.548 Y46.818 E16.15450
G1 X44.548 Y45.718 E16.47490
G1 X41.145 Y42.314 E17.87632
G1 X41.145 Y41.214 E18.19672
G1 X44.548 Y44.617 E19.59815
G1 X44.548 Y43.517 E19.91854
G1 X41.145 Y40.113 E21.31997
G1 X41.145 Y39.013 E21.64037
G1 X44.548 Y42.417 E23.04179
G1 X44.548 Y41.316 E23.36219
G1 X41.145 Y37.913 E24.76362
G1 X41.145 Y36.812 E25.08401
G1 X44.548 Y40.216 E26.48544
G1 X44.548 Y39.115 E26.80583
G1 X41.145 Y35.712 E28.20726
G1 X41.145 Y34.611 E28.52766
G1 X44.548 Y38.015 E29.92908
G1 X44.548 Y36.914 E30.24948
G1 X41.145 Y33.511 E31.65091
G1 X41.145 Y32.410 E31.97130
G1 X44.548 Y35.814 E33.37273
G1 X44.548 Y34.714 E33.69313
G1 X41.145 Y31.310 E35.09455
G1 X41.988 Y31.053 E35.35132
G1 X44.548 Y33.613 E36.40535
G1 X44.548 Y32.513 E36.72575
G1 X43.089 Y31.053 E37.32667
G1 X44.189 Y31.053 E37.64707
G1 X44.548 Y31.412 E37.79488
G92 E0
G1 X44.941 Y26.572 F7800.000
G1 X45.294 Y26.925 E0.14419 F900.000
G1 X45.836 Y26.375 E0.36701
G1 X44.941 Y25.481 E0.73227
G1 X44.941 Y24.389 E1.04736
G1 X46.377 Y25.825 E1.63369
G1 X46.918 Y25.275 E1.85651
G1 X44.941 Y23.298 E2.66391
G1 X44.941 Y22.207 E2.97900
G1 X47.460 Y24.726 E4.00747
G1 X48.001 Y24.176 E4.23028
G1 X44.941 Y21.116 E5.47981
G1 X45.245 Y20.328 E5.72351
G1 X48.927 Y24.010 E7.22686
G1 X50.018 Y24.010 E7.54196
G1 X46.336 Y20.328 E9.04531
G1 X47.428 Y20.328 E9.36040
G1 X51.109 Y24.010 E10.86375
G1 X52.157 Y23.967 E11.16667
G1 X48.519 Y20.328 E12.65244
G1 X49.610 Y20.328 E12.96753
G1 X52.703 Y23.421 E14.23049
G1 X53.249 Y22.875 E14.45330
G1 X50.701 Y20.328 E15.49345
G1 X51.793 Y20.328 E15.80855
G1 X53.794 Y22.330 E16.62589
G1 X54.337 Y21.781 E16.84870
G1 X52.884 Y20.328 E17.44199
G1 X53.975 Y20.328 E17.75709
G1 X54.878 Y21.231 E18.12583
G1 X55.067 Y20.328 E18.39217
G1 X55.420 Y20.681 E18.53637
G92 E0
G1 X44.491 Y21.762 F7800.000
M106 S255
G1 X44.068 Y21.339 E0.15978 F3600.000
G1 X43.393 Y22.014 E0.41467
G1 X44.491 Y23.112 E0.82934
G1 X44.491 Y24.461 E1.18980
G1 X42.718 Y22.689 E1.85935
G1 X42.045 Y23.365 E2.11424
G1 X44.491 Y25.811 E3.03805
G1 X44.491 Y27.161 E3.39851
G1 X41.376 Y24.045 E4.57522
G1 X40.706 Y24.725 E4.83011
G1 X44.491 Y28.510 E6.25973
G1 X44.491 Y29.860 E6.62019
G1 X40.036 Y25.405 E8.30270
G1 X39.367 Y26.085 E8.55759
G1 X43.885 Y30.603 E10.26394
G1 X42.535 Y30.603 E10.62441
G1 X38.697 Y26.766 E12.07388
G1 X38.028 Y27.446 E12.32878
G1 X41.185 Y30.603 E13.52138
G1 X39.836 Y30.603 E13.88184
G1 X37.358 Y28.126 E14.81757
G1 X36.689 Y28.806 E15.07246
G1 X38.486 Y30.603 E15.75132
G1 X37.136 Y30.603 E16.11178
G1 X36.019 Y29.486 E16.53377
G1 X35.349 Y30.166 E16.78866
G1 X35.787 Y30.603 E16.95378
M107
G92 E0
G1 X36.057 Y15.812 F7800.000
G1 X37.741 Y15.109 F7800.000
G1 X38.761 Y14.956 F7800.000
G1 X39.349 Y14.927 F7800.000
G1 X39.447 Y15.924 F7800.000
G1 X68.684 Y24.010 F7800.000
G1 X65.002 Y20.328 E1.48034 F900.000
G1 X66.077 Y20.328 E1.78587
G1 X69.758 Y24.010 E3.26621
G1 X70.833 Y24.010 E3.57174
G1 X67.151 Y20.328 E5.05208
G1 X68.226 Y20.328 E5.35760
G1 X71.907 Y24.010 E6.83795
G92 E0
G1 X76.825 Y22.480 F7800.000
G1 X74.673 Y20.328 E0.86527 F900.000
G1 X73.599 Y20.328 E1.17080
G1 X82.653 Y29.382 E4.81140
G1 X82.653 Y30.457 E5.11692
G1 X72.524 Y20.328 E9.18960
G1 X71.449 Y20.328 E9.49512
G1 X81.782 Y30.660 E13.64955
G1 X80.707 Y30.660 E13.95507
G1 X70.375 Y20.328 E18.10949
G1 X69.300 Y20.328 E18.41502
G1 X79.632 Y30.660 E22.56944
G1 X78.855 Y30.958 F7800.000
G1 X75.452 Y27.554 E23.93795 F900.000
G1 X75.452 Y28.629 E24.24348
G1 X78.855 Y32.032 E25.61199
G1 X78.855 Y33.107 E25.91752
G1 X75.452 Y29.703 E27.28603
G1 X75.452 Y30.778 E27.59156
G1 X78.855 Y34.182 E28.96007
G1 X78.855 Y35.256 E29.26560
G1 X75.452 Y31.853 E30.63412
G1 X75.452 Y32.927 E30.93964
G1 X78.855 Y36.331 E32.30816
G1 X78.855 Y37.405 E32.61368
G1 X75.452 Y34.002 E33.98220
G1 X75.452 Y35.076 E34.28772
G1 X78.855 Y38.480 E35.65624
G1 X78.855 Y39.555 E35.96176
G1 X75.452 Y36.151 E37.33028
G1 X75.452 Y37.226 E37.63580
G1 X78.855 Y40.629 E39.00432
G1 X78.855 Y41.704 E39.30984
G1 X75.452 Y38.300 E40.67836
G1 X75.452 Y39.375 E40.98388
G1 X78.855 Y42.778 E42.35240
G1 X78.855 Y43.853 E42.65793
G1 X75.452 Y40.449 E44.02644
G1 X75.452 Y41.524 E44.33197
G1 X78.855 Y44.927 E45.70048
G1 X78.855 Y46.002 E46.00601
G1 X75.452 Y42.599 E47.37452
G1 X75.452 Y43.673 E47.68005
G1 X78.855 Y47.077 E49.04856
G1 X78.855 Y48.151 E49.35409
G1 X75.452 Y44.748 E50.72261
G1 X75.452 Y45.822 E51.02813
G1 X78.855 Y49.226 E52.39665
G1 X78.855 Y50.300 E52.70217
G1 X75.452 Y46.897 E54.07069
G1 X75.452 Y47.971 E54.37621
G1 X78.855 Y51.375 E55.74473
G1 X78.855 Y52.450 E56.05025
G1 X75.452 Y49.046 E57.41877
G1 X75.452 Y50.121 E57.72429
G1 X78.855 Y53.524 E59.09281
G1 X78.855 Y54.599 E59.39833
G1 X75.452 Y51.195 E60.76685
G1 X75.452 Y52.270 E61.07238
G1 X77.960 Y54.778 E62.08087
G1 X76.885 Y54.778 E62.38639
G1 X75.452 Y53.344 E62.96281
G1 X75.452 Y54.419 E63.26833
G1 X75.811 Y54.778 E63.41267
M106 S175.95
G1 Z12.600 F7800.000
G92 E0
G1 X79.502 Y64.576 F7800.000
G1 X79.502 Y92.067 E7.27113 F1800.000
G1 X79.146 Y92.428 E7.40530
G1 X74.646 Y92.428 E8.59551
G1 X71.740 Y95.380 E9.69107
G1 X48.260 Y95.380 E15.90124
G1 X45.354 Y92.428 E16.99680
G1 X40.854 Y92.428 E18.18701
G1 X40.498 Y92.067 E18.32118
G1 X40.498 Y64.576 E25.59231
G1 X79.367 Y64.576 E35.87266
G92 E0
G1 X79.502 Y55.424 F7800.000
G1 X40.498 Y55.424 E10.31606 F1800.000
G1 X40.498 Y27.933 E17.58720
G1 X40.854 Y27.572 E17.72137
G1 X45.354 Y27.572 E18.91157
G1 X48.260 Y24.620 E20.00713
G1 X71.740 Y24.620 E26.21730
G1 X74.646 Y27.572 E27.31287
G1 X79.146 Y27.572 E28.50307
G1 X79.502 Y27.933 E28.63724
G1 X79.502 Y55.289 E35.87267
G92 E0
G1 X83.103 Y55.424 F7800.000
G1 X83.103 Y101.004 E12.05524 F1800.000
G1 X83.052 Y101.533 E12.19589
G1 X82.906 Y102.021 E12.33054
G1 X82.670 Y102.470 E12.46474
G1 X82.353 Y102.862 E12.59816
G1 X81.966 Y103.185 E12.73142
G1 X81.526 Y103.424 E12.86385
G1 X81.049 Y103.571 E12.99586
G1 X80.530 Y103.623 E13.13360
G1 X39.470 Y103.623 E23.99382
G1 X38.951 Y103.571 E24.13155
G1 X38.474 Y103.424 E24.26357
G1 X38.034 Y103.185 E24.39602
G1 X37.648 Y102.863 E24.52904
G1 X37.330 Y102.470 E24.66268
G1 X37.094 Y102.021 E24.79689
G1 X36.948 Y101.533 E24.93153
G1 X36.897 Y101.004 E25.07219
G1 X36.897 Y18.996 E46.76229
G1 X36.948 Y18.467 E46.90295
G1 X37.094 Y17.979 E47.03758
G1 X37.330 Y17.530 E47.17179
G1 X37.647 Y17.138 E47.30521
G1 X38.034 Y16.815 E47.43847
G1 X38.474 Y16.576 E47.57090
G1 X38.951 Y16.429 E47.70291
G1 X39.470 Y16.377 E47.84065
G1 X80.531 Y16.377 E58.70090
G1 X81.049 Y16.429 E58.83860 F1800.000
G1 X81.526 Y16.576 E58.97061
G1 X81.966 Y16.815 E59.10306
G1 X82.352 Y17.137 E59.23609
G1 X82.670 Y17.530 E59.36973
G1 X82.906 Y17.979 E59.50394
G1 X83.052 Y18.467 E59.63858
G1 X83.103 Y18.996 E59.77923
G1 X83.103 Y55.289 E69.37839
G92 E0
G1 X82.553 Y19.023 F7800.000
G1 X80.351 Y19.129 F7800.000
G1 X79.376 Y23.845 F7800.000
G1 X79.376 Y27.022 F7800.000
G1 X76.773 Y27.122 F7800.000
G1 X77.255 Y26.639 E0.19288 F900.000
G1 X76.726 Y26.101 F7800.000
G1 X75.705 Y27.122 E0.60086 F900.000
G1 X74.703 Y27.055 E0.88448
G1 X77.196 Y24.563 E1.88049
G1 X76.127 Y24.563 E2.18232
G1 X74.169 Y26.521 E2.96490
G1 X73.635 Y25.987 E3.17833
G1 X75.059 Y24.563 E3.74747
G1 X73.991 Y24.563 E4.04931
G1 X73.101 Y25.453 E4.40502
G1 X72.570 Y24.916 E4.61845
G1 X72.923 Y24.563 E4.75958
G92 E0
G1 X77.221 Y25.605 F7800.000
G1 X78.264 Y24.563 E0.41658 F900.000
G1 X78.289 Y25.605 E0.71123
G1 X79.168 Y24.727 E1.06225
G1 X79.702 Y25.261 E1.27568
G1 X79.357 Y25.605 E1.41327
G92 E0
G1 X77.666 Y24.113 F7800.000
M106 S255
G1 X78.103 Y23.676 E0.17283 F3600.000
G1 X77.419 Y22.981 E0.44544
G1 X76.287 Y24.113 E0.89300
G1 X74.907 Y24.113 E1.27852
G1 X76.735 Y22.286 E2.00082
G1 X76.050 Y21.591 E2.27343
G1 X73.528 Y24.113 E3.27045
G1 X72.149 Y24.113 E3.65598
G1 X75.366 Y20.896 E4.92773
G1 X74.682 Y20.201 E5.20035
G1 X70.770 Y24.113 E6.74685
G1 X69.391 Y24.113 E7.13237
G1 X73.993 Y19.510 E8.95187
G1 X73.304 Y18.821 E9.22447
G1 X68.012 Y24.113 E11.31658
G1 X66.632 Y24.113 E11.70210
G1 X72.507 Y18.238 E14.02447
G1 X71.128 Y18.238 E14.40999
G1 X65.253 Y24.113 E16.73236
G1 X63.874 Y24.113 E17.11788
G1 X69.749 Y18.238 E19.44025
G1 X68.370 Y18.238 E19.82577
G1 X62.495 Y24.113 E22.14814
G1 X61.116 Y24.113 E22.53366
G1 X66.990 Y18.238 E24.85603
G1 X65.611 Y18.238 E25.24155
G1 X59.736 Y24.113 E27.56392
G1 X58.357 Y24.113 E27.94944
G1 X64.232 Y18.238 E30.27181
G1 X62.853 Y18.238 E30.65733
G1 X56.978 Y24.113 E32.97970
G1 X55.599 Y24.113 E33.36522
G1 X61.474 Y18.238 E35.68759
G1 X60.094 Y18.238 E36.07311
G1 X54.220 Y24.113 E38.39548
G1 X52.840 Y24.113 E38.78100
G1 X58.715 Y18.238 E41.10337
G1 X57.336 Y18.238 E41.48889
G1 X51.461 Y24.113 E43.81126
G1 X50.082 Y24.113 E44.19679
G1 X55.957 Y18.238 E46.51915
G1 X54.578 Y18.238 E46.90468
G1 X48.703 Y24.113 E49.22704
G1 X47.324 Y24.113 E49.61256
G1 X53.198 Y18.238 E51.93492
G1 X51.819 Y18.238 E52.32044
G1 X45.945 Y24.113 E54.64280
G1 X44.565 Y24.113 E55.02833
G1 X50.440 Y18.238 E57.35069
G1 X49.061 Y18.238 E57.73621
G1 X43.186 Y24.113 E60.05857
M106 S175.95
G92 E0
G1 X45.447 Y20.473 F7800.000
M106 S255
G1 X47.682 Y18.238 E0.88335 F3600.000
M106 S175.95
G92 E0
G1 X46.427 Y25.605 F7800.000
G1 X47.062 Y24.970 E0.29238 F900.000
G1 X44.911 Y27.122 E1.28322
G1 X43.680 Y27.122 E1.68409
G1 X46.239 Y24.563 E2.86264
G1 X45.008 Y24.563 E3.26351
G1 X43.608 Y25.963 E3.90815
G1 X42.735 Y25.605 F7800.000
G1 X43.777 Y24.563 E4.38822 F900.000
G1 X42.546 Y24.563 E4.78910
G1 X41.504 Y25.605 E5.26917
G1 X41.315 Y24.563 E5.61415
G1 X40.298 Y25.580 E6.08258
G92 E0
G1 X38.698 Y27.708 F7800.000
G1 X38.698 Y55.974 F7800.000
G1 X41.473 Y60.000 F7800.000
G1 X39.948 Y61.524 F7800.000
G1 X39.948 Y64.026 F7800.000
G1 X43.227 Y92.878 F7800.000
G1 X42.745 Y93.361 E0.19288 F900.000
G1 X43.274 Y93.899 F7800.000
G1 X44.295 Y92.878 E0.60086 F900.000
G1 X45.297 Y92.945 E0.88448
G1 X42.804 Y95.437 E1.88049
G1 X43.873 Y95.437 E2.18232
G1 X45.831 Y93.479 E2.96490
G1 X46.365 Y94.013 E3.17833
G1 X44.941 Y95.437 E3.74747
G1 X46.009 Y95.437 E4.04931
G1 X46.899 Y94.547 E4.40503
G1 X47.430 Y95.084 E4.61846
G1 X47.077 Y95.437 E4.75959
G92 E0
G1 X42.779 Y94.395 F7800.000
G1 X41.736 Y95.437 E0.41658 F900.000
G1 X40.832 Y95.273 E0.67623
G1 X41.711 Y94.395 E1.02725
G1 X40.643 Y94.395 E1.32908
G1 X40.298 Y94.739 E1.46667
G92 E0
G1 X42.334 Y95.887 F7800.000
M106 S255
G1 X41.897 Y96.324 E0.17282 F3600.000
G1 X42.581 Y97.019 E0.44544
G1 X43.713 Y95.887 E0.89299
G1 X45.092 Y95.887 E1.27851
G1 X43.265 Y97.714 E2.00080
G1 X43.950 Y98.409 E2.27341
G1 X46.472 Y95.887 E3.27043
G1 X47.851 Y95.887 E3.65595
G1 X44.634 Y99.104 E4.92771
G1 X45.318 Y99.799 E5.20032
G1 X49.230 Y95.887 E6.74682
G1 X50.609 Y95.887 E7.13234
G1 X46.007 Y100.490 E8.95184
G1 X46.696 Y101.179 E9.22445
G1 X51.988 Y95.887 E11.31655
G1 X53.368 Y95.887 E11.70208
G1 X47.493 Y101.762 E14.02445
G1 X48.872 Y101.762 E14.40997
G1 X54.747 Y95.887 E16.73234
G1 X56.126 Y95.887 E17.11787
G1 X50.251 Y101.762 E19.44024
G1 X51.630 Y101.762 E19.82576
G1 X57.505 Y95.887 E22.14813
G1 X58.884 Y95.887 E22.53366
G1 X53.010 Y101.762 E24.85603
G1 X54.389 Y101.762 E25.24155
G1 X60.264 Y95.887 E27.56392
G1 X61.643 Y95.887 E27.94945
G1 X55.768 Y101.762 E30.27182
G1 X57.147 Y101.762 E30.65734
G1 X63.022 Y95.887 E32.97971
G1 X64.401 Y95.887 E33.36524
G1 X58.526 Y101.762 E35.68761
G1 X59.906 Y101.762 E36.07313
G1 X65.780 Y95.887 E38.39550
G1 X67.160 Y95.887 E38.78103
G1 X61.285 Y101.762 E41.10340
G1 X62.664 Y101.762 E41.48892
G1 X68.539 Y95.887 E43.81129
G1 X69.918 Y95.887 E44.19682
G1 X64.043 Y101.762 E46.51919
G1 X65.422 Y101.762 E46.90471
G1 X71.297 Y95.887 E49.22708
G1 X72.676 Y95.887 E49.61260
G1 X66.802 Y101.762 E51.93496
M106 S175.95
G92 E0
G1 X70.939 Y101.762 F7800.000
M106 S255
G1 X76.814 Y95.887 E2.32236 F3600.000
G1 X75.435 Y95.887 E2.70789
G1 X69.560 Y101.762 E5.03025
G1 X68.181 Y101.762 E5.41577
G1 X74.055 Y95.887 E7.73814
M106 S175.95
G92 E0
G1 X74.552 Y99.528 F7800.000
M106 S255
G1 X72.318 Y101.762 E0.88318 F3600.000
M106 S175.95
G92 E0
G1 X78.685 Y95.437 F7800.000
G1 X79.702 Y94.420 E0.46843 F900.000
G1 X78.496 Y94.395 E0.86115
G1 X77.454 Y95.437 E1.34122
G1 X77.265 Y94.395 E1.68620
G1 X76.223 Y95.437 E2.16627
G1 X74.992 Y95.437 E2.56714
G1 X76.392 Y94.037 E3.21178
G1 X76.320 Y92.878 E3.59003
G1 X73.761 Y95.437 E4.76858
G1 X72.938 Y95.030 E5.06777
G1 X75.089 Y92.878 E6.05862
M106 S191.25
G1 Z13.500 F7800.000
G92 E0
G1 X79.502 Y64.576 F7800.000
G1 X79.502 Y91.906 E7.22875 F1800.000
G1 X74.011 Y97.483 E9.29864
G1 X45.989 Y97.483 E16.71036
G1 X40.498 Y91.906 E18.78025
G1 X40.498 Y64.576 E26.00900
G1 X79.367 Y64.576 E36.28936
G92 E0
G1 X79.502 Y55.424 F7800.000
G1 X40.498 Y55.424 E10.31606 F1800.000
G1 X40.498 Y28.094 E17.54481
G1 X45.989 Y22.517 E19.61470
G1 X74.011 Y22.517 E27.02643
G1 X79.502 Y28.094 E29.09632
G1 X79.502 Y55.289 E36.28936
G92 E0
G1 X83.103 Y55.424 F7800.000
G1 X83.103 Y100.843 E12.01286 F1800.000
G1 X83.052 Y101.373 E12.15351
G1 X82.906 Y101.861 E12.28816
G1 X82.670 Y102.310 E12.42236
G1 X82.352 Y102.703 E12.55600
G1 X81.966 Y103.025 E12.68903
G1 X81.526 Y103.264 E12.82148
G1 X81.049 Y103.411 E12.95349
G1 X80.530 Y103.462 E13.09123
G1 X39.469 Y103.462 E23.95144
G1 X38.951 Y103.411 E24.08918
G1 X38.474 Y103.264 E24.22119
G1 X38.034 Y103.025 E24.35364
G1 X37.648 Y102.703 E24.48666
G1 X37.330 Y102.310 E24.62031
G1 X37.094 Y101.861 E24.75451
G1 X36.948 Y101.373 E24.88915
G1 X36.897 Y100.843 E25.02981
G1 X36.897 Y19.157 E46.63515
G1 X36.948 Y18.627 E46.77581
G1 X37.094 Y18.139 E46.91045
G1 X37.330 Y17.690 E47.04466
G1 X37.648 Y17.297 E47.17830
G1 X38.034 Y16.975 E47.31132
G1 X38.474 Y16.736 E47.44377
G1 X38.951 Y16.589 E47.57578
G1 X39.470 Y16.538 E47.71352
G1 X80.530 Y16.538 E58.57373
G1 X81.049 Y16.589 E58.71147
G1 X81.526 Y16.736 E58.84348 F1800.000
G1 X81.966 Y16.975 E58.97593
G1 X82.352 Y17.297 E59.10896
G1 X82.670 Y17.690 E59.24260
G1 X82.906 Y18.139 E59.37680
G1 X83.052 Y18.627 E59.51145
G1 X83.103 Y19.157 E59.65210
G1 X83.103 Y55.289 E69.20888
G92 E0
G1 X82.553 Y19.183 F7800.000
G1 X80.351 Y19.290 F7800.000
G1 X76.285 Y19.955 F7800.000
G1 X74.242 Y21.967 F7800.000
G1 X72.240 Y22.041 F7800.000
G1 X71.215 Y21.016 E0.42126 F900.000
G1 X71.167 Y22.067 E0.72681
G1 X70.116 Y21.016 E1.15849
G1 X70.069 Y22.067 E1.46405
G1 X69.018 Y21.016 E1.89572
G1 X68.970 Y22.067 E2.20128
G1 X67.920 Y21.016 E2.63295
G1 X67.872 Y22.067 E2.93851
G1 X66.822 Y21.016 E3.37019
G1 X66.774 Y22.067 E3.67574
G1 X65.724 Y21.016 E4.10742
G1 X65.676 Y22.067 E4.41297
G1 X64.625 Y21.016 E4.84465
G1 X64.578 Y22.067 E5.15021
G1 X63.527 Y21.016 E5.58188
G1 X63.479 Y22.067 E5.88744
G1 X62.429 Y21.016 E6.31911
G1 X62.381 Y22.067 E6.62467
G1 X61.331 Y21.016 E7.05635
G1 X61.283 Y22.067 E7.36190
G1 X60.233 Y21.016 E7.79358
G1 X60.185 Y22.067 E8.09913
G1 X59.134 Y21.016 E8.53081
G1 X59.087 Y22.067 E8.83636
G1 X58.036 Y21.016 E9.26804
G1 X57.988 Y22.067 E9.57360
G1 X56.938 Y21.016 E10.00527
G1 X56.890 Y22.067 E10.31083
G1 X55.840 Y21.016 E10.74250
G1 X55.792 Y22.067 E11.04806
G1 X54.742 Y21.016 E11.47973
G1 X54.694 Y22.067 E11.78529
G1 X53.643 Y21.016 E12.21696
G1 X53.596 Y22.067 E12.52252
G1 X52.545 Y21.016 E12.95419
G1 X52.497 Y22.067 E13.25975
G1 X51.447 Y21.016 E13.69143
G1 X51.399 Y22.067 E13.99698
G1 X50.349 Y21.016 E14.42866
G1 X50.301 Y22.067 E14.73421
G1 X49.251 Y21.016 E15.16589
G1 X48.309 Y21.173 E15.44313
G1 X49.203 Y22.067 E15.81026
G1 X48.105 Y22.067 E16.12936
G1 X47.760 Y21.722 E16.27085
G92 E0
G1 X41.318 Y20.959 F7800.000
G1 X38.698 Y27.868 F7800.000
G1 X38.698 Y55.974 F7800.000
G1 X41.473 Y60.000 F7800.000
G1 X45.101 Y60.000 F7800.000
G1 X45.101 Y64.026 F7800.000
G1 X47.760 Y97.959 F7800.000
G1 X48.785 Y98.984 E0.42126 F900.000
G1 X48.833 Y97.933 E0.72681
G1 X49.884 Y98.984 E1.15849
G1 X49.931 Y97.933 E1.46405
G1 X50.982 Y98.984 E1.89572
G1 X51.030 Y97.933 E2.20128
G1 X52.080 Y98.984 E2.63296
G1 X52.128 Y97.933 E2.93851
G1 X53.178 Y98.984 E3.37019
G1 X53.226 Y97.933 E3.67575
G1 X54.276 Y98.984 E4.10743
G1 X54.324 Y97.933 E4.41298
G1 X55.375 Y98.984 E4.84466
G1 X55.422 Y97.933 E5.15022
G1 X56.473 Y98.984 E5.58189
G1 X56.521 Y97.933 E5.88745
G1 X57.571 Y98.984 E6.31913
G1 X57.619 Y97.933 E6.62469
G1 X58.669 Y98.984 E7.05636
G1 X58.717 Y97.933 E7.36192
G1 X59.767 Y98.984 E7.79360
G1 X59.815 Y97.933 E8.09915
G1 X60.866 Y98.984 E8.53083
G1 X60.913 Y97.933 E8.83639
G1 X61.964 Y98.984 E9.26806
G1 X62.012 Y97.933 E9.57362
G1 X63.062 Y98.984 E10.00530
G1 X63.110 Y97.933 E10.31085
G1 X64.160 Y98.984 E10.74253
G1 X64.208 Y97.933 E11.04809
G1 X65.258 Y98.984 E11.47976
G1 X65.306 Y97.933 E11.78532
G1 X66.357 Y98.984 E12.21700
G1 X66.404 Y97.933 E12.52255
G1 X67.455 Y98.984 E12.95423
G1 X67.503 Y97.933 E13.25979
G1 X68.553 Y98.984 E13.69147
G1 X68.601 Y97.933 E13.99702
G1 X69.651 Y98.984 E14.42870
G1 X69.699 Y97.933 E14.73426
G1 X70.749 Y98.984 E15.16593
G1 X70.797 Y97.933 E15.47149
G1 X71.691 Y98.827 E15.83862
G1 X71.895 Y97.933 E16.10496
G1 X72.240 Y98.278 E16.24645
M106 S214.2
G1 Z14.400 F7800.000
G92 E0
G1 X79.502 Y64.576 F7800.000
G1 X79.502 Y91.746 E7.18637 F1800.000
G1 X71.740 Y99.630 E10.11259
G1 X48.260 Y99.630 E16.32276
G1 X40.498 Y91.746 E19.24899
G1 X40.498 Y64.576 E26.43535
G1 X79.367 Y64.576 E36.71571
G92 E0
G1 X79.502 Y55.424 F7800.000
G1 X40.498 Y55.424 E10.31606 F1800.000
G1 X40.498 Y28.254 E17.50243
G1 X48.260 Y20.370 E20.42866
G1 X71.740 Y20.370 E26.63883
G1 X79.502 Y28.254 E29.56505
G1 X79.502 Y55.289 E36.71571
G92 E0
G1 X83.103 Y55.424 F7800.000
G1 X83.103 Y100.683 E11.97047 F1800.000
G1 X83.052 Y101.213 E12.11113
G1 X82.906 Y101.700 E12.24578
G1 X82.670 Y102.149 E12.37998
G1 X82.352 Y102.542 E12.51362
G1 X81.966 Y102.864 E12.64665
G1 X81.526 Y103.103 E12.77910
G1 X81.049 Y103.250 E12.91111
G1 X80.530 Y103.302 E13.04885
G1 X39.470 Y103.302 E23.90906
G1 X38.951 Y103.250 E24.04680
G1 X38.474 Y103.103 E24.17881
G1 X38.034 Y102.864 E24.31126
G1 X37.648 Y102.542 E24.44428
G1 X37.330 Y102.149 E24.57793
G1 X37.094 Y101.700 E24.71213
G1 X36.948 Y101.213 E24.84677
G1 X36.897 Y100.683 E24.98743
G1 X36.897 Y19.317 E46.50801
G1 X36.948 Y18.787 E46.64867
G1 X37.094 Y18.300 E46.78330
G1 X37.330 Y17.851 E46.91751
G1 X37.637 Y17.471 E47.04667
G1 X38.035 Y17.135 E47.18444
G1 X38.474 Y16.897 E47.31654
G1 X38.951 Y16.750 E47.44855
G1 X39.470 Y16.698 E47.58629
G1 X80.548 Y16.700 E58.45108
G1 X81.049 Y16.750 E58.58422 F1800.000
G1 X81.526 Y16.897 E58.71622
G1 X81.966 Y17.136 E58.84868
G1 X82.352 Y17.458 E58.98170
G1 X82.670 Y17.851 E59.11534
G1 X82.906 Y18.300 E59.24955
G1 X83.052 Y18.787 E59.38419
G1 X83.103 Y19.317 E59.52485
G1 X83.103 Y55.289 E69.03924
G1 Z15.300 F7800.000
G92 E0
G1 X79.502 Y64.576 F7800.000
G1 X79.502 Y91.586 E7.14399 F1800.000
G1 X71.740 Y99.470 E10.07021
G1 X48.260 Y99.470 E16.28038
G1 X40.498 Y91.586 E19.20661
G1 X40.498 Y64.576 E26.35059
G1 X79.367 Y64.576 E36.63095
G92 E0
G1 X79.502 Y55.424 F7800.000
G1 X40.498 Y55.424 E10.31606 F1800.000
G1 X40.498 Y28.414 E17.46005
G1 X48.260 Y20.530 E20.38628
G1 X71.740 Y20.530 E26.59645
G1 X79.502 Y28.414 E29.52267
G1 X79.502 Y55.289 E36.63095
G92 E0
G1 X83.103 Y55.424 F7800.000
G1 X83.103 Y100.523 E11.92809 F1800.000
G1 X83.052 Y101.052 E12.06875
G1 X82.906 Y101.540 E12.20339
G1 X82.670 Y101.989 E12.33760
G1 X82.352 Y102.382 E12.47124
G1 X81.966 Y102.704 E12.60427
G1 X81.526 Y102.943 E12.73672
G1 X81.049 Y103.090 E12.86873
G1 X80.530 Y103.142 E13.00647
G1 X39.470 Y103.142 E23.86668
G1 X38.951 Y103.090 E24.00442
G1 X38.474 Y102.943 E24.13643
G1 X38.034 Y102.704 E24.26888
G1 X37.648 Y102.382 E24.40190
G1 X37.330 Y101.989 E24.53555
G1 X37.094 Y101.540 E24.66975
G1 X36.948 Y101.052 E24.80439
G1 X36.897 Y100.523 E24.94505
G1 X36.897 Y19.477 E46.38086
G1 X36.948 Y18.948 E46.52153
G1 X37.094 Y18.460 E46.65616
G1 X37.330 Y18.011 E46.79037
G1 X37.632 Y17.637 E46.91739
G1 X38.036 Y17.295 E47.05741
G1 X38.474 Y17.057 E47.18936
G1 X38.951 Y16.910 E47.32137
G1 X39.470 Y16.858 E47.45911
G1 X80.530 Y16.858 E58.31932
G1 X81.049 Y16.910 E58.45706
G1 X81.526 Y17.057 E58.58906 F1800.000
G1 X81.966 Y17.296 E58.72152
G1 X82.352 Y17.618 E58.85454
G1 X82.670 Y18.011 E58.98818
G1 X82.906 Y18.460 E59.12239
G1 X83.052 Y18.948 E59.25703
G1 X83.103 Y19.477 E59.39769
G1 X83.103 Y55.289 E68.86970
G1 Z16.200 F7800.000
G92 E0
G1 X79.502 Y64.576 F7800.000
G1 X79.502 Y91.426 E7.10161 F1800.000
G1 X71.740 Y99.310 E10.02783
G1 X48.260 Y99.310 E16.23800
G1 X40.498 Y91.426 E19.16422
G1 X40.498 Y64.576 E26.26583
G1 X79.367 Y64.576 E36.54619
G92 E0
G1 X79.502 Y55.424 F7800.000
G1 X40.498 Y55.424 E10.31606 F1800.000
G1 X40.498 Y28.574 E17.41767
G1 X48.260 Y20.690 E20.34390
G1 X71.740 Y20.690 E26.55406
G1 X79.502 Y28.574 E29.48029
G1 X79.502 Y55.289 E36.54619
G92 E0
G1 X83.103 Y55.424 F7800.000
G1 X83.103 Y100.363 E11.88571 F1800.000
G1 X83.052 Y100.892 E12.02637
G1 X82.906 Y101.380 E12.16101
G1 X82.670 Y101.829 E12.29522
G1 X82.352 Y102.222 E12.42886
G1 X81.966 Y102.544 E12.56188
G1 X81.526 Y102.783 E12.69434
G1 X81.049 Y102.930 E12.82635
G1 X80.530 Y102.982 E12.96409
G1 X39.469 Y102.982 E23.82430
G1 X38.951 Y102.930 E23.96204
G1 X38.474 Y102.783 E24.09405
G1 X38.034 Y102.544 E24.22650
G1 X37.648 Y102.222 E24.35952
G1 X37.330 Y101.829 E24.49317
G1 X37.094 Y101.380 E24.62737
G1 X36.948 Y100.892 E24.76201
G1 X36.897 Y100.363 E24.90267
G1 X36.897 Y19.637 E46.25372
G1 X36.948 Y19.108 E46.39438
G1 X37.094 Y18.620 E46.52902
G1 X37.330 Y18.171 E46.66323
G1 X37.627 Y17.804 E46.78810
G1 X38.036 Y17.455 E46.93039
G1 X38.474 Y17.217 E47.06217
G1 X38.951 Y17.070 E47.19418
G1 X39.470 Y17.018 E47.33192
G1 X80.530 Y17.018 E58.19213
G1 X81.049 Y17.070 E58.32987
G1 X81.526 Y17.217 E58.46188 F1800.000
G1 X81.966 Y17.456 E58.59433
G1 X82.352 Y17.778 E58.72736
G1 X82.670 Y18.171 E58.86100
G1 X82.906 Y18.620 E58.99521
G1 X83.052 Y19.108 E59.12985
G1 X83.103 Y19.637 E59.27050
G1 X83.103 Y55.289 E68.70014
G1 Z17.100 F7800.000
G92 E0
G1 X79.502 Y64.576 F7800.000
G1 X79.502 Y91.266 E7.05923 F1800.000
G1 X71.740 Y99.150 E9.98545
G1 X48.260 Y99.150 E16.19562
G1 X40.498 Y91.266 E19.12184
G1 X40.498 Y64.576 E26.18107
G1 X79.367 Y64.576 E36.46143
G92 E0
G1 X79.502 Y55.424 F7800.000
G1 X40.498 Y55.424 E10.31606 F1800.000
G1 X40.498 Y28.734 E17.37529
G1 X48.260 Y20.850 E20.30151
G1 X71.740 Y20.850 E26.51168
G1 X79.502 Y28.734 E29.43791
G1 X79.502 Y55.289 E36.46143
G92 E0
G1 X83.103 Y55.424 F7800.000
G1 X83.103 Y100.202 E11.84333 F1800.000
G1 X83.052 Y100.732 E11.98399
G1 X82.906 Y101.220 E12.11863
G1 X82.670 Y101.669 E12.25284
G1 X82.352 Y102.062 E12.38648
G1 X81.966 Y102.384 E12.51950
G1 X81.526 Y102.623 E12.65196
G1 X81.049 Y102.770 E12.78397
G1 X80.530 Y102.821 E12.92171
G1 X39.470 Y102.821 E23.78192
G1 X38.951 Y102.770 E23.91966
G1 X38.474 Y102.623 E24.05167
G1 X38.034 Y102.384 E24.18412
G1 X37.648 Y102.062 E24.31714
G1 X37.330 Y101.669 E24.45078
G1 X37.094 Y101.220 E24.58499
G1 X36.948 Y100.732 E24.71963
G1 X36.897 Y100.202 E24.86029
G1 X36.897 Y19.798 E46.12658
G1 X36.948 Y19.268 E46.26724
G1 X37.094 Y18.780 E46.40188
G1 X37.330 Y18.331 E46.53609
G1 X37.622 Y17.970 E46.65881
G1 X38.037 Y17.615 E46.80336
G1 X38.474 Y17.377 E46.93499
G1 X38.951 Y17.230 E47.06700
G1 X39.470 Y17.179 E47.20474
G1 X80.530 Y17.179 E58.06495
G1 X81.049 Y17.230 E58.20269
G1 X81.526 Y17.377 E58.33470 F1800.000
G1 X81.966 Y17.616 E58.46715
G1 X82.352 Y17.938 E58.60018
G1 X82.670 Y18.331 E58.73382
G1 X82.906 Y18.780 E58.86802
G1 X83.052 Y19.268 E59.00267
G1 X83.103 Y19.798 E59.14332
G1 X83.103 Y55.289 E68.53058
G1 Z18.000 F7800.000
G92 E0
G1 X79.502 Y64.576 F7800.000
G1 X79.502 Y91.105 E7.01684 F1800.000
G1 X71.740 Y98.989 E9.94307
G1 X48.260 Y98.989 E16.15324
G1 X40.498 Y91.105 E19.07946
G1 X40.498 Y64.576 E26.09631
G1 X79.367 Y64.576 E36.37666
G92 E0
G1 X79.502 Y55.424 F7800.000
G1 X40.498 Y55.424 E10.31606 F1800.000
G1 X40.498 Y28.895 E17.33291
G1 X48.260 Y21.011 E20.25913
G1 X71.740 Y21.011 E26.46930
G1 X79.502 Y28.895 E29.39553
G1 X79.502 Y55.289 E36.37667
G92 E0
G1 X83.103 Y55.424 F7800.000
G1 X83.103 Y100.042 E11.80095 F1800.000
G1 X83.052 Y100.572 E11.94161
G1 X82.906 Y101.059 E12.07625
G1 X82.670 Y101.508 E12.21046
G1 X82.352 Y101.901 E12.34410
G1 X81.966 Y102.223 E12.47712
G1 X81.526 Y102.462 E12.60958
G1 X81.049 Y102.609 E12.74159
G1 X80.530 Y102.661 E12.87932
G1 X39.470 Y102.661 E23.73954
G1 X38.951 Y102.609 E23.87727
G1 X38.474 Y102.462 E24.00929
G1 X38.034 Y102.223 E24.14174
G1 X37.648 Y101.901 E24.27476
G1 X37.330 Y101.508 E24.40840
G1 X37.094 Y101.059 E24.54261
G1 X36.948 Y100.572 E24.67725
G1 X36.897 Y100.042 E24.81791
G1 X36.897 Y19.958 E45.99944
G1 X36.948 Y19.428 E46.14010
G1 X37.080 Y18.989 E46.26140
G1 X37.333 Y18.489 E46.40967
G1 X37.648 Y18.099 E46.54234
G1 X38.034 Y17.777 E46.67536
G1 X38.474 Y17.538 E46.80781
G1 X38.951 Y17.391 E46.93982
G1 X39.470 Y17.339 E47.07756
G1 X80.527 Y17.339 E57.93681
G1 X81.095 Y17.405 E58.08806
G1 X81.526 Y17.538 E58.20728 F1800.000
G1 X81.966 Y17.777 E58.33974
G1 X82.352 Y18.099 E58.47276
G1 X82.670 Y18.492 E58.60640
G1 X82.906 Y18.941 E58.74061
G1 X83.052 Y19.428 E58.87525
G1 X83.103 Y19.958 E59.01591
G1 X83.103 Y55.289 E68.36078
G1 Z18.900 F7800.000
G92 E0
G1 X79.502 Y64.576 F7800.000
G1 X79.502 Y90.945 E6.97446 F1800.000
G1 X71.740 Y98.829 E9.90069
G1 X48.260 Y98.829 E16.11086
G1 X40.498 Y90.945 E19.03708
G1 X40.498 Y64.576 E26.01155
G1 X79.367 Y64.576 E36.29190
G92 E0
G1 X79.502 Y55.424 F7800.000
G1 X40.498 Y55.424 E10.31606 F1800.000
G1 X40.498 Y29.055 E17.29053
G1 X48.260 Y21.171 E20.21675
G1 X71.740 Y21.171 E26.42692
G1 X79.502 Y29.055 E29.35315
G1 X79.502 Y55.289 E36.29191
G92 E0
G1 X48.030 Y20.621 F7800.000
G1 X39.488 Y20.086 F7800.000
G1 X39.459 Y20.042 F7800.000
G1 X39.449 Y20.016 F7800.000
G1 X38.689 Y18.207 F7800.000
G1 X37.333 Y18.649 F7800.000
G1 X37.648 Y18.259 E0.13253 F1800.000
G1 X38.034 Y17.937 E0.26555
G1 X38.474 Y17.698 E0.39801
G1 X38.951 Y17.551 E0.53002
G1 X39.470 Y17.499 E0.66776
G1 X80.526 Y17.499 E11.52686
G1 X81.103 Y17.568 E11.68036
G1 X81.526 Y17.698 E11.79744
G1 X81.966 Y17.937 E11.92989
G1 X82.352 Y18.259 E12.06292
G1 X82.670 Y18.652 E12.19656
G1 X82.906 Y19.101 E12.33076
G1 X83.052 Y19.589 E12.46541
G1 X83.103 Y20.118 E12.60606
G1 X83.103 Y99.882 E33.70283
G1 X83.052 Y100.411 E33.84349
G1 X82.906 Y100.899 E33.97813
G1 X82.670 Y101.348 E34.11234
G1 X82.352 Y101.741 E34.24598
G1 X81.966 Y102.063 E34.37900
G1 X81.526 Y102.302 E34.51146
G1 X81.049 Y102.449 E34.64347
G1 X80.530 Y102.501 E34.78121
G1 X39.469 Y102.501 E45.64142
G1 X38.951 Y102.449 E45.77915
G1 X38.474 Y102.302 E45.91117
G1 X38.034 Y102.063 E46.04362
G1 X37.648 Y101.741 E46.17664
G1 X37.330 Y101.348 E46.31028
G1 X37.094 Y100.899 E46.44449
G1 X36.948 Y100.411 E46.57913
G1 X36.897 Y99.882 E46.71979
G1 X36.897 Y20.118 E67.81656
G1 X36.948 Y19.589 E67.95722
G1 X37.077 Y19.157 E68.07635
G1 X37.272 Y18.769 E68.19118
G1 Z19.800 F7800.000
G92 E0
G1 X40.498 Y64.576 F7800.000
G1 X79.502 Y64.576 E10.31606 F1800.000
G1 X79.502 Y90.785 E17.24814
G1 X71.740 Y98.669 E20.17437
G1 X48.260 Y98.669 E26.38454
G1 X40.498 Y90.785 E29.31076
G1 X40.498 Y64.711 E36.20714
G92 E0
G1 X40.498 Y55.424 F7800.000
G1 X40.498 Y29.215 E6.93209 F1800.000
G1 X48.260 Y21.331 E9.85831
G1 X71.740 Y21.331 E16.06848
G1 X79.502 Y29.215 E18.99470
G1 X79.502 Y55.424 E25.92679
G1 X40.633 Y55.424 E36.20715
G92 E0
G1 X37.333 Y18.808 F7800.000
G1 X37.648 Y18.419 E0.13239 F1800.000
G1 X38.034 Y18.097 E0.26542
G1 X38.474 Y17.858 E0.39787
G1 X38.951 Y17.711 E0.52988
G1 X39.470 Y17.659 E0.66762
G1 X80.526 Y17.659 E11.52658
G1 X81.110 Y17.730 E11.68233
G1 X81.526 Y17.858 E11.79727
G1 X81.966 Y18.097 E11.92972
G1 X82.352 Y18.419 E12.06274
G1 X82.670 Y18.812 E12.19638
G1 X82.906 Y19.261 E12.33059
G1 X83.052 Y19.749 E12.46523
G1 X83.103 Y20.278 E12.60589
G1 X83.103 Y99.722 E33.61790
G1 X83.052 Y100.251 E33.75856
G1 X82.906 Y100.739 E33.89320
G1 X82.670 Y101.188 E34.02740
G1 X82.352 Y101.581 E34.16105
G1 X81.966 Y101.903 E34.29407
G1 X81.526 Y102.142 E34.42652
G1 X81.049 Y102.289 E34.55853
G1 X80.530 Y102.341 E34.69627
G1 X39.470 Y102.341 E45.55648
G1 X38.951 Y102.289 E45.69422
G1 X38.474 Y102.142 E45.82623
G1 X38.034 Y101.903 E45.95868
G1 X37.648 Y101.581 E46.09171
G1 X37.330 Y101.188 E46.22535
G1 X37.094 Y100.739 E46.35955
G1 X36.948 Y100.251 E46.49420
G1 X36.897 Y99.722 E46.63485
G1 X36.897 Y20.278 E67.64686
G1 X36.948 Y19.749 E67.78752
G1 X37.075 Y19.325 E67.90448
G1 X37.273 Y18.929 E68.02159
M106 S216.75
G1 Z20.700 F7800.000
G92 E0
G1 X40.498 Y64.576 F7800.000
G1 X79.502 Y64.576 E10.31606 F1800.000
G1 X79.502 Y90.625 E17.20576
G1 X71.740 Y98.509 E20.13199
G1 X48.260 Y98.509 E26.34216
G1 X40.498 Y90.625 E29.26838
G1 X40.498 Y64.711 E36.12238
G92 E0
G1 X40.498 Y55.424 F7800.000
G1 X40.498 Y29.375 E6.88971 F1800.000
G1 X48.260 Y21.491 E9.81593
G1 X71.740 Y21.491 E16.02610
G1 X79.502 Y29.375 E18.95232
G1 X79.502 Y55.424 E25.84203
G1 X40.633 Y55.424 E36.12238
G92 E0
G1 X36.897 Y55.424 F7800.000
G1 X36.897 Y20.438 E9.25344 F1800.000
G1 X36.948 Y19.909 E9.39410
G1 X37.094 Y19.421 E9.52873
G1 X37.330 Y18.972 E9.66294
G1 X37.648 Y18.579 E9.79659
G1 X38.034 Y18.257 E9.92961
G1 X38.474 Y18.018 E10.06206
G1 X38.951 Y17.871 E10.19407
G1 X39.470 Y17.820 E10.33181
G1 X80.530 Y17.820 E21.19202
G1 X81.049 Y17.871 E21.32976 F1800.000
G1 X81.526 Y18.018 E21.46177
G1 X81.966 Y18.257 E21.59422
G1 X82.352 Y18.579 E21.72725
G1 X82.670 Y18.972 E21.86088
G1 X82.906 Y19.421 E21.99509
G1 X83.052 Y19.909 E22.12973
G1 X83.103 Y20.438 E22.27039
G1 X83.103 Y99.562 E43.19764
G1 X83.052 Y100.091 E43.33830
G1 X82.906 Y100.579 E43.47294
G1 X82.670 Y101.028 E43.60714
G1 X82.352 Y101.421 E43.74079
G1 X81.966 Y101.743 E43.87381
G1 X81.526 Y101.982 E44.00626
G1 X81.049 Y102.129 E44.13827
G1 X80.530 Y102.180 E44.27601
G1 X39.469 Y102.180 E55.13622
G1 X38.951 Y102.129 E55.27396
G1 X38.474 Y101.982 E55.40597
G1 X38.034 Y101.743 E55.53842
G1 X37.648 Y101.421 E55.67145
G1 X37.330 Y101.028 E55.80509
G1 X37.094 Y100.579 E55.93929
G1 X36.948 Y100.091 E56.07394
G1 X36.897 Y99.562 E56.21459
G1 X36.897 Y55.559 E67.85270
G1 Z21.600 F7800.000
G92 E0
G1 X40.498 Y64.576 F7800.000
G1 X79.502 Y64.576 E10.31606 F1800.000
G1 X79.502 Y90.464 E17.16338
G1 X71.740 Y98.348 E20.08961
G1 X48.260 Y98.348 E26.29978
G1 X40.498 Y90.464 E29.22600
G1 X40.498 Y64.711 E36.03762
G92 E0
G1 X40.498 Y55.424 F7800.000
G1 X40.498 Y29.536 E6.84732 F1800.000
G1 X48.260 Y21.652 E9.77355
G1 X71.740 Y21.652 E15.98372
G1 X79.502 Y29.536 E18.90994
G1 X79.502 Y55.424 E25.75727
G1 X40.633 Y55.424 E36.03762
G92 E0
G1 X36.897 Y55.424 F7800.000
G1 X36.897 Y20.599 E9.21106 F1800.000
G1 X36.948 Y20.069 E9.35172
G1 X37.094 Y19.582 E9.48635
G1 X37.330 Y19.133 E9.62056
G1 X37.648 Y18.740 E9.75421
G1 X38.034 Y18.417 E9.88723
G1 X38.474 Y18.179 E10.01968
G1 X38.951 Y18.032 E10.15169
G1 X39.470 Y17.980 E10.28943
G1 X80.530 Y17.980 E21.14964
G1 X81.049 Y18.032 E21.28738 F1800.000
G1 X81.526 Y18.179 E21.41939
G1 X81.966 Y18.418 E21.55184
G1 X82.352 Y18.740 E21.68486
G1 X82.670 Y19.133 E21.81850
G1 X82.906 Y19.582 E21.95271
G1 X83.052 Y20.069 E22.08735
G1 X83.103 Y20.599 E22.22801
G1 X83.103 Y99.401 E43.07050
G1 X83.052 Y99.931 E43.21115
G1 X82.906 Y100.418 E43.34580
G1 X82.670 Y100.867 E43.48000
G1 X82.352 Y101.260 E43.61364
G1 X81.966 Y101.583 E43.74667
G1 X81.526 Y101.821 E43.87912
G1 X81.049 Y101.968 E44.01113
G1 X80.530 Y102.020 E44.14887
G1 X39.469 Y102.020 E55.00908
G1 X38.951 Y101.968 E55.14682
G1 X38.474 Y101.821 E55.27883
G1 X38.034 Y101.583 E55.41128
G1 X37.648 Y101.260 E55.54430
G1 X37.330 Y100.867 E55.67795
G1 X37.094 Y100.418 E55.81215
G1 X36.948 Y99.931 E55.94679
G1 X36.897 Y99.401 E56.08745
G1 X36.897 Y55.559 E67.68318
G1 Z22.500 F7800.000
G92 E0
G1 X40.498 Y64.576 F7800.000
G1 X79.502 Y64.576 E10.31606 F1800.000
G1 X79.502 Y90.304 E17.12100
G1 X71.740 Y98.188 E20.04723
G1 X48.260 Y98.188 E26.25740
G1 X40.498 Y90.304 E29.18362
G1 X40.498 Y64.711 E35.95286
G92 E0
G1 X40.498 Y55.424 F7800.000
G1 X40.498 Y29.696 E6.80494 F1800.000
G1 X48.260 Y21.812 E9.73117
G1 X71.740 Y21.812 E15.94134
G1 X79.502 Y29.696 E18.86756
G1 X79.502 Y55.424 E25.67250
G1 X40.633 Y55.424 E35.95286
G92 E0
G1 X36.897 Y55.424 F7800.000
G1 X36.897 Y20.759 E9.16867 F1800.000
G1 X36.948 Y20.230 E9.30934
G1 X37.094 Y19.742 E9.44397
G1 X37.330 Y19.293 E9.57818
G1 X37.648 Y18.900 E9.71182
G1 X38.034 Y18.578 E9.84485
G1 X38.474 Y18.339 E9.97730
G1 X38.951 Y18.192 E10.10931
G1 X39.470 Y18.140 E10.24705
G1 X80.530 Y18.140 E21.10726
G1 X81.049 Y18.192 E21.24500
G1 X81.526 Y18.339 E21.37701 F1800.000
G1 X81.966 Y18.578 E21.50946
G1 X82.352 Y18.900 E21.64248
G1 X82.670 Y19.293 E21.77612
G1 X82.906 Y19.742 E21.91033
G1 X83.052 Y20.230 E22.04497
G1 X83.103 Y20.759 E22.18563
G1 X83.103 Y99.241 E42.94335
G1 X83.052 Y99.770 E43.08401
G1 X82.906 Y100.258 E43.21865
G1 X82.670 Y100.707 E43.35286
G1 X82.352 Y101.100 E43.48650
G1 X81.966 Y101.422 E43.61953
G1 X81.526 Y101.661 E43.75198
G1 X81.049 Y101.808 E43.88399
G1 X80.530 Y101.860 E44.02173
G1 X39.469 Y101.860 E54.88194
G1 X38.951 Y101.808 E55.01968
G1 X38.474 Y101.661 E55.15169
G1 X38.034 Y101.422 E55.28414
G1 X37.648 Y101.100 E55.41716
G1 X37.330 Y100.707 E55.55081
G1 X37.094 Y100.258 E55.68501
G1 X36.948 Y99.770 E55.81965
G1 X36.897 Y99.241 E55.96031
G1 X36.897 Y55.559 E67.51365
M106 S198.9
G1 Z23.400 F7800.000
G92 E0
G1 X40.498 Y64.576 F7800.000
G1 X79.502 Y64.576 E10.31606 F1800.000
G1 X79.502 Y90.144 E17.07862
G1 X71.740 Y98.028 E20.00485
G1 X48.260 Y98.028 E26.21502
G1 X40.498 Y90.144 E29.14124
G1 X40.498 Y64.711 E35.86810
G92 E0
G1 X40.498 Y55.424 F7800.000
G1 X40.498 Y29.856 E6.76256 F1800.000
G1 X48.260 Y21.972 E9.68879
G1 X71.740 Y21.972 E15.89895
G1 X79.502 Y29.856 E18.82518
G1 X79.502 Y55.424 E25.58774
G1 X40.633 Y55.424 E35.86810
G92 E0
G1 X36.897 Y55.424 F7800.000
G1 X36.897 Y20.919 E9.12629 F1800.000
G1 X36.948 Y20.390 E9.26695
G1 X37.094 Y19.902 E9.40159
G1 X37.330 Y19.453 E9.53580
G1 X37.648 Y19.060 E9.66944
G1 X38.034 Y18.738 E9.80246
G1 X38.474 Y18.499 E9.93492
G1 X38.951 Y18.352 E10.06693
G1 X39.470 Y18.300 E10.20467
G1 X80.530 Y18.300 E21.06488
G1 X81.049 Y18.352 E21.20262 F1800.000
G1 X81.526 Y18.499 E21.33463
G1 X81.966 Y18.738 E21.46708
G1 X82.352 Y19.060 E21.60010
G1 X82.670 Y19.453 E21.73374
G1 X82.906 Y19.902 E21.86795
G1 X83.052 Y20.390 E22.00259
G1 X83.103 Y20.919 E22.14325
G1 X83.103 Y99.081 E42.81621
G1 X83.052 Y99.610 E42.95687
G1 X82.906 Y100.098 E43.09151
G1 X82.670 Y100.547 E43.22572
G1 X82.352 Y100.940 E43.35936
G1 X81.966 Y101.262 E43.49238
G1 X81.526 Y101.501 E43.62484
G1 X81.049 Y101.648 E43.75685
G1 X80.530 Y101.700 E43.89458
G1 X39.469 Y101.700 E54.75480
G1 X38.951 Y101.648 E54.89253
G1 X38.474 Y101.501 E55.02455
G1 X38.034 Y101.262 E55.15700
G1 X37.648 Y100.940 E55.29002
G1 X37.330 Y100.547 E55.42366
G1 X37.094 Y100.098 E55.55787
G1 X36.948 Y99.610 E55.69251
G1 X36.897 Y99.081 E55.83317
G1 X36.897 Y55.559 E67.34413
G92 E0
G1 X41.202 Y56.374 F7800.000
M106 S255
G1 X41.645 Y55.931 E0.16977 F3600.000
G1 X43.004 Y55.931 E0.53803
G1 X41.202 Y57.734 E1.22860
G1 X41.202 Y59.093 E1.59687
G1 X44.363 Y55.931 E2.80825
G1 X45.722 Y55.931 E3.17651
G1 X41.202 Y60.452 E4.90869
G1 X41.202 Y61.811 E5.27696
G1 X47.081 Y55.931 E7.52994
G1 X48.440 Y55.931 E7.89821
G1 X41.202 Y63.170 E10.67200
G1 X41.662 Y64.069 E10.94564
G1 X49.799 Y55.931 E14.06392
G1 X51.158 Y55.931 E14.43218
G1 X43.021 Y64.069 E17.55046
G1 X44.380 Y64.069 E17.91873
G1 X52.517 Y55.931 E21.03701
G1 X53.876 Y55.931 E21.40527
G1 X45.739 Y64.069 E24.52356
G1 X47.098 Y64.069 E24.89182
G1 X55.235 Y55.931 E28.01010
G1 X56.594 Y55.931 E28.37837
G1 X48.457 Y64.069 E31.49665
G1 X49.816 Y64.069 E31.86491
G1 X57.953 Y55.931 E34.98319
G1 X59.312 Y55.931 E35.35146
G1 X51.175 Y64.069 E38.46974
G1 X52.534 Y64.069 E38.83800
G1 X60.671 Y55.931 E41.95628
G1 X62.030 Y55.931 E42.32455
G1 X53.893 Y64.069 E45.44283
G1 X55.252 Y64.069 E45.81109
G1 X63.389 Y55.931 E48.92937
G1 X64.748 Y55.931 E49.29764
G1 X56.611 Y64.069 E52.41592
G1 X57.970 Y64.069 E52.78418
G1 X66.107 Y55.931 E55.90246
G1 X67.466 Y55.931 E56.27073
G1 X59.329 Y64.069 E59.38901
G1 X60.688 Y64.069 E59.75727
G1 X68.825 Y55.931 E62.87555
G1 X70.184 Y55.931 E63.24382
G1 X62.047 Y64.069 E66.36210
G1 X63.406 Y64.069 E66.73036
G1 X71.543 Y55.931 E69.84864
G1 X72.902 Y55.931 E70.21691
G1 X64.765 Y64.069 E73.33519
G1 X66.124 Y64.069 E73.70345
G1 X74.261 Y55.931 E76.82173
G1 X75.620 Y55.931 E77.19000
G1 X67.483 Y64.069 E80.30828
G1 X68.842 Y64.069 E80.67654
G1 X76.979 Y55.931 E83.79482
G1 X78.338 Y55.931 E84.16309
G1 X70.201 Y64.069 E87.28137
G1 X71.560 Y64.069 E87.64963
G1 X78.798 Y56.830 E90.42344
G1 X78.798 Y58.189 E90.79171
G1 X72.919 Y64.069 E93.04471
G1 X74.278 Y64.069 E93.41298
G1 X78.798 Y59.548 E95.14518
G1 X78.798 Y60.907 E95.51344
G1 X75.637 Y64.069 E96.72484
G1 X76.996 Y64.069 E97.09310
G1 X78.798 Y62.266 E97.78370
G1 X78.798 Y63.625 E98.15196
G1 X78.355 Y64.069 E98.32175
M106 S198.9
M106 S124.95
G1 Z24.300 F7800.000
G92 E0
G1 X40.498 Y64.576 F7800.000
G1 X79.502 Y64.576 E10.31606 F1800.000
G1 X79.502 Y89.984 E17.03624
G1 X71.740 Y97.868 E19.96247
G1 X48.260 Y97.868 E26.17264
G1 X40.498 Y89.984 E29.09886
G1 X40.498 Y64.711 E35.78333
G92 E0
G1 X40.498 Y55.424 F7800.000
G1 X40.498 Y30.016 E6.72018 F1800.000
G1 X48.260 Y22.132 E9.64640
G1 X71.740 Y22.132 E15.85657
G1 X79.502 Y30.016 E18.78280
G1 X79.502 Y55.424 E25.50298
G1 X40.633 Y55.424 E35.78334
G92 E0
G1 X36.897 Y55.424 F7800.000
G1 X36.897 Y21.079 E9.08391 F1800.000
G1 X36.948 Y20.550 E9.22457
G1 X37.094 Y20.062 E9.35921
G1 X37.330 Y19.613 E9.49342
G1 X37.648 Y19.220 E9.62706
G1 X38.034 Y18.898 E9.76008
G1 X38.474 Y18.659 E9.89254
G1 X38.951 Y18.512 E10.02455
G1 X39.470 Y18.460 E10.16229
G1 X80.530 Y18.460 E21.02250
G1 X81.049 Y18.512 E21.16024
G1 X81.526 Y18.659 E21.29225 F1800.000
G1 X81.966 Y18.898 E21.42470
G1 X82.352 Y19.220 E21.55772
G1 X82.670 Y19.613 E21.69136
G1 X82.906 Y20.062 E21.82557
G1 X83.052 Y20.550 E21.96021
G1 X83.103 Y21.079 E22.10087
G1 X83.103 Y98.921 E42.68907
G1 X83.052 Y99.450 E42.82973
G1 X82.906 Y99.938 E42.96437
G1 X82.670 Y100.387 E43.09858
G1 X82.352 Y100.780 E43.23222
G1 X81.966 Y101.102 E43.36524
G1 X81.526 Y101.341 E43.49769
G1 X81.049 Y101.488 E43.62970
G1 X80.530 Y101.540 E43.76744
G1 X39.470 Y101.540 E54.62766
G1 X38.951 Y101.488 E54.76539
G1 X38.474 Y101.341 E54.89741
G1 X38.034 Y101.102 E55.02986
G1 X37.648 Y100.780 E55.16288
G1 X37.330 Y100.387 E55.29652
G1 X37.094 Y99.938 E55.43073
G1 X36.948 Y99.450 E55.56537
G1 X36.897 Y98.921 E55.70603
G1 X36.897 Y55.559 E67.17461
G92 E0
G1 X41.145 Y63.767 F7800.000
G1 X41.504 Y64.126 E0.14469 F900.000
G1 X42.581 Y64.126 E0.45172
G1 X41.145 Y62.689 E1.03062
G1 X41.145 Y61.612 E1.33765
G1 X43.658 Y64.126 E2.35076
G1 X44.735 Y64.126 E2.65779
G1 X41.145 Y60.535 E4.10511
G1 X41.145 Y59.458 E4.41214
G1 X45.813 Y64.126 E6.29367
G1 X46.890 Y64.126 E6.60070
G1 X41.145 Y58.380 E8.91644
G1 X41.145 Y57.303 E9.22347
G1 X47.967 Y64.126 E11.97341
G1 X49.044 Y64.126 E12.28045
G1 X41.145 Y56.226 E15.46460
G1 X41.870 Y55.874 E15.69443
G1 X50.121 Y64.126 E19.02027
G1 X51.199 Y64.126 E19.32730
G1 X42.948 Y55.874 E22.65313
G1 X44.025 Y55.874 E22.96017
G1 X52.276 Y64.126 E26.28600
G1 X53.353 Y64.126 E26.59303
G1 X45.102 Y55.874 E29.91886
G1 X46.179 Y55.874 E30.22590
G1 X54.430 Y64.126 E33.55173
G1 X55.508 Y64.126 E33.85876
G1 X47.257 Y55.874 E37.18460
G1 X48.334 Y55.874 E37.49163
G1 X56.585 Y64.126 E40.81746
G1 X57.662 Y64.126 E41.12449
G1 X49.411 Y55.874 E44.45033
G1 X50.488 Y55.874 E44.75736
G1 X58.739 Y64.126 E48.08319
G1 X59.817 Y64.126 E48.39022
G1 X51.565 Y55.874 E51.71606
G1 X52.643 Y55.874 E52.02309
G1 X60.894 Y64.126 E55.34892
G1 X61.971 Y64.126 E55.65595
G1 X53.720 Y55.874 E58.98179
G1 X54.797 Y55.874 E59.28882
G1 X63.048 Y64.126 E62.61465
G1 X64.126 Y64.126 E62.92168
G1 X55.874 Y55.874 E66.24752
G1 X56.952 Y55.874 E66.55455
G1 X65.203 Y64.126 E69.88038
G1 X66.280 Y64.126 E70.18741
G1 X58.029 Y55.874 E73.51324
G1 X59.106 Y55.874 E73.82028
G1 X67.357 Y64.126 E77.14611
G1 X68.434 Y64.126 E77.45314
G1 X60.183 Y55.874 E80.77897
G1 X61.261 Y55.874 E81.08601
G1 X69.512 Y64.126 E84.41184
G1 X70.589 Y64.126 E84.71887
G1 X62.338 Y55.874 E88.04470
G1 X63.415 Y55.874 E88.35174
G1 X71.666 Y64.126 E91.67757
G1 X72.743 Y64.126 E91.98460
G1 X64.492 Y55.874 E95.31043
G1 X65.570 Y55.874 E95.61746
G1 X73.821 Y64.126 E98.94330
G1 X74.898 Y64.126 E99.25033
G1 X66.647 Y55.874 E102.57616
G1 X67.724 Y55.874 E102.88319
G1 X75.975 Y64.126 E106.20903
G1 X77.052 Y64.126 E106.51606
G1 X68.801 Y55.874 E109.84189
G1 X69.879 Y55.874 E110.14892
G1 X78.130 Y64.126 E113.47475
G1 X78.855 Y63.774 E113.70459
G1 X70.956 Y55.874 E116.88875
G1 X72.033 Y55.874 E117.19578
G1 X78.855 Y62.697 E119.94573
G1 X78.855 Y61.620 E120.25277
G1 X73.110 Y55.874 E122.56851
G1 X74.187 Y55.874 E122.87554
G1 X78.855 Y60.542 E124.75707
G1 X78.855 Y59.465 E125.06411
G1 X75.265 Y55.874 E126.51143
G1 X76.342 Y55.874 E126.81846
G1 X78.855 Y58.388 E127.83158
G1 X78.855 Y57.311 E128.13861
G1 X77.419 Y55.874 E128.71752
G1 X78.496 Y55.874 E129.02455
G1 X78.855 Y56.233 E129.16925
M106 S221.85
G1 Z25.200 F7800.000
G92 E0
G1 X40.498 Y55.424 F7800.000
G1 X40.498 Y30.177 E6.67780 F1800.000
G1 X48.260 Y22.293 E9.60402
G1 X71.740 Y22.293 E15.81419 F1800.000
G1 X79.502 Y30.177 E18.74042
G1 X79.502 Y89.823 E34.51640
G1 X71.740 Y97.707 E37.44262
G1 X48.260 Y97.707 E43.65279
G1 X40.498 Y89.823 E46.57902
G1 X40.498 Y55.559 E55.64149
G92 E0
G1 X36.897 Y55.424 F7800.000
G1 X36.897 Y21.240 E9.04153 F1800.000
G1 X36.948 Y20.710 E9.18219
G1 X37.094 Y20.223 E9.31683
G1 X37.330 Y19.773 E9.45104
G1 X37.648 Y19.380 E9.58468
G1 X38.034 Y19.058 E9.71770
G1 X38.474 Y18.820 E9.85015
G1 X38.951 Y18.673 E9.98217
G1 X39.470 Y18.621 E10.11991
G1 X80.530 Y18.621 E20.98012
G1 X81.049 Y18.673 E21.11786 F1800.000
G1 X81.526 Y18.820 E21.24987
G1 X81.966 Y19.058 E21.38232
G1 X82.352 Y19.380 E21.51534
G1 X82.670 Y19.773 E21.64898
G1 X82.906 Y20.223 E21.78319
G1 X83.052 Y20.710 E21.91783
G1 X83.103 Y21.240 E22.05849
G1 X83.103 Y98.760 E42.56193
G1 X83.052 Y99.290 E42.70259
G1 X82.906 Y99.777 E42.83723
G1 X82.670 Y100.227 E42.97144
G1 X82.352 Y100.620 E43.10508
G1 X81.966 Y100.942 E43.23810
G1 X81.526 Y101.180 E43.37055
G1 X81.049 Y101.327 E43.50256
G1 X80.530 Y101.379 E43.64030
G1 X39.470 Y101.379 E54.50051
G1 X38.951 Y101.327 E54.63825
G1 X38.474 Y101.180 E54.77026
G1 X38.034 Y100.942 E54.90271
G1 X37.648 Y100.620 E55.03574
G1 X37.330 Y100.227 E55.16938
G1 X37.094 Y99.777 E55.30359
G1 X36.948 Y99.290 E55.43823
G1 X36.897 Y98.760 E55.57888
G1 X36.897 Y55.559 E67.00509
G1 Z26.100 F7800.000
G92 E0
G1 X40.498 Y55.424 F7800.000
G1 X40.498 Y30.337 E6.63542 F1800.000
G1 X48.260 Y22.453 E9.56164
G1 X71.740 Y22.453 E15.77181 F1800.000
G1 X79.502 Y30.337 E18.69804
G1 X79.502 Y89.663 E34.38925
G1 X71.740 Y97.547 E37.31548
G1 X48.260 Y97.547 E43.52565
G1 X40.498 Y89.663 E46.45187
G1 X40.498 Y55.559 E55.47197
G92 E0
G1 X36.897 Y55.424 F7800.000
G1 X36.897 Y21.400 E8.99915 F1800.000
G1 X36.948 Y20.871 E9.13981
G1 X37.094 Y20.383 E9.27445
G1 X37.330 Y19.934 E9.40866
G1 X37.648 Y19.541 E9.54230
G1 X38.034 Y19.219 E9.67532
G1 X38.474 Y18.980 E9.80777
G1 X38.951 Y18.833 E9.93979
G1 X39.470 Y18.781 E10.07753
G1 X80.530 Y18.781 E20.93774
G1 X81.049 Y18.833 E21.07547
G1 X81.526 Y18.980 E21.20748 F1800.000
G1 X81.966 Y19.219 E21.33994
G1 X82.352 Y19.541 E21.47296
G1 X82.670 Y19.934 E21.60660
G1 X82.906 Y20.383 E21.74081
G1 X83.052 Y20.871 E21.87545
G1 X83.103 Y21.400 E22.01611
G1 X83.103 Y98.600 E42.43479
G1 X83.052 Y99.129 E42.57545
G1 X82.906 Y99.617 E42.71009
