; generated by Slic3r 1.2.9 on 2016-04-30 at 18:46:10

; external perimeters extrusion width = 0.70mm
; perimeters extrusion width = 0.74mm
; infill extrusion width = 0.74mm
; solid infill extrusion width = 0.74mm
; top infill extrusion width = 0.74mm

M107
M104 S205 ; set temperature
G28 ; home all axes
G1 Z5 F5000 ; lift nozzle

M109 S205 ; wait for temperature to be reached
G21 ; set units to millimeters
G90 ; use absolute coordinates
M82 ; use absolute distances for extrusion
G92 E0
G1 Z0.700 F7800.000
G1 E-2.00000 F2400.00000
G92 E0
G1 X86.677 Y81.151 F7800.000
G1 E2.00000 F2400.00000
G1 X87.298 Y80.541 E2.31665 F1800.000
G1 X89.655 Y78.663 E3.41255
G1 X91.301 Y77.858 E4.07923
G1 X92.286 Y77.738 E4.43999
G1 X112.362 Y77.665 E11.74203
G1 X114.153 Y78.054 E12.40872
G1 X115.000 Y78.571 E12.76945 F1800.000
G1 X117.370 Y80.431 E13.86535
G1 X117.995 Y81.036 E14.18177
G1 X118.190 Y81.267 E14.29175
G1 X119.040 Y82.891 E14.95844
G1 X118.878 Y85.600 E15.94558
G1 X107.366 Y114.009 E27.09467
G1 X106.328 Y115.520 E27.76136
G1 X104.750 Y116.452 E28.42805
G1 X103.528 Y116.662 E28.87874
G1 X102.515 Y116.684 E29.24746
G1 X101.404 Y116.670 E29.65161
G1 X99.621 Y116.245 E30.31830
G1 X98.182 Y115.109 E30.98499
G1 X97.547 Y114.045 E31.43568
G1 X85.828 Y85.721 E42.58474
G1 X85.509 Y83.916 E43.25142
G1 X86.484 Y81.383 E44.23831
G1 X86.610 Y81.231 E44.31011
G1 E42.31011 F2400.00000
G92 E0
G1 X102.741 Y98.425 F7800.000
G1 E2.00000 F2400.00000
G1 X102.058 Y98.427 E2.24817 F1800.000
G1 X101.983 Y97.659 E2.52886
G1 X102.395 Y97.255 E2.73889
G1 X102.811 Y97.656 E2.94892
G1 X102.750 Y98.320 E3.19143
G1 X108.011 Y89.654 F7800.000
G1 X106.884 Y91.592 E4.00683 F1800.000
G1 X102.384 Y94.163 E5.89196
G1 X97.865 Y91.625 E7.77709
G1 X96.723 Y89.693 E8.59337
G1 X98.409 Y89.399 E9.21580
G1 X102.368 Y89.975 E10.67095
G1 X106.323 Y89.372 E12.12609
G1 X107.907 Y89.637 E12.71034
G1 X111.251 Y85.323 F7800.000
G1 X111.740 Y85.728 E12.94110 F1800.000
G1 X107.989 Y92.177 E15.65458
G1 X107.943 Y92.426 E15.74665
G1 X102.389 Y95.600 E18.07312
G1 X96.813 Y92.467 E20.39957
G1 X96.764 Y92.218 E20.49165
G1 X92.967 Y85.796 E23.20543
G1 X93.452 Y85.387 E23.43616
G1 X96.978 Y88.380 E25.11838
G1 X98.391 Y88.134 E25.64022
G1 X102.364 Y88.712 E27.10029
G1 X106.332 Y88.107 E28.56026
G1 X107.748 Y88.343 E29.08239
G1 X111.172 Y85.391 E30.72664
G1 X112.089 Y83.551 F7800.000
G1 X113.096 Y83.529 E31.09321 F1800.000
G1 X113.253 Y84.431 E31.42600
G1 X113.874 Y84.448 E31.65201
G1 X113.290 Y85.459 E32.07663
G1 X112.995 Y86.056 E32.31877
G1 X109.178 Y92.619 E35.08012
G1 X109.065 Y93.224 E35.30407
G1 X103.383 Y96.471 E37.68437
G1 X104.109 Y97.173 E38.05170
G1 X102.789 Y111.703 E43.35824
G1 X102.107 Y111.706 E43.60642
G1 X100.681 Y97.186 E48.91296
G1 X101.402 Y96.479 E49.28029
G1 X95.696 Y93.273 E51.66058
G1 X95.579 Y92.669 E51.88453
G1 X91.714 Y86.134 E54.64585
G1 X91.415 Y85.539 E54.88804
G1 X90.824 Y84.533 E55.31264
G1 X91.445 Y84.510 E55.53864
G1 X91.594 Y83.608 E55.87144
G1 X92.602 Y83.622 E56.23800
G1 X92.672 Y83.201 E56.39330
G1 X93.492 Y83.876 E56.77978
G1 X93.879 Y84.110 E56.94424
G1 X97.340 Y87.048 E58.59554
G1 X98.373 Y86.868 E58.97708
G1 X102.359 Y87.448 E60.44207
G1 X106.341 Y86.841 E61.90688
G1 X107.376 Y87.014 E62.28850
G1 X110.816 Y84.048 E63.94043
G1 X111.201 Y83.812 E64.10485
G1 X112.016 Y83.130 E64.49131
G1 X112.071 Y83.447 E64.60843
G1 X112.139 Y84.249 F7800.000
G1 X106.872 Y90.369 F7800.000
G1 X104.941 Y91.042 E65.35242 F1800.000
G1 X104.043 Y91.137 F7800.000
G1 X103.463 Y90.557 E65.71038 F1800.000
G1 X101.455 Y90.669 E66.58741
G1 X103.518 Y92.732 E67.85958
G1 X100.938 Y92.272 E69.00246
G1 X100.340 Y91.673 E69.37156
G1 X99.803 Y91.059 F7800.000
G1 X97.867 Y90.400 E70.11550 F1800.000
G1 X102.402 Y99.051 F7800.000
G1 X102.422 Y104.631 E74.41900 F1800.000
G1 X102.435 Y108.269 E75.74225 F1800.000
M104 S200 ; set temperature
G1 Z1.400 F7800.000
G1 X102.398 Y97.903 F7800.000
G1 X103.390 Y98.862 E75.97719 F900.000
G1 X102.593 Y107.629 E77.47545
G1 X102.274 Y107.631 E77.52978
G1 X101.412 Y98.869 E79.02805
G1 X102.323 Y97.976 E79.24511
G1 X92.543 Y84.699 F7800.000
G1 X93.263 Y84.709 E79.36768 F3600.000
G1 X93.553 Y84.884 E79.42522
G1 X96.504 Y87.389 E80.08401
G1 X99.422 Y86.881 E80.58817
G1 X102.359 Y87.308 E81.09316
G1 X105.292 Y86.861 E81.59811
G1 X108.214 Y87.348 E82.10234
G1 X111.148 Y84.820 E82.76141
G1 X111.435 Y84.643 E82.81890
G1 X112.155 Y84.628 E82.94147
G1 X112.290 Y85.407 E83.07600
G1 X112.035 Y85.924 E83.17423
G1 X109.024 Y91.101 E84.19339
G1 X108.653 Y93.089 E84.53751
G1 X105.226 Y95.054 E85.20981
G1 X102.393 Y96.633 E85.76181
G1 X99.548 Y95.075 E86.31380
G1 X96.107 Y93.134 E86.98610
G1 X95.722 Y91.150 E87.33022
G1 X92.673 Y85.995 E88.34933
G1 X92.414 Y85.479 E88.44760
G1 X92.526 Y84.803 E88.56427
G1 X102.255 Y97.224 F7800.000
G1 X99.264 Y95.586 E89.14453 F3600.000
G1 X95.585 Y93.511 E89.86341
G1 X95.167 Y91.360 E90.23631
G1 X92.160 Y86.276 E91.24161
G1 X91.469 Y84.903 E91.50309
G1 X91.919 Y84.887 E91.57969
G1 X92.029 Y84.223 E91.69432
G1 X92.132 Y84.109 E91.72037
G1 X92.809 Y84.118 E91.83568
G1 X92.864 Y83.785 E91.89322
G1 X93.895 Y84.408 E92.09825
G1 X96.673 Y86.766 E92.71839
G1 X99.414 Y86.289 E93.19183
G1 X102.357 Y86.717 E93.69789
G1 X105.296 Y86.269 E94.20391
G1 X108.040 Y86.727 E94.67737
G1 X110.801 Y84.347 E95.29777
G1 X111.827 Y83.716 E95.50276
G1 X111.885 Y84.049 E95.56031
G1 X112.563 Y84.034 E95.67563
G1 X112.666 Y84.147 E95.70167
G1 X112.781 Y84.811 E95.81630
G1 X113.231 Y84.824 E95.89291
G1 X112.550 Y86.201 E96.15435
G1 X109.581 Y91.308 E97.15969
G1 X109.178 Y93.462 E97.53260
G1 X105.514 Y95.563 E98.25148
G1 X102.536 Y97.223 E98.83174
G1 X103.998 Y98.636 E99.17782
G1 X102.787 Y111.951 E101.45317
G1 X102.111 Y111.953 E101.56818
G1 X100.803 Y98.648 E103.84353
G1 X102.180 Y97.297 E104.17174
G1 X101.312 Y97.354 F7800.000
G1 X98.989 Y96.082 E104.59551 F1800.000
G1 X95.078 Y93.877 E105.31384
G1 X94.629 Y91.565 E105.69067
G1 X91.662 Y86.548 E106.62320
G1 X90.751 Y84.737 E106.94759
G1 X91.072 Y84.350 E107.02805
G1 X91.436 Y84.337 E107.08630
G1 X91.497 Y83.967 E107.14631
G1 X91.882 Y83.538 E107.23850
G1 X92.329 Y83.544 E107.31010
G1 X92.405 Y83.086 E107.38444
G1 X92.610 Y82.870 E107.43205
G1 X93.056 Y83.238 E107.52461
G1 X94.228 Y83.946 E107.74369
G1 X96.838 Y86.162 E108.29145
G1 X98.646 Y85.847 E108.58511
G1 X99.406 Y85.714 E108.70854 F3600.000
G1 X102.355 Y86.143 E109.18530
G1 X105.300 Y85.694 E109.66199
G1 X106.062 Y85.821 E109.78559
G1 X107.871 Y86.123 E110.07907 F1800.000
G1 X110.465 Y83.887 E110.62706
G1 X111.632 Y83.170 E110.84613
G1 X112.075 Y82.799 E110.93868
G1 X112.281 Y83.013 E110.98629
G1 X112.361 Y83.471 E111.06063
G1 X112.808 Y83.462 E111.13223
G1 X113.196 Y83.888 E111.22441
G1 X113.260 Y84.257 E111.28443
G1 X113.624 Y84.267 E111.34270
G1 X113.948 Y84.652 E111.42314
G1 X113.050 Y86.470 E111.74751
G1 X110.120 Y91.508 E112.68009
G1 X109.688 Y93.823 E113.05692
G1 X105.793 Y96.057 E113.77526
G1 X103.480 Y97.346 E114.19903
G1 X104.588 Y98.417 E114.44554
G1 X103.306 Y112.508 E116.70942
G1 X102.451 Y112.525 E116.84621
G1 X101.596 Y112.514 E116.98300
G1 X100.211 Y98.433 E119.24687
G1 X101.237 Y97.428 E119.47659
G1 X101.706 Y96.776 F7800.000
G1 X101.788 Y99.200 F7800.000
G1 X102.528 Y98.460 E119.68538 F1200.000
G1 X103.012 Y98.944 E119.82214
G1 X101.874 Y100.082 E120.14320
G1 X102.920 Y100.006 E120.35236
G1 X101.961 Y100.965 E120.62288
G1 X102.823 Y101.073 E120.79616
G1 X102.533 Y101.363 E120.87805
G1 X102.412 Y101.717 F7800.000
G1 X102.420 Y104.094 E121.79113 F1200.000
G1 X102.420 Y104.094 F7800.000
G1 X102.427 Y106.002 E122.11576 F1200.000
G1 X102.434 Y107.922 F7800.000
G1 X102.443 Y110.300 E123.02884 F1200.000
G1 X102.443 Y110.300 F7800.000
G1 X102.448 Y111.665 E123.26123 F1200.000
G1 X102.763 Y95.856 F7800.000
G1 X109.729 Y88.891 E125.01845 F3600.000
G1 X109.550 Y87.953 E125.18869
G1 X101.663 Y95.841 E127.17850
G1 X100.942 Y95.446 E127.32515
G1 X108.594 Y87.794 E129.25557
G1 X107.638 Y87.634 E129.42853
G1 X100.221 Y95.051 E131.29957
G1 X99.501 Y94.654 E131.44609
G1 X106.681 Y87.474 E133.25732
G1 X105.725 Y87.315 E133.43028
G1 X98.788 Y94.252 E135.18026
G1 X98.074 Y93.850 E135.32639
G1 X104.513 Y87.411 E136.95062
G1 X103.196 Y87.612 E137.18822
G1 X97.360 Y93.447 E138.66029
G1 X96.647 Y93.045 E138.80643
G1 X102.046 Y87.646 E140.16839
G1 X101.072 Y87.504 E140.34399
G1 X96.317 Y92.259 E141.54335
G1 X96.136 Y91.324 E141.71314
G1 X100.097 Y87.362 E142.71256
G1 X98.943 Y87.401 E142.91865
G1 X95.775 Y90.569 E143.71771
G1 X95.360 Y89.867 E143.86304
G1 X97.591 Y87.637 E144.42580
G1 X96.240 Y87.872 E144.67049
G1 X94.946 Y89.166 E144.99695
G1 X94.531 Y88.465 E145.14228
G1 X94.888 Y88.108 E145.23243
G1 X105.303 Y94.433 F7800.000
G1 X108.573 Y91.163 E146.05730 F3600.000
G1 X108.316 Y92.535 E146.30631
G1 X107.919 Y92.932 E146.40653
G1 X95.631 Y87.575 F7800.000
G1 X95.904 Y87.302 E146.47319 F1200.000
G1 X95.463 Y86.903 E146.57598
G1 X94.614 Y87.752 E146.78371
G1 X93.959 Y87.567 E146.90127
G1 X95.009 Y86.517 E147.15785
G1 X94.555 Y86.131 E147.26087
G1 X93.647 Y87.039 E147.48269
G1 X93.335 Y86.511 E147.58869
G1 X94.100 Y85.746 E147.77574
G1 X93.646 Y85.360 E147.87876
G1 X93.023 Y85.983 E148.03104
G1 X92.815 Y85.351 E148.14608
G1 X93.107 Y85.059 E148.21749
G1 E146.21749 F2400.00000
G92 E0
G1 X108.815 Y87.504 F7800.000
G1 E2.00000 F2400.00000
G1 X109.254 Y87.065 E2.11385 F1200.000
G1 X110.323 Y87.776 F7800.000
G1 X110.644 Y87.456 E2.19697 F1200.000
G1 X109.560 Y87.649 E2.39874
G1 X111.839 Y85.370 E2.98928
G1 Z2.100 F7800.000
G1 X102.402 Y99.175 F7800.000
G1 X103.505 Y100.241 E3.25022 F900.000
G1 X102.602 Y110.152 E4.94397
G1 X102.283 Y110.153 E4.99829
G1 X101.307 Y100.249 E6.69204
G1 X102.327 Y99.249 E6.93511
G1 X102.399 Y98.359 F7800.000
G1 X104.113 Y100.015 E7.34059 F900.000
G1 X102.985 Y112.388 E9.45496
G1 X101.916 Y112.391 E9.63706
G1 X100.698 Y100.027 E11.75143
G1 X102.324 Y98.433 E12.13904
G1 X92.655 Y85.699 F7800.000
G1 X93.359 Y84.801 E12.33313 F3600.000
G1 X93.697 Y85.006 E12.40026
G1 X95.900 Y86.876 E12.89217
G1 X100.460 Y86.082 E13.67984
G1 X102.355 Y86.357 E14.00581
G1 X104.249 Y86.069 E14.33178
G1 X108.814 Y86.830 E15.11948
G1 X111.005 Y84.942 E15.61162
G1 X111.340 Y84.736 E15.67869
G1 X112.051 Y85.628 E15.87276
G1 X111.782 Y86.172 E15.97609
G1 X109.633 Y89.866 E16.70341
G1 X108.962 Y93.464 E17.32623
G1 X106.017 Y95.153 E17.90396
G1 X102.395 Y97.171 E18.60961
G1 X98.759 Y95.179 E19.31527
G1 X95.801 Y93.512 E19.89299
G1 X95.103 Y89.920 E20.51580
G1 X92.928 Y86.241 E21.24304
G1 X92.702 Y85.793 E21.32855
G1 X91.966 Y85.630 F7800.000
G1 X93.219 Y84.033 E21.67396 F3600.000
G1 X94.039 Y84.529 E21.83720
G1 X96.070 Y86.253 E22.29046
G1 X100.452 Y85.489 E23.04741
G1 X102.353 Y85.766 E23.37446
G1 X104.253 Y85.476 E23.70148
G1 X108.640 Y86.208 E24.45843
G1 X110.658 Y84.469 E24.91190
G1 X111.475 Y83.966 E25.07507
G1 X112.740 Y85.554 E25.42045
G1 X112.297 Y86.449 E25.59037
G1 X110.190 Y90.073 E26.30388
G1 X109.487 Y93.837 E26.95548
G1 X106.305 Y95.662 E27.57978
G1 X102.397 Y97.839 E28.34104
G1 X98.474 Y95.690 E29.10230
G1 X95.279 Y93.889 E29.72660
G1 X94.549 Y90.130 E30.37819
G1 X92.415 Y86.522 E31.09162
G1 X92.013 Y85.724 E31.24368
G1 X101.796 Y98.157 F7800.000
G1 X98.199 Y96.186 E31.89988 F1800.000
G1 X94.772 Y94.254 E32.52930
G1 X94.010 Y90.335 E33.16814
G1 X91.917 Y86.794 E33.82627
G1 X91.297 Y85.563 E34.04674
G1 X93.082 Y83.288 E34.50948
G1 X94.372 Y84.068 E34.75061
G1 X96.234 Y85.648 E35.14148
G1 X99.684 Y85.047 E35.70167
G1 X100.444 Y84.915 E35.82511 F3600.000
G1 X102.351 Y85.193 E36.13357
G1 X104.257 Y84.902 E36.44198
G1 X105.019 Y85.029 E36.56558
G1 X108.471 Y85.605 E37.12557 F1800.000
G1 X110.322 Y84.009 E37.51663
G1 X111.606 Y83.220 E37.75768
G1 X113.408 Y85.482 E38.22040
G1 X112.797 Y86.717 E38.44086
G1 X110.729 Y90.274 E39.09907
G1 X109.996 Y94.199 E39.73793
G1 X106.584 Y96.156 E40.36734
G1 X103.001 Y98.152 E41.02354
G1 X104.702 Y99.796 E41.40196
G1 X103.504 Y112.946 E43.51463
G1 X102.453 Y112.965 E43.68293
G1 X101.401 Y112.953 E43.85122
G1 X100.107 Y99.813 E45.96389
G1 X101.721 Y98.230 E46.32551
G1 X102.190 Y97.579 F7800.000
G1 X103.131 Y100.575 F7800.000
G1 X102.285 Y99.729 E46.53008 F1200.000
G1 X101.869 Y100.145 E46.63058
G1 X103.061 Y101.337 E46.91887
G1 X102.992 Y102.099 E47.04968
G1 X101.733 Y100.840 E47.35412
G1 X101.824 Y101.762 E47.51255
G1 X102.923 Y102.860 E47.77826
G1 X102.853 Y103.622 E47.90906
G1 X101.915 Y102.684 E48.13604
G1 X102.005 Y103.605 E48.29446
G1 X102.296 Y103.896 E48.36468
G1 X102.421 Y104.248 F7800.000
G1 X102.429 Y106.622 E49.27639 F1200.000
G1 X102.429 Y106.622 F7800.000
G1 X102.436 Y108.526 E49.60054 F1200.000
G1 X102.443 Y110.445 F7800.000
G1 X102.449 Y112.105 E50.23804 F1200.000
G1 E48.23804 F2400.00000
G92 E0
G1 X101.395 Y96.057 F7800.000
G1 E2.00000 F2400.00000
G1 X95.615 Y90.277 E3.35491 F3600.000
G1 X94.752 Y88.337 F7800.000
G1 X102.908 Y96.492 E5.26677 F3600.000
G1 X103.601 Y96.106 E5.39816
G1 X94.922 Y87.428 E7.43262
G1 X95.840 Y87.268 E7.58714
G1 X104.293 Y95.720 E9.56863
G1 X104.985 Y95.335 E9.70003
G1 X96.758 Y87.108 E11.62856
G1 X97.677 Y86.948 E11.78307
G1 X105.678 Y94.949 E13.65864
G1 X106.365 Y94.558 E13.78974
G1 X98.595 Y86.788 E15.61122
G1 X99.513 Y86.628 E15.76573
G1 X107.051 Y94.165 E17.53259
G1 X107.736 Y93.772 E17.66354
G1 X100.478 Y86.514 E19.36499
G1 X101.740 Y86.697 E19.57638
G1 X108.421 Y93.379 E21.14265
G1 X108.739 Y92.618 E21.27929
G1 X102.794 Y86.673 E22.67291
G1 X103.730 Y86.531 E22.82979
G1 X108.909 Y91.710 E24.04386
G1 X109.078 Y90.801 E24.19708
G1 X104.887 Y86.610 E25.17953
G1 X106.182 Y86.826 E25.39703
G1 X109.248 Y89.892 E26.11587
G1 X109.628 Y89.194 E26.24762
G1 X107.476 Y87.042 E26.75224
G1 X108.770 Y87.258 E26.96974
G1 X110.025 Y88.513 E27.26391
G1 X110.064 Y87.474 E27.43625
G1 X110.421 Y87.831 E27.51998
G1 X99.003 Y94.744 F7800.000
G1 X95.875 Y91.616 E28.25330 F3600.000
G1 X96.135 Y92.954 E28.47930
G1 X96.531 Y93.350 E28.57216
G1 X109.687 Y87.011 F7800.000
G1 X109.414 Y86.738 E28.65561 F1200.000
G1 X109.966 Y86.237 E28.81698
G1 X110.863 Y87.134 E29.09177
G1 X111.252 Y86.471 E29.25830
G1 X110.531 Y85.749 E29.47931
G1 X111.096 Y85.262 E29.64094
G1 X111.484 Y85.650 E29.75980
G1 X95.300 Y87.037 F7800.000
G1 X94.878 Y86.616 E29.92606 F1200.000
G1 X94.163 Y87.255 E30.19370
G1 X93.841 Y86.933 E30.32079
M106 S234.6
G1 Z2.800 F7800.000
G1 E28.32079 F2400.00000
G92 E0
G1 X102.407 Y100.448 F7800.000
G1 E2.00000 F2400.00000
G1 X103.619 Y101.620 E2.28694 F900.000
G1 X102.649 Y112.249 E4.10339
G1 X102.251 Y112.250 E4.17129
G1 X101.203 Y101.628 E5.98774
G1 X102.332 Y100.522 E6.25681
G1 X102.404 Y99.632 F7800.000
G1 X104.227 Y101.394 E6.68830 F900.000
G1 X103.184 Y112.825 E8.64176
G1 X101.720 Y112.830 E8.89092
G1 X100.594 Y101.407 E10.84438
G1 X102.329 Y99.705 E11.25800
G1 X93.219 Y86.548 F7800.000
G1 X94.136 Y85.377 E11.51109 F3600.000
G1 X95.297 Y86.362 E11.77013
G1 X101.497 Y85.282 E12.84131
G1 X102.352 Y85.406 E12.98827
G1 X103.206 Y85.276 E13.13525
G1 X109.414 Y86.312 E14.20643
G1 X110.568 Y85.318 E14.46559
G1 X111.493 Y86.481 E14.71861
G1 X110.243 Y88.632 E15.14206
G1 X109.270 Y93.839 E16.04358
G1 X106.807 Y95.251 E16.52672
G1 X102.397 Y97.710 E17.38604
G1 X97.969 Y95.284 E18.24535
G1 X95.496 Y93.889 E18.72849
G1 X94.485 Y88.690 E19.63000
G1 X93.272 Y86.638 E20.03555
G1 X92.526 Y86.483 F7800.000
G1 X94.034 Y84.560 E20.45144 F3600.000
G1 X94.183 Y84.650 E20.48116
G1 X95.466 Y85.739 E20.76754
G1 X101.489 Y84.690 E21.80800
G1 X102.350 Y84.815 E21.95603
G1 X103.210 Y84.684 E22.10407
G1 X109.240 Y85.690 E23.14449
G1 X110.515 Y84.591 E23.43103
G1 X110.664 Y84.499 E23.46073
G1 X112.185 Y86.411 E23.87656
G1 X112.044 Y86.697 E23.93075
G1 X110.799 Y88.839 E24.35242
G1 X109.795 Y94.212 E25.28272
G1 X107.095 Y95.760 E25.81245
G1 X102.399 Y98.378 E26.72736
G1 X97.685 Y95.795 E27.64228
G1 X94.973 Y94.266 E28.17201
G1 X93.930 Y88.900 E29.10229
G1 X92.670 Y86.768 E29.52385
G1 X92.574 Y86.577 E29.56021
G1 X102.280 Y98.959 F7800.000
G1 X97.409 Y96.291 E30.44883 F1800.000
G1 X94.466 Y94.632 E30.98933
G1 X93.392 Y89.105 E31.89019
G1 X92.171 Y87.040 E32.27393
G1 X91.858 Y86.417 E32.38558
