; generated by Slic3r 1.2.9 on 2016-05-20 at 16:27:35

; external perimeters extrusion width = 0.90mm
; perimeters extrusion width = 0.94mm
; infill extrusion width = 0.94mm
; solid infill extrusion width = 0.94mm
; top infill extrusion width = 0.94mm

M107
M104 S205 ; set temperature
G28 ; home all axes
G1 Z5 F5000 ; lift nozzle

M109 S205 ; wait for temperature to be reached
G21 ; set units to millimeters
G90 ; use absolute coordinates
M82 ; use absolute distances for extrusion
G92 E0
G1 Z0.900 F7800.000
G1 X23.072 Y44.046 F7800.000
G1 X84.947 Y11.635 E41.99687 F1800.000
G1 X85.854 Y11.233 E42.59359
G1 X86.981 Y10.819 E43.31542
G1 X90.104 Y10.369 E45.21238
G1 X107.433 Y11.512 E55.65436
G1 X108.212 Y11.592 E56.12466 F1800.000
G1 X110.577 Y12.263 E57.60299
G1 X113.189 Y14.279 E59.58679
G1 X119.175 Y21.463 E65.20894
G1 X120.424 Y23.581 E66.68726
G1 X120.921 Y25.811 E68.06128
G1 X120.952 Y26.264 E68.33407
G1 X120.970 Y26.785 E68.64766
G1 X120.970 Y93.215 E108.58825
G1 X120.921 Y94.189 E109.17455
G1 X120.358 Y96.582 E110.65288
G1 X119.175 Y98.537 E112.02689
G1 X113.189 Y105.721 E117.64904
G1 X111.330 Y107.330 E119.12736
G1 X108.211 Y108.408 E121.11118
G1 X107.799 Y108.455 E121.36069
G1 X90.104 Y109.631 E132.02341
G1 X86.981 Y109.181 E133.92037
G1 X85.854 Y108.767 E134.64220
G1 X84.947 Y108.365 E135.23893
G1 X13.884 Y71.141 E183.47254
G1 X11.918 Y69.663 E184.95087
G1 X10.528 Y67.635 E186.42919
G1 X9.806 Y64.402 E188.42079
G1 X9.806 Y55.598 E193.71444
G1 X10.204 Y53.171 E195.19276
G1 X11.354 Y50.998 E196.67109
G1 X13.884 Y48.859 E198.66269
G1 X22.953 Y44.109 E204.81827
G92 E0
G1 X106.328 Y87.719 F7800.000
G1 X111.999 Y93.154 E4.72246 F1800.000
G1 X104.736 Y95.509 E9.31284
G1 X106.152 Y100.047 E12.17120
G1 X89.735 Y101.130 E22.06352
G1 X88.909 Y100.827 E22.59234
G1 X72.318 Y88.490 E35.02295
G1 X72.822 Y77.835 E41.43679
G1 X97.647 Y78.809 E56.37454
G1 X98.055 Y79.111 E56.67972
G1 X109.847 Y84.196 E64.40051
G1 X106.423 Y87.623 E67.31336
G1 X105.508 Y87.317 F7800.000
G1 X98.967 Y80.776 E72.96104 F1800.000
G1 X95.633 Y79.749 F7800.000
G1 X109.035 Y93.151 E84.53176 F1800.000
G1 X107.293 Y93.716 F7800.000
G1 X93.232 Y79.655 E96.67169 F1800.000
G1 X90.830 Y79.561 E98.13895
G1 X105.551 Y94.281 E110.84809
G1 X103.808 Y94.846 E111.96627
G1 X88.428 Y79.467 E125.24462
G1 X86.027 Y79.372 E126.71189
G1 X104.195 Y97.540 E142.39719
G1 X103.579 Y99.232 E143.49611
G1 X83.625 Y79.278 E160.72307
G1 X81.224 Y79.184 E162.19033
G1 X101.414 Y99.374 E179.62189
G1 X99.249 Y99.517 E180.94623
G1 X78.822 Y79.090 E198.58236
G1 X76.420 Y78.995 E200.04963
G1 X97.085 Y99.660 E217.89035
G1 X94.920 Y99.802 E219.21469
G1 X74.019 Y78.901 E237.26001
G1 X73.669 Y80.859 E238.47403
G1 X92.756 Y99.945 E254.95243
G1 X90.591 Y100.088 E256.27677
G1 X73.565 Y83.062 E270.97623
G1 X73.461 Y85.265 E272.32276
G1 X83.152 Y94.956 E280.68954
G1 X74.155 Y88.266 F7800.000
G1 X73.357 Y87.468 E281.37851 F1800.000
G1 X103.023 Y82.525 F7800.000
G1 X106.661 Y86.163 E284.51927 F1800.000
G1 X107.080 Y84.274 E285.70023
G1 X107.814 Y85.008 E286.33408
G92 E0
G1 X98.507 Y78.325 F7800.000
G1 X101.863 Y64.997 F7800.000
G1 X98.389 Y66.986 F7800.000
G1 X86.235 Y75.080 F7800.000
G1 X84.006 Y74.250 F7800.000
G1 X83.453 Y73.158 F7800.000
G1 X61.531 Y66.943 E13.70014 F1800.000
G1 X60.907 Y66.924 E14.07543
G1 X60.608 Y66.941 E14.25542
G1 X60.274 Y66.915 E14.45718
G1 X40.403 Y65.267 E26.44548
G1 X18.380 Y63.795 E39.71619
G1 X18.766 Y60.034 E41.98966
G1 X18.380 Y56.205 E44.30328
G1 X40.403 Y54.733 E57.57399
G1 X60.274 Y53.085 E69.56229
G1 X60.608 Y53.059 E69.76405
G1 X60.907 Y53.076 E69.94404
G1 X61.531 Y53.057 E70.31933
G1 X83.453 Y46.842 E84.01917
G1 X88.357 Y60.013 E92.46916
G1 X83.500 Y73.032 E100.82365
G1 X85.747 Y56.286 F7800.000
G1 X78.631 Y49.170 E107.01666 F1800.000
G1 X76.819 Y49.684 E108.17584
G1 X87.127 Y59.992 E117.14685
G1 X86.691 Y61.882 E118.34061
G1 X75.007 Y50.198 E128.50958
G1 X73.195 Y50.712 E129.66876
G1 X86.059 Y63.576 E140.86494
G1 X85.427 Y65.270 E141.97764
G1 X71.382 Y51.225 E154.20105
G1 X69.570 Y51.739 E155.36023
G1 X84.795 Y66.964 E168.61086
G1 X84.163 Y68.658 E169.72356
G1 X67.758 Y52.253 E184.00141
G1 X65.946 Y52.767 E185.16059
G1 X83.531 Y70.352 E200.46567
G1 X82.621 Y71.768 E201.50138
G1 X64.134 Y53.280 E217.59111
G1 X62.321 Y53.794 E218.75030
G1 X79.375 Y70.847 E233.59189
G1 X76.128 Y69.927 E235.66842
G1 X60.269 Y54.068 E249.47082
G1 X58.120 Y54.245 E250.79783
G1 X72.882 Y69.007 E263.64527
G1 X69.636 Y68.086 E265.72180
G1 X55.972 Y54.423 E277.61323
G1 X53.824 Y54.601 E278.93956
G1 X66.389 Y67.166 E289.87498
G1 X63.143 Y66.245 E291.95152
G1 X51.677 Y54.779 E301.93092
G1 X49.529 Y54.957 E303.25726
G1 X60.465 Y65.893 E312.77501
G1 X57.928 Y65.683 E314.34120
G1 X47.381 Y55.135 E323.52090
G1 X45.233 Y55.313 E324.84723
G1 X55.392 Y65.472 E333.68887
G1 X52.856 Y65.262 E335.25507
G1 X43.085 Y55.492 E343.75866
G1 X40.937 Y55.670 E345.08499
G1 X50.320 Y65.052 E353.25053
G1 X47.783 Y64.842 E354.81673
G1 X38.769 Y55.827 E362.66221
G1 X36.589 Y55.973 E364.00692
G1 X45.247 Y64.631 E371.54251
G1 X42.711 Y64.421 E373.10871
G1 X34.408 Y56.119 E380.33441
G1 X32.228 Y56.264 E381.67912
G1 X40.186 Y64.222 E388.60497
G1 X37.694 Y64.055 E390.14236
G1 X30.048 Y56.410 E396.79633
G1 X27.868 Y56.556 E398.14104
G1 X35.201 Y63.889 E404.52315
G1 X32.708 Y63.722 E406.06053
G1 X25.688 Y56.702 E412.17076
G1 X23.507 Y56.847 E413.51547
G1 X30.216 Y63.556 E419.35382
G1 X27.723 Y63.389 E420.89120
G1 X21.327 Y56.993 E426.45769
G1 X19.562 Y57.554 E427.59752
G1 X25.231 Y63.222 E432.53098
G1 X22.738 Y63.056 E434.06835
G1 X19.740 Y60.058 E436.67739
G1 X19.524 Y62.168 E437.98254
G1 X20.245 Y62.889 E438.61041
G1 X82.987 Y48.875 F7800.000
G1 X82.256 Y48.143 E439.24743 F1800.000
G1 X80.443 Y48.656 E440.40661
G1 X84.367 Y52.580 E443.82162
G92 E0
G1 X84.006 Y45.750 F7800.000
G1 X86.235 Y44.920 F7800.000
G1 X98.389 Y53.014 F7800.000
G1 X97.959 Y42.079 F7800.000
G1 X106.328 Y32.281 F7800.000
G1 X109.847 Y35.804 E2.99402 F1800.000
G1 X98.055 Y40.889 E10.71481
G1 X97.647 Y41.191 E11.02003
G1 X72.822 Y42.168 E25.95773
G1 X72.318 Y31.510 E32.37340
G1 X88.909 Y19.173 E44.80401
G1 X89.735 Y18.870 E45.33282
G1 X106.152 Y19.953 E55.22515
G1 X104.736 Y24.491 E58.08351
G1 X111.999 Y26.846 E62.67390
G1 X106.425 Y32.188 E67.31519
G1 X105.515 Y31.863 F7800.000
G1 X93.823 Y20.170 E77.68206 F1800.000
G1 X96.359 Y20.337 E79.27580
G1 X106.725 Y30.704 E88.46635
G1 X107.935 Y29.544 E89.51695
G1 X98.896 Y20.505 E97.53116
G1 X101.433 Y20.672 E99.12491
G1 X104.125 Y23.364 E101.51202
G1 X103.969 Y20.839 E103.09811
G1 X104.688 Y21.558 E103.73571
G1 X106.019 Y20.044 F7800.000
G1 X101.058 Y23.447 F7800.000
G1 X104.611 Y24.556 F7800.000
G1 X107.252 Y26.492 F7800.000
G1 X109.145 Y28.384 E105.41391 F1800.000
G1 X102.960 Y28.914 F7800.000
G1 X103.814 Y34.648 F7800.000
G1 X109.672 Y35.771 F7800.000
G1 X107.236 Y35.953 F7800.000
G1 X91.286 Y20.003 E119.55486 F1800.000
G1 X89.059 Y20.145 E120.95403
G1 X105.580 Y36.667 E135.60188
G1 X103.925 Y37.380 E136.73215
G1 X87.700 Y21.156 E151.11707
G1 X86.341 Y22.166 E152.17874
G1 X102.269 Y38.094 E166.30072
G1 X100.613 Y38.808 E167.43100
G1 X84.982 Y23.176 E181.29004
G1 X83.623 Y24.187 E182.35171
G1 X98.958 Y39.522 E195.94782
G1 X97.279 Y40.213 E197.08581
G1 X82.264 Y25.197 E210.39853
G1 X80.905 Y26.208 E211.46020
G1 X95.000 Y40.303 E223.95661
G1 X92.720 Y40.392 E225.38690
G1 X79.546 Y27.218 E237.06701
G1 X78.187 Y28.229 E238.12868
G1 X90.440 Y40.482 E248.99248
G1 X88.160 Y40.572 E250.42276
G1 X76.828 Y29.239 E260.47026
G1 X75.469 Y30.250 E261.53193
G1 X85.881 Y40.662 E270.76311
G1 X83.601 Y40.751 E272.19340
G1 X74.110 Y31.260 E280.60828
G1 X73.408 Y32.927 E281.74244
G1 X81.321 Y40.841 E288.75869
G1 X79.042 Y40.931 E290.18897
G1 X73.525 Y35.414 E295.07985
G1 X73.643 Y37.901 E296.64072
G1 X76.762 Y41.021 E299.40621
G1 X74.482 Y41.110 E300.83650
G1 X73.760 Y40.388 E301.47662
M104 S200 ; set temperature
G1 Z1.800 F7800.000
G92 E0
G1 X106.941 Y87.696 F7800.000
G1 X112.236 Y92.771 E1.93994 F1800.000
G1 X112.178 Y93.616 E2.16383
G1 X105.378 Y95.821 E4.05450
G1 X106.674 Y99.973 E5.20492
G1 X105.988 Y100.052 E5.38749
G1 X89.933 Y101.110 E9.64311
G1 X86.703 Y99.924 E10.55326
G1 X71.619 Y88.709 E15.52475
G1 X72.137 Y77.562 E18.47609
G1 X97.681 Y78.572 E25.23759
G1 X99.254 Y79.736 E25.75500
G1 X110.184 Y84.449 E28.90317
G1 X107.036 Y87.601 E30.08137
G1 X106.456 Y87.818 F7800.000
G1 X93.950 Y100.324 E34.78770 F3600.000
G1 X95.392 Y100.228 E35.17240
G1 X107.144 Y88.477 E39.59478
G1 X107.832 Y89.137 E39.84838
G1 X96.835 Y100.133 E43.98682
G1 X98.277 Y100.038 E44.37152
G1 X108.520 Y89.796 E48.22602
G1 X109.208 Y90.455 E48.47962
G1 X99.720 Y99.943 E52.05018
G1 X101.162 Y99.848 E52.43488
G1 X104.969 Y96.041 E53.86753
G1 X105.290 Y97.068 E54.15382
G1 X102.605 Y99.753 E55.16418
G1 X104.047 Y99.658 E55.54888
G1 X105.610 Y98.095 E56.13694
G1 X105.930 Y99.122 E56.42323
G1 X105.490 Y99.563 E56.58900
G92 E0
G1 X105.951 Y99.502 F7800.000
G1 X101.512 Y96.457 F7800.000
G1 X103.306 Y91.194 F7800.000
G1 X111.474 Y93.066 F7800.000
G1 X109.988 Y93.717 F7800.000
G1 X111.272 Y92.434 E0.48306 F3600.000
G1 X110.584 Y91.774 E0.73665
G1 X107.994 Y94.364 E1.71124
G1 X106.000 Y95.011 E2.26911
G1 X109.896 Y91.115 E3.73524
G92 E0
G1 X109.223 Y84.633 F7800.000
G1 X109.223 Y84.633 F7800.000
G1 X108.654 Y84.272 F7800.000
G1 X92.507 Y100.419 E6.07653 F3600.000
G92 E0
G1 X107.713 Y83.866 F7800.000
G1 X91.065 Y100.514 E6.26510 F3600.000
G1 X89.690 Y100.542 E6.63115
G1 X106.771 Y83.460 E13.05951
G1 X105.830 Y83.054 E13.33234
G1 X88.704 Y100.180 E19.77728
G1 X87.719 Y99.818 E20.05665
G1 X104.888 Y82.648 E26.51817
G1 X103.947 Y82.242 E26.79100
G1 X86.757 Y99.433 E33.26028
G1 X85.984 Y98.858 E33.51654
G1 X103.005 Y81.836 E39.92236
G1 X102.064 Y81.430 E40.19519
G1 X85.211 Y98.283 E46.53754
G1 X84.438 Y97.709 E46.79380
G1 X101.123 Y81.024 E53.07269
G1 X100.181 Y80.619 E53.34551
G1 X83.665 Y97.134 E59.56093
G1 X82.893 Y96.560 E59.81719
G1 X99.240 Y80.213 E65.96914
G1 X98.440 Y79.664 E66.22705
G1 X82.120 Y95.985 E72.36903
G1 X81.347 Y95.410 E72.62530
G1 X97.666 Y79.092 E78.76664
G1 X96.389 Y79.021 E79.10698
G1 X80.574 Y94.836 E85.05856
G1 X79.802 Y94.261 E85.31483
G1 X95.092 Y78.970 E91.06931
G1 X93.796 Y78.919 E91.41459
G1 X79.029 Y93.686 E96.97198
G1 X78.256 Y93.112 E97.22824
G1 X92.499 Y78.869 E102.58853
G1 X91.203 Y78.818 E102.93381
G1 X77.483 Y92.537 E108.09700
G1 X76.710 Y91.963 E108.35327
G1 X89.906 Y78.767 E113.31936
G1 X88.610 Y78.716 E113.66465
G1 X75.938 Y91.388 E118.43364
G1 X75.165 Y90.813 E118.68991
G1 X87.313 Y78.665 E123.26181
G1 X86.017 Y78.614 E123.60709
G1 X74.392 Y90.239 E127.98190
G1 X73.619 Y89.664 E128.23816
G1 X84.720 Y78.563 E132.41587
G1 X83.424 Y78.512 E132.76115
G1 X72.846 Y89.090 E136.74177
G1 X72.149 Y88.440 E136.99547
G1 X82.127 Y78.461 E140.75080
G1 X80.831 Y78.411 E141.09608
G1 X72.214 Y87.027 E144.33876
G1 X72.280 Y85.614 E144.71520
G1 X79.534 Y78.360 E147.44524
G1 X78.238 Y78.309 E147.79053
G1 X72.346 Y84.201 E150.00792
G1 X72.411 Y82.788 E150.38436
G1 X76.941 Y78.258 E152.08911
G1 X75.645 Y78.207 E152.43439
G1 X72.477 Y81.375 E153.62650
G1 X72.543 Y79.962 E154.00294
G1 X74.348 Y78.156 E154.68240
G1 X73.052 Y78.105 E155.02768
G1 X72.608 Y78.549 E155.19449
G92 E0
G1 X74.351 Y77.206 F7800.000
G1 X74.464 Y74.448 F7800.000
G1 X84.167 Y75.991 F7800.000
G1 X84.603 Y74.452 F7800.000
G1 X84.326 Y73.906 F7800.000
G1 X62.907 Y67.834 E5.88853 F1800.000
G1 X61.410 Y67.788 E6.28452
G1 X60.462 Y67.841 E6.53567
G1 X40.433 Y66.187 E11.85121
G1 X38.699 Y66.091 E12.31052
G1 X18.411 Y64.728 E17.68873
G1 X17.618 Y64.305 E17.92631
G1 X17.197 Y64.105 E18.04954
G1 X17.597 Y60.209 E19.08550
G1 X17.555 Y60.000 E19.14179
G1 X17.597 Y59.791 E19.19807
G1 X17.197 Y55.895 E20.23404
G1 X17.618 Y55.695 E20.35727
G1 X18.411 Y55.272 E20.59485
G1 X38.699 Y53.909 E25.97305
G1 X40.433 Y53.813 E26.43236
G1 X60.462 Y52.159 E31.74790
G1 X61.410 Y52.212 E31.99905
G1 X62.907 Y52.166 E32.39504
G1 X84.326 Y46.094 E38.28358
G1 X89.161 Y59.078 E41.94798
G1 X89.529 Y60.000 E42.21066
G1 X89.161 Y60.922 E42.47333
G1 X84.373 Y73.780 E46.10203
G1 X83.660 Y73.240 F7800.000
G1 X84.114 Y72.786 E46.27582 F3600.000
G1 X82.601 Y72.939 E46.68797
G1 X84.920 Y70.621 E47.57708
G92 E0
G1 X85.726 Y68.455 F7800.000
G1 X81.542 Y72.639 E1.60443 F3600.000
G1 X80.483 Y72.339 E1.90291
G1 X86.533 Y66.289 E4.22265
G92 E0
G1 X87.339 Y64.123 F7800.000
G1 X79.424 Y72.039 E3.03506 F3600.000
G1 X78.365 Y71.738 E3.33354
G1 X88.146 Y61.957 E7.08392
G92 E0
G1 X88.948 Y59.795 F7800.000
G1 X77.306 Y71.438 E4.46427 F3600.000
G1 X76.247 Y71.138 E4.76275
G1 X88.579 Y58.805 E9.49172
G1 X88.211 Y57.814 E9.77831
G1 X75.187 Y70.837 E14.77197
G1 X74.128 Y70.537 E15.07045
G1 X87.842 Y56.824 E20.32880
G1 X87.473 Y55.833 E20.61539
G1 X73.069 Y70.237 E26.13843
G1 X72.010 Y69.937 E26.43691
G1 X87.104 Y54.843 E32.22464
G1 X86.735 Y53.852 E32.51123
G1 X70.951 Y69.636 E38.56366
G1 X69.892 Y69.336 E38.86214
G1 X86.367 Y52.861 E45.17925
G1 X85.998 Y51.871 E45.46584
G1 X68.833 Y69.036 E52.04764
G1 X67.774 Y68.736 E52.34613
G1 X85.629 Y50.880 E59.19262
G1 X85.260 Y49.890 E59.47921
G1 X66.714 Y68.435 E66.59040
G1 X65.655 Y68.135 E66.88888
G1 X84.891 Y48.899 E74.26475
G1 X84.522 Y47.909 E74.55134
G1 X64.596 Y67.835 E82.19191
G1 X63.537 Y67.534 E82.49039
G1 X84.154 Y46.918 E90.39565
G1 X82.512 Y47.200 E90.84731
G1 X62.395 Y67.317 E98.56086
G1 X61.065 Y67.288 E98.92174
G1 X80.615 Y47.738 E106.41804
G1 X78.717 Y48.276 E106.95274
G1 X59.707 Y67.286 E114.24207
G1 X58.451 Y67.183 E114.58369
G1 X76.820 Y48.814 E121.62701
G1 X74.923 Y49.352 E122.16171
G1 X57.196 Y67.079 E128.95902
G1 X55.940 Y66.975 E129.30064
G1 X73.025 Y49.890 E135.85193
G1 X71.128 Y50.428 E136.38662
G1 X54.684 Y66.872 E142.69190
G1 X53.429 Y66.768 E143.03352
G1 X69.231 Y50.966 E149.09279
G1 X67.334 Y51.503 E149.62748
G1 X52.173 Y66.664 E155.44073
G1 X50.917 Y66.560 E155.78235
G1 X65.436 Y52.041 E161.34958
G1 X63.539 Y52.579 E161.88428
G1 X49.662 Y66.457 E167.20549
G1 X48.406 Y66.353 E167.54712
G1 X62.053 Y52.706 E172.78005
G1 X60.729 Y52.670 E173.13916
G1 X47.150 Y66.249 E178.34591
G1 X45.894 Y66.146 E178.68753
G1 X59.256 Y52.784 E183.81084
G1 X57.774 Y52.907 E184.21397
G1 X44.639 Y66.042 E189.25060
G1 X43.383 Y65.938 E189.59222
G1 X56.292 Y53.029 E194.54216
G1 X54.811 Y53.151 E194.94529
G1 X42.127 Y65.835 E199.80854
G1 X40.872 Y65.731 E200.15016
G1 X53.329 Y53.274 E204.92674
G1 X51.847 Y53.396 E205.32986
G1 X39.599 Y65.644 E210.02620
G1 X38.314 Y65.570 E210.37521
G1 X50.365 Y53.518 E214.99612
G1 X48.884 Y53.641 E215.39925
G1 X37.040 Y65.484 E219.94044
G1 X35.766 Y65.399 E220.28661
G1 X47.402 Y53.763 E224.74809
G1 X45.920 Y53.886 E225.15121
G1 X34.493 Y65.313 E229.53297
G1 X33.219 Y65.227 E229.87914
G1 X44.438 Y54.008 E234.18118
G1 X42.956 Y54.130 E234.58431
G1 X31.945 Y65.142 E238.80663
G1 X30.671 Y65.056 E239.15279
G1 X41.475 Y54.253 E243.29540
G1 X40.012 Y54.355 E243.69283
G1 X29.397 Y64.971 E247.76322
G1 X28.123 Y64.885 E248.10938
G1 X38.568 Y54.440 E252.11442
G1 X37.111 Y54.538 E252.51041
G1 X26.849 Y64.800 E256.44513
G1 X25.576 Y64.714 E256.79130
G1 X35.654 Y54.636 E260.65570
G1 X34.196 Y54.734 E261.05170
G1 X24.302 Y64.629 E264.84579
G1 X23.028 Y64.543 E265.19196
G1 X32.739 Y54.832 E268.91574
G1 X31.282 Y54.930 E269.31173
G1 X21.754 Y64.458 E272.96520
G1 X20.480 Y64.372 E273.31137
G1 X29.825 Y55.027 E276.89452
G1 X28.368 Y55.125 E277.29052
G1 X19.206 Y64.287 E280.80336
G1 X18.475 Y63.659 E281.06474
G1 X26.910 Y55.223 E284.29937
G1 X25.453 Y55.321 E284.69536
G1 X18.348 Y62.426 E287.41968
G1 X18.222 Y61.193 E287.75574
G1 X23.996 Y55.419 E289.96975
G1 X22.539 Y55.517 E290.36574
G1 X18.103 Y59.952 E292.06641
G1 X17.977 Y58.719 E292.40247
G1 X21.081 Y55.615 E293.59284
G1 X19.624 Y55.712 E293.98883
G1 X17.851 Y57.486 E294.66889
G1 X17.724 Y56.253 E295.00495
G1 X18.167 Y55.810 E295.17470
G92 E0
G1 X62.838 Y51.718 F7800.000
G1 X61.328 Y41.442 F7800.000
G1 X71.840 Y45.975 F7800.000
G1 X74.464 Y45.552 F7800.000
G1 X74.351 Y42.794 F7800.000
G1 X106.941 Y32.304 F7800.000
G1 X110.184 Y35.551 E1.21390 F1800.000
G1 X99.254 Y40.264 E4.36207
